;FLAVOR:Marlin
;TIME:2190
;Filament used: 1.5785m
;Layer height: 0.2
;MINX:99.217
;MINY:90.489
;MINZ:0.2
;MAXX:135.783
;MAXY:149.073
;MAXZ:3.2
;Generated with Cura_SteamEngine 4.6.1
M82 ;absolute extrusion mode
M201 X500.00 Y500.00 Z100.00 E5000.00 ;Setup machine max acceleration
M203 X500.00 Y500.00 Z10.00 E50.00 ;Setup machine max feedrate
M204 P500.00 R1000.00 T500.00 ;Setup Print/Retract/Travel acceleration
M205 X8.00 Y8.00 Z0.40 E5.00 ;Setup Jerk
M220 S100 ;Reset Feedrate
M221 S100 ;Reset Flowrate

M104 S205.0 ; set extruder temp
M140 S55.0 ; set bed temp

G28;
M420 S1 ; enable mesh bed leveling positions
G29 S0; Reading bed leveling values
G0 X4.0 Y4.0 Z20 F7200 ; Move to a position in the left front of the bed

M190 S55.0 ; wait for bed temp
M109 S205.0 ; wait for extruder temp
M300 S2600 P200; Beep


G92 E0 ;Reset Extruder
G1 X4.0 Y4.0 F7200 ; Move to a position in the left front of the bed
G1 Z0.2; Move nozzle above 0.3 mm of the bed
G91 ; Use relative mode
G1 Z1.0 Y200;
G1 Z-1.0;
G1 Y-190 E40 F1000 ; print line left side
G0 Z10.0
G92 E0 ; Set extrusion distance to 0
G90 ; switch back to absolute mode
G92 E0
G92 E0
G1 F3600 E-6
;LAYER_COUNT:13
;LAYER:0
M107
G1 F300 Z0.8
;MESH:Case upper_v5.stl
G0 F6000 X102.017 Y146.273 Z0.8
;TYPE:WALL-INNER
G1 F300 Z0.2
G1 F3600 E0
G1 F900 X102.017 Y93.289 E1.81512
G1 X132.983 Y93.289 E2.87595
G1 X132.983 Y146.273 E4.69108
G1 X102.017 Y146.273 E5.75191
G0 F6000 X101.617 Y146.673
G1 F900 X101.617 Y92.889 E7.59444
G1 X133.383 Y92.889 E8.68267
G1 X133.383 Y146.673 E10.5252
G1 X101.617 Y146.673 E11.61344
G0 F6000 X101.217 Y147.073
G1 F900 X101.217 Y92.489 E13.48338
G1 X133.783 Y92.489 E14.59902
G1 X133.783 Y147.073 E16.46896
G1 X101.217 Y147.073 E17.5846
G0 F6000 X100.817 Y147.473
G1 F900 X100.817 Y92.089 E19.48194
G1 X134.183 Y92.089 E20.62499
G1 X134.183 Y147.473 E22.52233
G1 X100.817 Y147.473 E23.66538
G0 F6000 X100.417 Y147.873
G1 F900 X100.417 Y91.689 E25.59013
G1 X134.583 Y91.689 E26.76059
G1 X134.583 Y147.873 E28.68534
G1 X100.417 Y147.873 E29.85579
G0 F6000 X100.017 Y148.273
G1 F900 X100.017 Y91.289 E31.80795
G1 X134.983 Y91.289 E33.00581
G1 X134.983 Y148.273 E34.95797
G1 X100.017 Y148.273 E36.15583
G0 F6000 X99.617 Y148.673
G1 F900 X99.617 Y90.889 E38.13539
G1 X135.383 Y90.889 E39.36066
G1 X135.383 Y148.673 E41.34022
G1 X99.617 Y148.673 E42.56549
G0 F6000 X99.217 Y149.073
;TYPE:WALL-OUTER
G1 F900 X99.217 Y90.489 E44.57246
G1 X135.783 Y90.489 E45.82513
G1 X135.783 Y149.073 E47.8321
G1 X99.217 Y149.073 E49.08478
G1 F3600 E43.08478
G1 F300 Z0.8
G0 F6000 X102.407 Y145.883 Z0.8
;TYPE:SKIN
G1 F300 Z0.2
G1 F3600 E49.08478
G1 F900 X102.407 Y93.679 E50.87318
G1 X132.593 Y93.679 E51.90729
G1 X132.593 Y145.883 E53.69569
G1 X102.407 Y145.883 E54.7298
G0 F6000 X102.729 Y145.721
G1 F900 X102.566 Y145.558 E54.7377
G0 F6000 X102.566 Y144.992
G1 F900 X103.295 Y145.721 E54.77301
G0 F6000 X103.861 Y145.721
G1 F900 X102.566 Y144.427 E54.83573
G0 F6000 X102.566 Y143.861
G1 F900 X104.426 Y145.721 E54.92584
G0 F6000 X104.992 Y145.721
G1 F900 X102.566 Y143.295 E55.04338
G0 F6000 X102.566 Y142.73
G1 F900 X105.558 Y145.721 E55.18831
G0 F6000 X106.123 Y145.721
G1 F900 X102.566 Y142.164 E55.36064
G0 F6000 X102.566 Y141.598
G1 F900 X106.689 Y145.721 E55.56039
G0 F6000 X107.255 Y145.721
G1 F900 X102.566 Y141.033 E55.78754
G0 F6000 X102.566 Y140.467
G1 F900 X107.821 Y145.721 E56.04211
G0 F6000 X108.386 Y145.721
G1 F900 X102.566 Y139.901 E56.32408
G0 F6000 X102.566 Y139.336
G1 F900 X108.952 Y145.721 E56.63344
G0 F6000 X109.518 Y145.721
G1 F900 X102.566 Y138.77 E56.97023
G0 F6000 X102.566 Y138.204
G1 F900 X110.083 Y145.721 E57.33441
G0 F6000 X110.649 Y145.721
G1 F900 X102.566 Y137.639 E57.72599
G0 F6000 X102.566 Y137.073
G1 F900 X111.215 Y145.721 E58.145
G0 F6000 X111.78 Y145.721
G1 F900 X102.566 Y136.507 E58.5914
G0 F6000 X102.566 Y135.941
G1 F900 X112.346 Y145.721 E59.06522
G0 F6000 X112.912 Y145.721
G1 F900 X102.566 Y135.376 E59.56644
G0 F6000 X102.566 Y134.81
G1 F900 X113.477 Y145.721 E60.09506
G0 F6000 X114.043 Y145.721
G1 F900 X102.566 Y134.244 E60.65109
G0 F6000 X102.566 Y133.679
G1 F900 X114.609 Y145.721 E61.23453
G0 F6000 X115.174 Y145.721
G1 F900 X102.566 Y133.113 E61.84536
G0 F6000 X102.566 Y132.547
G1 F900 X115.74 Y145.721 E62.48362
G0 F6000 X116.306 Y145.721
G1 F900 X102.566 Y131.982 E63.14927
G0 F6000 X102.566 Y131.416
G1 F900 X116.872 Y145.721 E63.84234
G0 F6000 X117.437 Y145.721
G1 F900 X102.566 Y130.85 E64.56281
G0 F6000 X102.566 Y130.285
G1 F900 X118.003 Y145.721 E65.31068
G0 F6000 X118.569 Y145.721
G1 F900 X102.566 Y129.719 E66.08597
G0 F6000 X102.566 Y129.153
G1 F900 X119.134 Y145.721 E66.88866
G0 F6000 X119.7 Y145.721
G1 F900 X102.566 Y128.588 E67.71874
G0 F6000 X102.566 Y128.022
G1 F900 X120.266 Y145.721 E68.57625
G0 F6000 X120.831 Y145.721
G1 F900 X102.566 Y127.456 E69.46115
G0 F6000 X102.566 Y126.891
G1 F900 X121.397 Y145.721 E70.37345
G0 F6000 X121.963 Y145.721
G1 F900 X102.566 Y126.325 E71.31318
G0 F6000 X102.566 Y125.759
G1 F900 X122.528 Y145.721 E72.2803
G0 F6000 X123.094 Y145.721
G1 F900 X102.566 Y125.193 E73.27484
G0 F6000 X102.566 Y124.628
G1 F900 X123.66 Y145.721 E74.29678
G0 F6000 X124.225 Y145.721
G1 F900 X102.566 Y124.062 E75.34611
G0 F6000 X102.566 Y123.496
G1 F900 X124.791 Y145.721 E76.42287
G0 F6000 X125.357 Y145.721
G1 F900 X102.566 Y122.931 E77.52702
G0 F6000 X102.566 Y122.365
G1 F900 X125.922 Y145.721 E78.65858
G0 F6000 X126.488 Y145.721
G1 F900 X102.566 Y121.799 E79.81755
G0 F6000 X102.566 Y121.234
G1 F900 X127.054 Y145.721 E81.00392
G0 F6000 X127.62 Y145.721
G1 F900 X102.566 Y120.668 E82.21772
G0 F6000 X102.566 Y120.102
G1 F900 X128.185 Y145.721 E83.45891
G0 F6000 X128.751 Y145.721
G1 F900 X102.566 Y119.537 E84.72749
G0 F6000 X102.566 Y118.971
G1 F900 X129.317 Y145.721 E86.0235
G0 F6000 X129.882 Y145.721
G1 F900 X102.566 Y118.405 E87.34691
G0 F6000 X102.566 Y117.84
G1 F900 X130.448 Y145.721 E88.69771
G0 F6000 X131.014 Y145.721
G1 F900 X102.566 Y117.274 E90.07594
G0 F6000 X102.566 Y116.708
G1 F900 X131.579 Y145.721 E91.48156
G0 F6000 X132.145 Y145.721
G1 F900 X102.566 Y116.142 E92.91461
G0 F6000 X102.566 Y115.577
G1 F900 X132.432 Y145.443 E94.36156
G0 F6000 X132.432 Y144.877
G1 F900 X102.566 Y115.011 E95.80851
G0 F6000 X102.566 Y114.445
G1 F900 X132.432 Y144.312 E97.25548
G0 F6000 X132.432 Y143.746
G1 F900 X102.566 Y113.88 E98.70243
G0 F6000 X102.566 Y113.314
G1 F900 X132.432 Y143.18 E100.14938
G0 F6000 X132.432 Y142.614
G1 F900 X102.566 Y112.748 E101.59633
G0 F6000 X102.566 Y112.183
G1 F900 X132.432 Y142.049 E103.04328
G0 F6000 X132.432 Y141.483
G1 F900 X102.566 Y111.617 E104.49023
G0 F6000 X102.566 Y111.051
G1 F900 X132.432 Y140.917 E105.93717
G0 F6000 X132.432 Y140.352
G1 F900 X102.566 Y110.486 E107.38412
G0 F6000 X102.566 Y109.92
G1 F900 X132.432 Y139.786 E108.83107
G0 F6000 X132.432 Y139.22
G1 F900 X102.566 Y109.354 E110.27802
G0 F6000 X102.566 Y108.789
G1 F900 X132.432 Y138.655 E111.72497
G0 F6000 X132.432 Y138.089
G1 F900 X102.566 Y108.223 E113.17192
G0 F6000 X102.566 Y107.657
G1 F900 X132.432 Y137.523 E114.61887
G0 F6000 X132.432 Y136.958
G1 F900 X102.566 Y107.092 E116.06582
G0 F6000 X102.566 Y106.526
G1 F900 X132.432 Y136.392 E117.51277
G0 F6000 X132.432 Y135.826
G1 F900 X102.566 Y105.96 E118.95972
G0 F6000 X102.566 Y105.394
G1 F900 X132.432 Y135.261 E120.40669
G0 F6000 X132.432 Y134.695
G1 F900 X102.566 Y104.829 E121.85364
G0 F6000 X102.566 Y104.263
G1 F900 X132.432 Y134.129 E123.30059
G0 F6000 X132.432 Y133.563
G1 F900 X102.566 Y103.697 E124.74754
G0 F6000 X102.566 Y103.132
G1 F900 X132.432 Y132.998 E126.19449
G0 F6000 X132.432 Y132.432
G1 F900 X102.566 Y102.566 E127.64144
G0 F6000 X102.566 Y102
G1 F900 X132.432 Y131.866 E129.08839
G0 F6000 X132.432 Y131.301
G1 F900 X102.566 Y101.435 E130.53534
G0 F6000 X102.566 Y100.869
G1 F900 X132.432 Y130.735 E131.98228
G0 F6000 X132.432 Y130.169
G1 F900 X102.566 Y100.303 E133.42923
G0 F6000 X102.566 Y99.738
G1 F900 X132.432 Y129.604 E134.87618
G0 F6000 X132.432 Y129.038
G1 F900 X102.566 Y99.172 E136.32313
G0 F6000 X102.566 Y98.606
G1 F900 X132.432 Y128.472 E137.77008
G0 F6000 X132.432 Y127.907
G1 F900 X102.566 Y98.041 E139.21703
G0 F6000 X102.566 Y97.475
G1 F900 X132.432 Y127.341 E140.66398
G0 F6000 X132.432 Y126.775
G1 F900 X102.566 Y96.909 E142.11093
G0 F6000 X102.566 Y96.344
G1 F900 X132.432 Y126.21 E143.55788
G0 F6000 X132.432 Y125.644
G1 F900 X102.566 Y95.778 E145.00483
G0 F6000 X102.566 Y95.212
G1 F900 X132.432 Y125.078 E146.45178
G0 F6000 X132.432 Y124.513
G1 F900 X102.566 Y94.646 E147.89875
G0 F6000 X102.566 Y94.081
G1 F900 X132.432 Y123.947 E149.3457
G0 F6000 X132.432 Y123.381
G1 F900 X102.89 Y93.839 E150.77695
G0 F6000 X103.456 Y93.839
G1 F900 X132.432 Y122.815 E152.18078
G0 F6000 X132.432 Y122.25
G1 F900 X104.021 Y93.839 E153.55724
G0 F6000 X104.587 Y93.839
G1 F900 X132.432 Y121.684 E154.90628
G0 F6000 X132.432 Y121.118
G1 F900 X105.153 Y93.839 E156.22789
G0 F6000 X105.718 Y93.839
G1 F900 X132.432 Y120.553 E157.52213
G0 F6000 X132.432 Y119.987
G1 F900 X106.284 Y93.839 E158.78895
G0 F6000 X106.85 Y93.839
G1 F900 X132.432 Y119.421 E160.02835
G0 F6000 X132.432 Y118.856
G1 F900 X107.415 Y93.839 E161.24037
G0 F6000 X107.981 Y93.839
G1 F900 X132.432 Y118.29 E162.42498
G0 F6000 X132.432 Y117.724
G1 F900 X108.547 Y93.839 E163.58216
G0 F6000 X109.112 Y93.839
G1 F900 X132.432 Y117.159 E164.71197
G0 F6000 X132.432 Y116.593
G1 F900 X109.678 Y93.839 E165.81435
G0 F6000 X110.244 Y93.839
G1 F900 X132.432 Y116.027 E166.88932
G0 F6000 X132.432 Y115.462
G1 F900 X110.809 Y93.839 E167.93691
G0 F6000 X111.375 Y93.839
G1 F900 X132.432 Y114.896 E168.95708
G0 F6000 X132.432 Y114.33
G1 F900 X111.941 Y93.839 E169.94983
G0 F6000 X112.507 Y93.839
G1 F900 X132.432 Y113.764 E170.91516
G0 F6000 X132.432 Y113.199
G1 F900 X113.072 Y93.839 E171.85311
G0 F6000 X113.638 Y93.839
G1 F900 X132.432 Y112.633 E172.76364
G0 F6000 X132.432 Y112.067
G1 F900 X114.204 Y93.839 E173.64675
G0 F6000 X114.769 Y93.839
G1 F900 X132.432 Y111.502 E174.50249
G0 F6000 X132.432 Y110.936
G1 F900 X115.335 Y93.839 E175.33081
G0 F6000 X115.901 Y93.839
G1 F900 X132.432 Y110.37 E176.1317
G0 F6000 X132.432 Y109.805
G1 F900 X116.466 Y93.839 E176.90522
G0 F6000 X117.032 Y93.839
G1 F900 X132.432 Y109.239 E177.65132
G0 F6000 X132.432 Y108.673
G1 F900 X117.598 Y93.839 E178.37
G0 F6000 X118.163 Y93.839
G1 F900 X132.432 Y108.108 E179.06131
G0 F6000 X132.432 Y107.542
G1 F900 X118.729 Y93.839 E179.72519
G0 F6000 X119.295 Y93.839
G1 F900 X132.432 Y106.976 E180.36165
G0 F6000 X132.432 Y106.411
G1 F900 X119.86 Y93.839 E180.97074
G0 F6000 X120.426 Y93.839
G1 F900 X132.432 Y105.845 E181.55241
G0 F6000 X132.432 Y105.279
G1 F900 X120.992 Y93.839 E182.10665
G0 F6000 X121.558 Y93.839
G1 F900 X132.432 Y104.714 E182.6335
G0 F6000 X132.432 Y104.148
G1 F900 X122.123 Y93.839 E183.13295
G0 F6000 X122.689 Y93.839
G1 F900 X132.432 Y103.582 E183.60498
G0 F6000 X132.432 Y103.016
G1 F900 X123.255 Y93.839 E184.04959
G0 F6000 X123.82 Y93.839
G1 F900 X132.432 Y102.451 E184.46682
G0 F6000 X132.432 Y101.885
G1 F900 X124.386 Y93.839 E184.85664
G0 F6000 X124.952 Y93.839
G1 F900 X132.432 Y101.319 E185.21903
G0 F6000 X132.432 Y100.754
G1 F900 X125.517 Y93.839 E185.55405
G0 F6000 X126.083 Y93.839
G1 F900 X132.432 Y100.188 E185.86164
G0 F6000 X132.432 Y99.622
G1 F900 X126.649 Y93.839 E186.14182
G0 F6000 X127.214 Y93.839
G1 F900 X132.432 Y99.057 E186.39462
G0 F6000 X132.432 Y98.491
G1 F900 X127.78 Y93.839 E186.62
G0 F6000 X128.346 Y93.839
G1 F900 X132.432 Y97.925 E186.81796
G0 F6000 X132.432 Y97.36
G1 F900 X128.911 Y93.839 E186.98854
G0 F6000 X129.477 Y93.839
G1 F900 X132.432 Y96.794 E187.13171
G0 F6000 X132.432 Y96.228
G1 F900 X130.043 Y93.839 E187.24745
G0 F6000 X130.608 Y93.839
G1 F900 X132.432 Y95.663 E187.33582
G0 F6000 X132.432 Y95.097
G1 F900 X131.174 Y93.839 E187.39677
G0 F6000 X131.74 Y93.839
G1 F900 X132.432 Y94.531 E187.43029
G0 F6000 X132.432 Y93.966
M104 S205
G1 F900 X132.306 Y93.839 E187.43642
G1 F3600 E181.43642
G1 F300 Z0.8
;MESH:NONMESH
G0 F6000 X102.017 Y146.273 Z0.8
;TIME_ELAPSED:380.582492
;LAYER:1
M140 S45
M106 S127.5
;MESH:Case upper_v5.stl
G0 F9000 X102.017 Y146.273 Z1
;TYPE:WALL-INNER
G1 F300 Z0.4
G1 F3600 E187.43642
G1 F1200 X102.017 Y93.289 E189.25155
G1 X132.983 Y93.289 E190.31238
G1 X132.983 Y146.273 E192.1275
G1 X102.017 Y146.273 E193.18833
G0 F9000 X101.617 Y146.673
G1 F1200 X101.617 Y92.889 E195.03086
G1 X133.383 Y92.889 E196.1191
G1 X133.383 Y146.673 E197.96163
G1 X101.617 Y146.673 E199.04986
G0 F9000 X101.217 Y147.073
G1 F1200 X101.217 Y92.489 E200.9198
G1 X133.783 Y92.489 E202.03544
G1 X133.783 Y147.073 E203.90538
G1 X101.217 Y147.073 E205.02102
G0 F9000 X100.817 Y147.473
G1 F1200 X100.817 Y92.089 E206.91836
G1 X134.183 Y92.089 E208.06141
G1 X134.183 Y147.473 E209.95876
G1 X100.817 Y147.473 E211.10181
G0 F9000 X100.417 Y147.873
G1 F1200 X100.417 Y91.689 E213.02655
G1 X134.583 Y91.689 E214.19701
G1 X134.583 Y147.873 E216.12176
G1 X100.417 Y147.873 E217.29222
G0 F9000 X100.017 Y148.273
G1 F1200 X100.017 Y91.289 E219.24437
G1 X134.983 Y91.289 E220.44223
G1 X134.983 Y148.273 E222.39439
G1 X100.017 Y148.273 E223.59225
G0 F9000 X99.617 Y148.673
G1 F1200 X99.617 Y90.889 E225.57181
G1 X135.383 Y90.889 E226.79708
G1 X135.383 Y148.673 E228.77664
G1 X99.617 Y148.673 E230.00191
G0 F9000 X99.217 Y149.073
;TYPE:WALL-OUTER
G1 F1200 X99.217 Y90.489 E232.00888
G1 X135.783 Y90.489 E233.26155
G1 X135.783 Y149.073 E235.26852
G1 X99.217 Y149.073 E236.5212
G1 F3600 E230.5212
G1 F300 Z1
G0 F9000 X102.407 Y145.883 Z1
;TYPE:SKIN
G1 F300 Z0.4
G1 F3600 E236.5212
G1 F1200 X102.407 Y93.679 E238.3096
G1 X132.593 Y93.679 E239.34371
G1 X132.593 Y145.883 E241.13211
G1 X102.407 Y145.883 E242.16622
G1 F3600 E236.16622
G1 F300 Z1
G0 F9000 X132.029 Y145.721 Z1
G1 F300 Z0.4
G1 F3600 E242.16622
G1 F1200 X132.432 Y145.318 E242.18575
G0 F9000 X132.432 Y144.753
G1 F1200 X131.463 Y145.721 E242.23267
G0 F9000 X130.898 Y145.721
G1 F1200 X132.432 Y144.187 E242.30699
G0 F9000 X132.432 Y143.621
G1 F1200 X130.332 Y145.721 E242.40873
G0 F9000 X129.766 Y145.721
G1 F1200 X132.432 Y143.056 E242.53787
G0 F9000 X132.432 Y142.49
G1 F1200 X129.201 Y145.721 E242.6944
G0 F9000 X128.635 Y145.721
G1 F1200 X132.432 Y141.924 E242.87836
G0 F9000 X132.432 Y141.359
G1 F1200 X128.069 Y145.721 E243.08971
G0 F9000 X127.504 Y145.721
G1 F1200 X132.432 Y140.793 E243.32847
G0 F9000 X132.432 Y140.227
G1 F1200 X126.938 Y145.721 E243.59464
G0 F9000 X126.372 Y145.721
G1 F1200 X132.432 Y139.662 E243.88821
G0 F9000 X132.432 Y139.096
G1 F1200 X125.807 Y145.721 E244.20918
G0 F9000 X125.241 Y145.721
G1 F1200 X132.432 Y138.53 E244.55757
G0 F9000 X132.432 Y137.965
G1 F1200 X124.675 Y145.721 E244.93335
G0 F9000 X124.109 Y145.721
G1 F1200 X132.432 Y137.399 E245.33656
G0 F9000 X132.432 Y136.833
G1 F1200 X123.544 Y145.721 E245.76717
G0 F9000 X122.978 Y145.721
G1 F1200 X132.432 Y136.267 E246.2252
G0 F9000 X132.432 Y135.702
G1 F1200 X122.412 Y145.721 E246.71062
G0 F9000 X121.847 Y145.721
G1 F1200 X132.432 Y135.136 E247.22345
G0 F9000 X132.432 Y134.57
G1 F1200 X121.281 Y145.721 E247.76369
G0 F9000 X120.715 Y145.721
G1 F1200 X132.432 Y134.005 E248.33133
G0 F9000 X132.432 Y133.439
G1 F1200 X120.15 Y145.721 E248.92637
G0 F9000 X119.584 Y145.721
G1 F1200 X132.432 Y132.873 E249.54883
G0 F9000 X132.432 Y132.308
G1 F1200 X119.018 Y145.721 E250.19869
G0 F9000 X118.453 Y145.721
G1 F1200 X132.432 Y131.742 E250.87594
G0 F9000 X132.432 Y131.176
G1 F1200 X117.887 Y145.721 E251.58062
G0 F9000 X117.321 Y145.721
G1 F1200 X132.432 Y130.611 E252.31269
G0 F9000 X132.432 Y130.045
G1 F1200 X116.756 Y145.721 E253.07217
G0 F9000 X116.19 Y145.721
G1 F1200 X132.432 Y129.479 E253.85906
G0 F9000 X132.432 Y128.914
G1 F1200 X115.624 Y145.721 E254.67335
G0 F9000 X115.059 Y145.721
G1 F1200 X132.432 Y128.348 E255.51504
G0 F9000 X132.432 Y127.782
G1 F1200 X114.493 Y145.721 E256.38415
G0 F9000 X113.927 Y145.721
G1 F1200 X132.432 Y127.216 E257.28068
G0 F9000 X132.432 Y126.651
G1 F1200 X113.361 Y145.721 E258.20461
G0 F9000 X112.796 Y145.721
G1 F1200 X132.432 Y126.085 E259.15593
G0 F9000 X132.432 Y125.519
G1 F1200 X112.23 Y145.721 E260.13468
G0 F9000 X111.664 Y145.721
