;FLAVOR:Marlin
;TIME:6253
;Filament used: 4.71885m
;Layer height: 0.2
;MINX:88.007
;MINY:99.217
;MINZ:0.2
;MAXX:146.792
;MAXY:135.783
;MAXZ:26.8
;Generated with Cura_SteamEngine 4.6.1
M82 ;absolute extrusion mode
M201 X500.00 Y500.00 Z100.00 E5000.00 ;Setup machine max acceleration
M203 X500.00 Y500.00 Z10.00 E50.00 ;Setup machine max feedrate
M204 P500.00 R1000.00 T500.00 ;Setup Print/Retract/Travel acceleration
M205 X8.00 Y8.00 Z0.40 E5.00 ;Setup Jerk
M220 S100 ;Reset Feedrate
M221 S100 ;Reset Flowrate

M104 S205.0 ; set extruder temp
M140 S55.0 ; set bed temp

G28;
M420 S1 ; enable mesh bed leveling positions
G29 S0; Reading bed leveling values
G0 X4.0 Y4.0 Z20 F7200 ; Move to a position in the left front of the bed

M190 S55.0 ; wait for bed temp
M109 S205.0 ; wait for extruder temp
M300 S2600 P200; Beep


G92 E0 ;Reset Extruder
G1 X4.0 Y4.0 F7200 ; Move to a position in the left front of the bed
G1 Z0.2; Move nozzle above 0.3 mm of the bed
G91 ; Use relative mode
G1 Z1.0 Y200;
G1 Z-1.0;
G1 Y-190 E40 F1000 ; print line left side
G0 Z10.0
G92 E0 ; Set extrusion distance to 0
G90 ; switch back to absolute mode
G92 E0
G92 E0
G1 F3600 E-6
;LAYER_COUNT:134
;LAYER:0
M107
G1 F300 Z0.8
;MESH:Case lower_v5.stl
G0 F6000 X91.008 Y132.983 Z0.8
;TYPE:WALL-INNER
G1 F300 Z0.2
G1 F3600 E0
G1 F900 X91.008 Y102.017 E1.06083
G1 X143.992 Y102.017 E2.87595
G1 X143.992 Y132.983 E3.93679
G1 X91.008 Y132.983 E5.75191
G0 F6000 X90.608 Y133.383
G1 F900 X90.608 Y101.617 E6.84015
G1 X144.392 Y101.617 E8.68267
G1 X144.392 Y133.383 E9.77091
G1 X90.608 Y133.383 E11.61344
G0 F6000 X90.208 Y133.783
G1 F900 X90.208 Y101.217 E12.72909
G1 X144.792 Y101.217 E14.59902
G1 X144.792 Y133.783 E15.71466
G1 X90.208 Y133.783 E17.5846
G0 F6000 X89.808 Y134.183
G1 F900 X89.808 Y100.817 E18.72765
G1 X145.192 Y100.817 E20.62499
G1 X145.192 Y134.183 E21.76804
G1 X89.808 Y134.183 E23.66538
G0 F6000 X89.408 Y134.583
G1 F900 X89.408 Y100.417 E24.83584
G1 X145.592 Y100.417 E26.76059
G1 X145.592 Y134.583 E27.93105
G1 X89.408 Y134.583 E29.85579
G0 F6000 X89.008 Y134.983
G1 F900 X89.008 Y100.017 E31.05366
G1 X145.992 Y100.017 E33.00581
G1 X145.992 Y134.983 E34.20367
G1 X89.008 Y134.983 E36.15583
G0 F6000 X88.608 Y135.383
G1 F900 X88.608 Y99.617 E37.3811
G1 X146.392 Y99.617 E39.36066
G1 X146.392 Y135.383 E40.58593
G1 X88.608 Y135.383 E42.56549
G0 F6000 X88.208 Y135.783
;TYPE:WALL-OUTER
G1 F900 X88.208 Y99.217 E43.81817
G1 X146.792 Y99.217 E45.82513
G1 X146.792 Y135.783 E47.07781
G1 X88.208 Y135.783 E49.08478
G1 F3600 E43.08478
G1 F300 Z0.8
G0 F6000 X91.398 Y132.593 Z0.8
;TYPE:SKIN
G1 F300 Z0.2
G1 F3600 E49.08478
G1 F900 X91.398 Y102.407 E50.11889
G1 X143.602 Y102.407 E51.90729
G1 X143.602 Y132.593 E52.9414
G1 X91.398 Y132.593 E54.7298
G0 F6000 X91.702 Y132.431
G1 F900 X91.558 Y132.287 E54.73677
G0 F6000 X91.558 Y131.721
G1 F900 X92.268 Y132.431 E54.77117
G0 F6000 X92.833 Y132.431
G1 F900 X91.558 Y131.156 E54.83294
G0 F6000 X91.558 Y130.59
G1 F900 X93.399 Y132.431 E54.92214
G0 F6000 X93.965 Y132.431
G1 F900 X91.558 Y130.024 E55.03875
G0 F6000 X91.558 Y129.459
G1 F900 X94.53 Y132.431 E55.18274
G0 F6000 X95.096 Y132.431
G1 F900 X91.558 Y128.893 E55.35415
G0 F6000 X91.558 Y128.327
G1 F900 X95.662 Y132.431 E55.55298
G0 F6000 X96.228 Y132.431
G1 F900 X91.558 Y127.762 E55.77921
G0 F6000 X91.558 Y127.196
G1 F900 X96.793 Y132.431 E56.03283
G0 F6000 X97.359 Y132.431
G1 F900 X91.558 Y126.63 E56.31388
G0 F6000 X91.558 Y126.065
G1 F900 X97.925 Y132.431 E56.62232
G0 F6000 X98.49 Y132.431
G1 F900 X91.558 Y125.499 E56.95817
G0 F6000 X91.558 Y124.933
G1 F900 X99.056 Y132.431 E57.32143
G0 F6000 X99.622 Y132.431
G1 F900 X91.558 Y124.368 E57.71209
G0 F6000 X91.558 Y123.802
G1 F900 X100.187 Y132.431 E58.13015
G0 F6000 X100.753 Y132.431
G1 F900 X91.558 Y123.236 E58.57563
G0 F6000 X91.558 Y122.671
G1 F900 X101.319 Y132.431 E59.04851
G0 F6000 X101.884 Y132.431
G1 F900 X91.558 Y122.105 E59.54878
G0 F6000 X91.558 Y121.539
G1 F900 X102.45 Y132.431 E60.07648
G0 F6000 X103.016 Y132.431
G1 F900 X91.558 Y120.973 E60.63159
G0 F6000 X91.558 Y120.408
G1 F900 X103.581 Y132.431 E61.21408
G0 F6000 X104.147 Y132.431
G1 F900 X91.558 Y119.842 E61.824
G0 F6000 X91.558 Y119.276
G1 F900 X104.713 Y132.431 E62.46133
G0 F6000 X105.279 Y132.431
G1 F900 X91.558 Y118.711 E63.12606
G0 F6000 X91.558 Y118.145
G1 F900 X105.844 Y132.431 E63.81819
G0 F6000 X106.41 Y132.431
G1 F900 X91.558 Y117.579 E64.53774
G0 F6000 X91.558 Y117.014
G1 F900 X106.976 Y132.431 E65.28469
G0 F6000 X107.541 Y132.431
G1 F900 X91.558 Y116.448 E66.05903
G0 F6000 X91.558 Y115.882
G1 F900 X108.107 Y132.431 E66.8608
G0 F6000 X108.673 Y132.431
G1 F900 X91.558 Y115.317 E67.68996
G0 F6000 X91.558 Y114.751
G1 F900 X109.238 Y132.431 E68.54653
G0 F6000 X109.804 Y132.431
G1 F900 X91.558 Y114.185 E69.43051
G0 F6000 X91.558 Y113.62
G1 F900 X110.37 Y132.431 E70.34189
G0 F6000 X110.935 Y132.431
G1 F900 X91.558 Y113.054 E71.28067
G0 F6000 X91.558 Y112.488
G1 F900 X111.501 Y132.431 E72.24687
G0 F6000 X112.067 Y132.431
G1 F900 X91.558 Y111.922 E73.24049
G0 F6000 X91.558 Y111.357
G1 F900 X112.632 Y132.431 E74.26148
G0 F6000 X113.198 Y132.431
G1 F900 X91.558 Y110.791 E75.3099
G0 F6000 X91.558 Y110.225
G1 F900 X113.764 Y132.431 E76.38573
G0 F6000 X114.329 Y132.431
G1 F900 X91.558 Y109.66 E77.48894
G0 F6000 X91.558 Y109.094
G1 F900 X114.895 Y132.431 E78.61958
G0 F6000 X115.461 Y132.431
G1 F900 X91.558 Y108.528 E79.77763
G0 F6000 X91.558 Y107.963
G1 F900 X116.027 Y132.431 E80.96308
G0 F6000 X116.592 Y132.431
G1 F900 X91.558 Y107.397 E82.17593
G0 F6000 X91.558 Y106.831
G1 F900 X117.158 Y132.431 E83.4162
G0 F6000 X117.724 Y132.432
G1 F900 X91.558 Y106.266 E84.68389
G0 F6000 X91.558 Y105.7
G1 F900 X118.29 Y132.432 E85.979
G0 F6000 X118.856 Y132.432
G1 F900 X91.558 Y105.134 E87.30154
G0 F6000 X91.558 Y104.569
G1 F900 X119.421 Y132.432 E88.65145
G0 F6000 X119.987 Y132.432
G1 F900 X91.558 Y104.003 E90.02878
G0 F6000 X91.558 Y103.437
G1 F900 X120.553 Y132.432 E91.43353
G0 F6000 X121.118 Y132.432
G1 F900 X91.558 Y102.872 E92.86565
G0 F6000 X91.819 Y102.567
G1 F900 X121.684 Y132.432 E94.31255
G0 F6000 X122.25 Y132.432
G1 F900 X92.384 Y102.567 E95.75948
G0 F6000 X92.95 Y102.567
G1 F900 X122.815 Y132.432 E97.20638
G0 F6000 X123.381 Y132.432
G1 F900 X93.516 Y102.567 E98.65328
G0 F6000 X94.081 Y102.567
G1 F900 X123.947 Y132.432 E100.1002
G0 F6000 X124.513 Y132.432
G1 F900 X94.647 Y102.567 E101.54713
G0 F6000 X95.213 Y102.567
G1 F900 X125.078 Y132.432 E102.99403
G0 F6000 X125.644 Y132.432
G1 F900 X95.779 Y102.567 E104.44093
G0 F6000 X96.344 Y102.567
G1 F900 X126.21 Y132.432 E105.88785
G0 F6000 X126.775 Y132.432
G1 F900 X96.91 Y102.567 E107.33476
G0 F6000 X97.476 Y102.567
G1 F900 X127.341 Y132.432 E108.78166
G0 F6000 X127.907 Y132.432
G1 F900 X98.041 Y102.567 E110.22858
G0 F6000 X98.607 Y102.567
G1 F900 X128.472 Y132.432 E111.67548
G0 F6000 X129.038 Y132.432
G1 F900 X99.173 Y102.567 E113.12238
G0 F6000 X99.738 Y102.567
G1 F900 X129.604 Y132.432 E114.56931
G0 F6000 X130.169 Y132.432
G1 F900 X100.304 Y102.567 E116.01621
G0 F6000 X100.87 Y102.567
G1 F900 X130.735 Y132.432 E117.46311
G0 F6000 X131.301 Y132.432
G1 F900 X101.435 Y102.567 E118.91003
G0 F6000 X102.001 Y102.567
G1 F900 X131.866 Y132.432 E120.35693
G0 F6000 X132.432 Y132.432
G1 F900 X102.567 Y102.567 E121.80384
G0 F6000 X103.132 Y102.567
G1 F900 X132.998 Y132.432 E123.25076
G0 F6000 X133.563 Y132.432
G1 F900 X103.698 Y102.567 E124.69766
G0 F6000 X104.264 Y102.567
G1 F900 X134.129 Y132.432 E126.14456
G0 F6000 X134.695 Y132.432
G1 F900 X104.829 Y102.567 E127.59149
G0 F6000 X105.395 Y102.567
G1 F900 X135.261 Y132.432 E129.03841
G0 F6000 X135.826 Y132.432
G1 F900 X105.961 Y102.567 E130.48531
G0 F6000 X106.527 Y102.567
G1 F900 X136.392 Y132.432 E131.93221
G0 F6000 X136.958 Y132.432
G1 F900 X107.092 Y102.567 E133.37914
G0 F6000 X107.658 Y102.567
G1 F900 X137.523 Y132.432 E134.82604
G0 F6000 X138.089 Y132.432
G1 F900 X108.224 Y102.567 E136.27294
G0 F6000 X108.789 Y102.567
G1 F900 X138.655 Y132.432 E137.71987
G0 F6000 X139.22 Y132.432
G1 F900 X109.355 Y102.567 E139.16677
G0 F6000 X109.921 Y102.567
G1 F900 X139.786 Y132.432 E140.61367
G0 F6000 X140.352 Y132.432
G1 F900 X110.486 Y102.567 E142.06059
G0 F6000 X111.052 Y102.567
G1 F900 X140.917 Y132.432 E143.50749
G0 F6000 X141.483 Y132.432
G1 F900 X111.618 Y102.567 E144.95439
G0 F6000 X112.183 Y102.567
G1 F900 X142.049 Y132.432 E146.40132
G0 F6000 X142.614 Y132.432
G1 F900 X112.749 Y102.567 E147.84822
G0 F6000 X113.315 Y102.567
G1 F900 X143.18 Y132.432 E149.29512
G0 F6000 X143.441 Y132.127
G1 F900 X113.88 Y102.567 E150.72727
G0 F6000 X114.446 Y102.567
G1 F900 X143.441 Y131.562 E152.13202
G0 F6000 X143.441 Y130.996
G1 F900 X115.012 Y102.567 E153.50935
G0 F6000 X115.578 Y102.567
G1 F900 X143.441 Y130.43 E154.85926
G0 F6000 X143.441 Y129.865
G1 F900 X116.143 Y102.567 E156.18179
G0 F6000 X116.709 Y102.567
G1 F900 X143.441 Y129.299 E157.4769
G0 F6000 X143.441 Y128.733
G1 F900 X117.275 Y102.567 E158.7446
G0 F6000 X117.84 Y102.567
G1 F900 X143.441 Y128.168 E159.98491
G0 F6000 X143.441 Y127.602
G1 F900 X118.406 Y102.567 E161.19781
G0 F6000 X118.972 Y102.567
G1 F900 X143.441 Y127.036 E162.38329
G0 F6000 X143.441 Y126.47
G1 F900 X119.537 Y102.567 E163.54136
G0 F6000 X120.103 Y102.567
G1 F900 X143.441 Y125.905 E164.67204
G0 F6000 X143.441 Y125.339
G1 F900 X120.669 Y102.567 E165.7753
G0 F6000 X121.234 Y102.567
G1 F900 X143.441 Y124.773 E166.85116
G0 F6000 X143.441 Y124.208
G1 F900 X121.8 Y102.567 E167.89963
G0 F6000 X122.366 Y102.567
G1 F900 X143.441 Y123.642 E168.92067
G0 F6000 X143.441 Y123.076
G1 F900 X122.931 Y102.567 E169.91432
G0 F6000 X123.497 Y102.567
G1 F900 X143.441 Y122.511 E170.88056
G0 F6000 X143.441 Y121.945
G1 F900 X124.063 Y102.567 E171.81939
G0 F6000 X124.628 Y102.567
G1 F900 X143.441 Y121.379 E172.73082
G0 F6000 X143.441 Y120.814
G1 F900 X125.194 Y102.567 E173.61485
G0 F6000 X125.76 Y102.567
G1 F900 X143.441 Y120.248 E174.47146
G0 F6000 X143.441 Y119.682
G1 F900 X126.326 Y102.567 E175.30065
G0 F6000 X126.891 Y102.567
G1 F900 X143.441 Y119.117 E176.10246
G0 F6000 X143.441 Y118.551
G1 F900 X127.457 Y102.567 E176.87686
G0 F6000 X128.023 Y102.567
G1 F900 X143.441 Y117.985 E177.62383
G0 F6000 X143.441 Y117.42
G1 F900 X128.588 Y102.567 E178.34343
G0 F6000 X129.154 Y102.567
G1 F900 X143.441 Y116.854 E179.0356
G0 F6000 X143.441 Y116.288
G1 F900 X129.72 Y102.567 E179.70036
G0 F6000 X130.285 Y102.567
G1 F900 X143.441 Y115.722 E180.33772
G0 F6000 X143.441 Y115.157
G1 F900 X130.851 Y102.567 E180.94768
G0 F6000 X131.417 Y102.567
G1 F900 X143.441 Y114.591 E181.53022
G0 F6000 X143.441 Y114.025
G1 F900 X131.982 Y102.567 E182.08536
G0 F6000 X132.548 Y102.567
G1 F900 X143.441 Y113.46 E182.6131
G0 F6000 X143.441 Y112.894
G1 F900 X133.114 Y102.567 E183.11343
G0 F6000 X133.679 Y102.567
G1 F900 X143.441 Y112.328 E183.58635
G0 F6000 X143.441 Y111.763
G1 F900 X134.245 Y102.567 E184.03188
G0 F6000 X134.811 Y102.567
G1 F900 X143.441 Y111.197 E184.44999
G0 F6000 X143.441 Y110.631
G1 F900 X135.377 Y102.567 E184.84067
G0 F6000 X135.942 Y102.567
G1 F900 X143.441 Y110.066 E185.20399
G0 F6000 X143.441 Y109.5
G1 F900 X136.508 Y102.567 E185.53988
G0 F6000 X137.074 Y102.567
G1 F900 X143.441 Y108.934 E185.84834
G0 F6000 X143.441 Y108.369
G1 F900 X137.639 Y102.567 E186.12944
G0 F6000 X138.205 Y102.567
G1 F900 X143.441 Y107.803 E186.38311
G0 F6000 X143.441 Y107.237
G1 F900 X138.771 Y102.567 E186.60937
G0 F6000 X139.336 Y102.567
G1 F900 X143.441 Y106.672 E186.80825
G0 F6000 X143.441 Y106.106
G1 F900 X139.902 Y102.567 E186.9797
G0 F6000 X140.468 Y102.567
G1 F900 X143.441 Y105.54 E187.12374
G0 F6000 X143.441 Y104.974
G1 F900 X141.033 Y102.567 E187.24038
G0 F6000 X141.599 Y102.567
G1 F900 X143.441 Y104.409 E187.32962
G0 F6000 X143.441 Y103.843
G1 F900 X142.165 Y102.567 E187.39144
G0 F6000 X142.73 Y102.567
G1 F900 X143.441 Y103.277 E187.42586
G0 F6000 X143.441 Y102.712
M104 S205
G1 F900 X143.296 Y102.567 E187.43289
G1 F3600 E181.43289
G1 F300 Z0.8
;MESH:NONMESH
G0 F6000 X91.008 Y132.983 Z0.8
;TIME_ELAPSED:380.539384
;LAYER:1
M140 S45
M106 S127.5
;MESH:Case lower_v5.stl
G0 F9000 X91.008 Y132.983 Z1
;TYPE:WALL-INNER
G1 F300 Z0.4
G1 F3600 E187.43289
G1 F1200 X91.008 Y102.017 E188.49372
G1 X143.992 Y102.017 E190.30884
G1 X143.992 Y132.983 E191.36967
G1 X91.008 Y132.983 E193.18479
G0 F9000 X90.608 Y133.383
G1 F1200 X90.608 Y101.617 E194.27303
G1 X144.392 Y101.617 E196.11556
G1 X144.392 Y133.383 E197.2038
G1 X90.608 Y133.383 E199.04633
G0 F9000 X90.208 Y133.783
G1 F1200 X90.208 Y101.217 E200.16197
G1 X144.792 Y101.217 E202.03191
G1 X144.792 Y133.783 E203.14755
G1 X90.208 Y133.783 E205.01749
G0 F9000 X89.808 Y134.183
G1 F1200 X89.808 Y100.817 E206.16054
G1 X145.192 Y100.817 E208.05788
G1 X145.192 Y134.183 E209.20093
G1 X89.808 Y134.183 E211.09827
G0 F9000 X89.408 Y134.583
G1 F1200 X89.408 Y100.417 E212.26873
G1 X145.592 Y100.417 E214.19347
G1 X145.592 Y134.583 E215.36393
G1 X89.408 Y134.583 E217.28868
G0 F9000 X89.008 Y134.983
G1 F1200 X89.008 Y100.017 E218.48654
G1 X145.992 Y100.017 E220.4387
G1 X145.992 Y134.983 E221.63656
G1 X89.008 Y134.983 E223.58871
G0 F9000 X88.608 Y135.383
G1 F1200 X88.608 Y99.617 E224.81398
G1 X146.392 Y99.617 E226.79354
G1 X146.392 Y135.383 E228.01881
G1 X88.608 Y135.383 E229.99838
G0 F9000 X88.208 Y135.783
;TYPE:WALL-OUTER
G1 F1200 X88.208 Y99.217 E231.25105
G1 X146.792 Y99.217 E233.25802
G1 X146.792 Y135.783 E234.51069
G1 X88.208 Y135.783 E236.51766
G1 F3600 E230.51766
G1 F300 Z1
G0 F9000 X91.398 Y132.593 Z1
;TYPE:SKIN
G1 F300 Z0.4
G1 F3600 E236.51766
G1 F1200 X91.398 Y102.407 E237.55177
G1 X143.602 Y102.407 E239.34017
G1 X143.602 Y132.593 E240.37428
G1 X91.398 Y132.593 E242.16268
G1 F3600 E236.16268
G1 F300 Z1
G0 F9000 X91.558 Y103.037 Z1
G1 F300 Z0.4
G1 F3600 E242.16268
G1 F1200 X92.029 Y102.566 E242.1855
G0 F9000 X92.594 Y102.566
G1 F1200 X91.558 Y103.603 E242.23572
G0 F9000 X91.558 Y104.168
G1 F1200 X93.16 Y102.566 E242.31333
G0 F9000 X93.726 Y102.566
G1 F1200 X91.558 Y104.734 E242.41837
G0 F9000 X91.558 Y105.3
G1 F1200 X94.291 Y102.566 E242.5508
G0 F9000 X94.857 Y102.566
G1 F1200 X91.558 Y105.865 E242.71063
G0 F9000 X91.558 Y106.431
G1 F1200 X95.423 Y102.566 E242.89788
G0 F9000 X95.989 Y102.566
G1 F1200 X91.558 Y106.997 E243.11256
G0 F9000 X91.558 Y107.562
G1 F1200 X96.554 Y102.566 E243.3546
G0 F9000 X97.12 Y102.566
G1 F1200 X91.558 Y108.128 E243.62407
G0 F9000 X91.558 Y108.694
G1 F1200 X97.686 Y102.566 E243.92096
G0 F9000 X98.251 Y102.566
G1 F1200 X91.558 Y109.26 E244.24525
G0 F9000 X91.558 Y109.825
G1 F1200 X98.817 Y102.566 E244.59693
G0 F9000 X99.383 Y102.566
G1 F1200 X91.558 Y110.391 E244.97604
G0 F9000 X91.558 Y110.957
G1 F1200 X99.948 Y102.566 E245.38254
G0 F9000 X100.514 Y102.566
G1 F1200 X91.558 Y111.522 E245.81644
G0 F9000 X91.558 Y112.088
G1 F1200 X101.08 Y102.566 E246.27776
G0 F9000 X101.645 Y102.566
G1 F1200 X91.558 Y112.654 E246.76648
G0 F9000 X91.558 Y113.219
G1 F1200 X102.211 Y102.566 E247.2826
G0 F9000 X102.777 Y102.566
G1 F1200 X91.558 Y113.785 E247.82614
G0 F9000 X91.558 Y114.351
G1 F1200 X103.342 Y102.566 E248.39708
G0 F9000 X103.908 Y102.566
G1 F1200 X91.558 Y114.916 E248.99541
G0 F9000 X91.558 Y115.482
G1 F1200 X104.474 Y102.566 E249.62116
G0 F9000 X105.04 Y102.566
G1 F1200 X91.558 Y116.048 E250.27434
G0 F9000 X91.558 Y116.613
G1 F1200 X105.605 Y102.566 E250.95489
G0 F9000 X106.171 Y102.566
G1 F1200 X91.558 Y117.179 E251.66286
G0 F9000 X91.558 Y117.745
G1 F1200 X106.737 Y102.566 E252.39825
G0 F9000 X107.302 Y102.566
G1 F1200 X91.558 Y118.31 E253.16102
G0 F9000 X91.558 Y118.876
G1 F1200 X107.868 Y102.566 E253.95121
G0 F9000 X108.434 Y102.566
G1 F1200 X91.558 Y119.442 E254.76882
G0 F9000 X91.558 Y120.008
G1 F1200 X108.999 Y102.566 E255.61382
G0 F9000 X109.565 Y102.566
G1 F1200 X91.558 Y120.573 E256.48623
G0 F9000 X91.558 Y121.139
G1 F1200 X110.131 Y102.566 E257.38605
G0 F9000 X110.696 Y102.566
G1 F1200 X91.558 Y121.705 E258.31327
G0 F9000 X91.558 Y122.27
G1 F1200 X111.262 Y102.566 E259.2679
G0 F9000 X111.828 Y102.566
G1 F1200 X91.558 Y122.836 E260.24994
G0 F9000 X91.558 Y123.402
G1 F1200 X112.393 Y102.566 E261.25938
G0 F9000 X112.959 Y102.566
