;FLAVOR:Marlin
;TIME:6131
;Filament used: 4.63381m
;Layer height: 0.2
;MINX:88.299
;MINY:99.4
;MINZ:0.2
;MAXX:146.5
;MAXY:135.6
;MAXZ:27.2
;Generated with Cura_SteamEngine 4.6.1
M82 ;absolute extrusion mode
M201 X500.00 Y500.00 Z100.00 E5000.00 ;Setup machine max acceleration
M203 X500.00 Y500.00 Z10.00 E50.00 ;Setup machine max feedrate
M204 P500.00 R1000.00 T500.00 ;Setup Print/Retract/Travel acceleration
M205 X8.00 Y8.00 Z0.40 E5.00 ;Setup Jerk
M220 S100 ;Reset Feedrate
M221 S100 ;Reset Flowrate

M104 S205.0 ; set extruder temp
M140 S55.0 ; set bed temp

G28;
M420 S1 ; enable mesh bed leveling positions
G29 S0; Reading bed leveling values
G0 X4.0 Y4.0 Z20 F7200 ; Move to a position in the left front of the bed

M190 S55.0 ; wait for bed temp
M109 S205.0 ; wait for extruder temp
M300 S2600 P200; Beep


G92 E0 ;Reset Extruder
G1 X4.0 Y4.0 F7200 ; Move to a position in the left front of the bed
G1 Z0.2; Move nozzle above 0.3 mm of the bed
G91 ; Use relative mode
G1 Z1.0 Y200;
G1 Z-1.0;
G1 Y-190 E40 F1000 ; print line left side
G0 Z10.0
G92 E0 ; Set extrusion distance to 0
G90 ; switch back to absolute mode
G92 E0
G92 E0
G1 F3600 E-6
;LAYER_COUNT:133
;LAYER:0
M107
G1 F300 Z0.8
;MESH:Case lower_v5.stl
G0 F6000 X91.3 Y132.8 Z0.8
;TYPE:WALL-INNER
G1 F300 Z0.2
G1 F3600 E0
G1 F900 X91.3 Y102.2 E1.04829
G1 X143.7 Y102.2 E2.84341
G1 X143.7 Y132.8 E3.8917
G1 X91.3 Y132.8 E5.68682
G0 F6000 X90.9 Y133.2
G1 F900 X90.9 Y101.8 E6.76252
G1 X144.1 Y101.8 E8.58504
G1 X144.1 Y133.2 E9.66074
G1 X90.9 Y133.2 E11.48326
G0 F6000 X90.5 Y133.6
G1 F900 X90.5 Y101.4 E12.58637
G1 X144.5 Y101.4 E14.4363
G1 X144.5 Y133.6 E15.5394
G1 X90.5 Y133.6 E17.38933
G0 F6000 X90.1 Y134
G1 F900 X90.1 Y101 E18.51984
G1 X144.9 Y101 E20.39718
G1 X144.9 Y134 E21.52769
G1 X90.1 Y134 E23.40502
G0 F6000 X89.7 Y134.4
G1 F900 X89.7 Y100.6 E24.56294
G1 X145.3 Y100.6 E26.46768
G1 X145.3 Y134.4 E27.6256
G1 X89.7 Y134.4 E29.53034
G0 F6000 X89.3 Y134.8
G1 F900 X89.3 Y100.2 E30.71567
G1 X145.7 Y100.2 E32.64782
G1 X145.7 Y134.8 E33.83314
G1 X89.3 Y134.8 E35.76529
G0 F6000 X88.9 Y135.2
G1 F900 X88.9 Y99.8 E36.97802
G1 X146.1 Y99.8 E38.93757
G1 X146.1 Y135.2 E40.1503
G1 X88.9 Y135.2 E42.10986
G0 F6000 X88.5 Y135.6
;TYPE:WALL-OUTER
G1 F900 X88.5 Y99.4 E43.35
G1 X146.5 Y99.4 E45.33696
G1 X146.5 Y135.6 E46.57709
G1 X88.5 Y135.6 E48.56405
G1 F3600 E42.56405
G1 F300 Z0.8
G0 F6000 X91.69 Y132.41 Z0.8
;TYPE:SKIN
G1 F300 Z0.2
G1 F3600 E48.56405
G1 F900 X91.69 Y102.59 E49.58563
G1 X143.31 Y102.59 E51.35402
G1 X143.31 Y132.41 E52.37559
G1 X91.69 Y132.41 E54.14399
G0 F6000 X92.085 Y132.249
G1 F900 X91.849 Y132.013 E54.15542
G0 F6000 X91.849 Y131.447
G1 F900 X92.651 Y132.249 E54.19428
G0 F6000 X93.217 Y132.249
G1 F900 X91.849 Y130.881 E54.26055
G0 F6000 X91.849 Y130.316
G1 F900 X93.782 Y132.249 E54.3542
G0 F6000 X94.348 Y132.249
G1 F900 X91.849 Y129.75 E54.47528
G0 F6000 X91.849 Y129.184
G1 F900 X94.914 Y132.249 E54.62377
G0 F6000 X95.479 Y132.249
G1 F900 X91.849 Y128.619 E54.79963
G0 F6000 X91.849 Y128.053
G1 F900 X96.045 Y132.249 E55.00292
G0 F6000 X96.611 Y132.249
G1 F900 X91.849 Y127.487 E55.23363
G0 F6000 X91.849 Y126.922
G1 F900 X97.176 Y132.249 E55.49172
G0 F6000 X97.742 Y132.249
G1 F900 X91.849 Y126.356 E55.77722
G0 F6000 X91.849 Y125.79
G1 F900 X98.308 Y132.249 E56.09015
G0 F6000 X98.874 Y132.249
G1 F900 X91.849 Y125.225 E56.43047
G0 F6000 X91.849 Y124.659
G1 F900 X99.439 Y132.249 E56.79819
G0 F6000 X100.005 Y132.249
G1 F900 X91.849 Y124.093 E57.19333
G0 F6000 X91.849 Y123.528
G1 F900 X100.571 Y132.249 E57.61587
G0 F6000 X101.136 Y132.249
G1 F900 X91.849 Y122.962 E58.06581
G0 F6000 X91.849 Y122.396
G1 F900 X101.702 Y132.249 E58.54317
G0 F6000 X102.268 Y132.249
G1 F900 X91.849 Y121.83 E59.04795
G0 F6000 X91.849 Y121.265
G1 F900 X102.833 Y132.249 E59.5801
G0 F6000 X103.399 Y132.249
G1 F900 X91.849 Y120.699 E60.13968
G0 F6000 X91.849 Y120.133
G1 F900 X103.965 Y132.249 E60.72667
G0 F6000 X104.53 Y132.249
G1 F900 X91.849 Y119.568 E61.34104
G0 F6000 X91.849 Y119.002
G1 F900 X105.096 Y132.249 E61.98283
G0 F6000 X105.662 Y132.249
G1 F900 X91.849 Y118.436 E62.65205
G0 F6000 X91.849 Y117.871
G1 F900 X106.227 Y132.249 E63.34863
G0 F6000 X106.793 Y132.249
G1 F900 X91.849 Y117.305 E64.07264
G0 F6000 X91.849 Y116.739
G1 F900 X107.359 Y132.249 E64.82407
G0 F6000 X107.925 Y132.249
G1 F900 X91.849 Y116.174 E65.60289
G0 F6000 X91.849 Y115.608
G1 F900 X108.49 Y132.249 E66.40912
G0 F6000 X109.056 Y132.249
G1 F900 X91.849 Y115.042 E67.24276
G0 F6000 X91.849 Y114.477
G1 F900 X109.622 Y132.249 E68.10381
G0 F6000 X110.187 Y132.249
G1 F900 X91.849 Y113.911 E68.99225
G0 F6000 X91.849 Y113.345
G1 F900 X110.753 Y132.249 E69.90811
G0 F6000 X111.319 Y132.249
G1 F900 X91.849 Y112.779 E70.85139
G0 F6000 X91.849 Y112.214
G1 F900 X111.884 Y132.249 E71.82205
G0 F6000 X112.45 Y132.249
G1 F900 X91.849 Y111.648 E72.82013
G0 F6000 X91.849 Y111.082
G1 F900 X113.016 Y132.249 E73.84563
G0 F6000 X113.581 Y132.249
G1 F900 X91.849 Y110.517 E74.8985
G0 F6000 X91.849 Y109.951
G1 F900 X114.147 Y132.249 E75.97879
G0 F6000 X114.713 Y132.249
G1 F900 X91.849 Y109.385 E77.08651
G0 F6000 X91.849 Y108.82
G1 F900 X115.278 Y132.249 E78.2216
G0 F6000 X115.844 Y132.249
G1 F900 X91.849 Y108.254 E79.38411
G0 F6000 X91.849 Y107.688
G1 F900 X116.41 Y132.249 E80.57404
G0 F6000 X116.975 Y132.249
G1 F900 X91.849 Y107.123 E81.79135
G0 F6000 X91.849 Y106.557
G1 F900 X117.541 Y132.249 E83.03607
G0 F6000 X118.107 Y132.249
G1 F900 X91.849 Y105.991 E84.30822
G0 F6000 X91.849 Y105.426
G1 F900 X118.673 Y132.249 E85.60777
G0 F6000 X119.238 Y132.249
G1 F900 X91.849 Y104.86 E86.93471
G0 F6000 X91.849 Y104.294
G1 F900 X119.804 Y132.249 E88.28908
G0 F6000 X120.37 Y132.249
G1 F900 X91.849 Y103.729 E89.67084
G0 F6000 X91.849 Y103.163
G1 F900 X120.935 Y132.249 E91.08
G0 F6000 X121.501 Y132.249
G1 F900 X92.001 Y102.749 E92.50922
G0 F6000 X92.567 Y102.749
G1 F900 X122.067 Y132.249 E93.93843
G0 F6000 X122.632 Y132.249
G1 F900 X93.133 Y102.749 E95.36763
G0 F6000 X93.698 Y102.749
G1 F900 X123.198 Y132.249 E96.79684
G0 F6000 X123.764 Y132.249
G1 F900 X94.264 Y102.749 E98.22606
G0 F6000 X94.83 Y102.749
G1 F900 X124.329 Y132.249 E99.65525
G0 F6000 X124.895 Y132.249
G1 F900 X95.395 Y102.749 E101.08447
G0 F6000 X95.961 Y102.749
G1 F900 X125.461 Y132.249 E102.51369
G0 F6000 X126.026 Y132.249
G1 F900 X96.527 Y102.749 E103.94288
G0 F6000 X97.092 Y102.749
G1 F900 X126.592 Y132.249 E105.3721
G0 F6000 X127.158 Y132.249
G1 F900 X97.658 Y102.749 E106.80132
G0 F6000 X98.224 Y102.749
G1 F900 X127.723 Y132.249 E108.23051
G0 F6000 X128.289 Y132.249
G1 F900 X98.789 Y102.749 E109.65973
G0 F6000 X99.355 Y102.749
G1 F900 X128.855 Y132.249 E111.08894
G0 F6000 X129.421 Y132.249
G1 F900 X99.921 Y102.749 E112.51816
G0 F6000 X100.486 Y102.749
G1 F900 X129.986 Y132.249 E113.94738
G0 F6000 X130.552 Y132.249
G1 F900 X101.052 Y102.749 E115.3766
G0 F6000 X101.618 Y102.749
G1 F900 X131.118 Y132.249 E116.80581
G0 F6000 X131.683 Y132.249
G1 F900 X102.184 Y102.749 E118.23501
G0 F6000 X102.749 Y102.749
G1 F900 X132.249 Y132.249 E119.66422
G0 F6000 X132.815 Y132.249
G1 F900 X103.315 Y102.749 E121.09344
G0 F6000 X103.881 Y102.749
G1 F900 X133.38 Y132.249 E122.52263
G0 F6000 X133.946 Y132.249
G1 F900 X104.446 Y102.749 E123.95185
G0 F6000 X105.012 Y102.749
G1 F900 X134.512 Y132.249 E125.38107
G0 F6000 X135.077 Y132.249
G1 F900 X105.578 Y102.749 E126.81026
G0 F6000 X106.143 Y102.749
G1 F900 X135.643 Y132.249 E128.23948
G0 F6000 X136.209 Y132.249
G1 F900 X106.709 Y102.749 E129.6687
G0 F6000 X107.275 Y102.749
G1 F900 X136.774 Y132.249 E131.09789
G0 F6000 X137.34 Y132.249
G1 F900 X107.84 Y102.749 E132.52711
G0 F6000 X108.406 Y102.749
G1 F900 X137.906 Y132.249 E133.95632
G0 F6000 X138.472 Y132.249
G1 F900 X108.972 Y102.749 E135.38554
G0 F6000 X109.537 Y102.749
G1 F900 X139.037 Y132.249 E136.81476
G0 F6000 X139.603 Y132.249
G1 F900 X110.103 Y102.749 E138.24397
G0 F6000 X110.669 Y102.749
G1 F900 X140.169 Y132.249 E139.67319
G0 F6000 X140.734 Y132.249
G1 F900 X111.234 Y102.749 E141.10241
G0 F6000 X111.8 Y102.749
G1 F900 X141.3 Y132.249 E142.53163
G0 F6000 X141.866 Y132.249
G1 F900 X112.366 Y102.749 E143.96084
G0 F6000 X112.932 Y102.749
G1 F900 X142.431 Y132.249 E145.39004
G0 F6000 X142.997 Y132.249
G1 F900 X113.497 Y102.749 E146.81925
G0 F6000 X114.063 Y102.749
G1 F900 X143.149 Y131.835 E148.22841
G0 F6000 X143.149 Y131.27
G1 F900 X114.629 Y102.749 E149.61018
G0 F6000 X115.194 Y102.749
G1 F900 X143.149 Y130.704 E150.96454
G0 F6000 X143.149 Y130.138
G1 F900 X115.76 Y102.749 E152.29148
G0 F6000 X116.326 Y102.749
G1 F900 X143.149 Y129.573 E153.59103
G0 F6000 X143.149 Y129.007
G1 F900 X116.891 Y102.749 E154.86318
G0 F6000 X117.457 Y102.749
G1 F900 X143.149 Y128.441 E156.10791
G0 F6000 X143.149 Y127.876
G1 F900 X118.023 Y102.749 E157.32524
G0 F6000 X118.588 Y102.749
G1 F900 X143.149 Y127.31 E158.51517
G0 F6000 X143.149 Y126.744
G1 F900 X119.154 Y102.749 E159.67768
G0 F6000 X119.72 Y102.749
G1 F900 X143.149 Y126.178 E160.81277
G0 F6000 X143.149 Y125.613
G1 F900 X120.285 Y102.749 E161.92048
G0 F6000 X120.851 Y102.749
G1 F900 X143.149 Y125.047 E163.00078
G0 F6000 X143.149 Y124.481
G1 F900 X121.417 Y102.749 E164.05365
G0 F6000 X121.982 Y102.749
G1 F900 X143.149 Y123.916 E165.07915
G0 F6000 X143.149 Y123.35
G1 F900 X122.548 Y102.749 E166.07723
G0 F6000 X123.114 Y102.749
G1 F900 X143.149 Y122.784 E167.04789
G0 F6000 X143.149 Y122.219
G1 F900 X123.68 Y102.749 E167.99115
G0 F6000 X124.245 Y102.749
G1 F900 X143.149 Y121.653 E168.90701
G0 F6000 X143.149 Y121.087
G1 F900 X124.811 Y102.749 E169.79545
G0 F6000 X125.377 Y102.749
G1 F900 X143.149 Y120.522 E170.65649
G0 F6000 X143.149 Y119.956
G1 F900 X125.942 Y102.749 E171.49014
G0 F6000 X126.508 Y102.749
G1 F900 X143.149 Y119.39 E172.29636
G0 F6000 X143.149 Y118.825
G1 F900 X127.074 Y102.749 E173.07519
G0 F6000 X127.639 Y102.749
G1 F900 X143.149 Y118.259 E173.82662
G0 F6000 X143.149 Y117.693
G1 F900 X128.205 Y102.749 E174.55062
G0 F6000 X128.771 Y102.749
G1 F900 X143.149 Y117.127 E175.24721
G0 F6000 X143.149 Y116.562
G1 F900 X129.336 Y102.749 E175.91642
G0 F6000 X129.902 Y102.749
G1 F900 X143.149 Y115.996 E176.55821
G0 F6000 X143.149 Y115.43
G1 F900 X130.468 Y102.749 E177.17258
G0 F6000 X131.033 Y102.749
G1 F900 X143.149 Y114.865 E177.75958
G0 F6000 X143.149 Y114.299
G1 F900 X131.599 Y102.749 E178.31915
G0 F6000 X132.165 Y102.749
G1 F900 X143.149 Y113.733 E178.85131
G0 F6000 X143.149 Y113.168
G1 F900 X132.731 Y102.749 E179.35606
G0 F6000 X133.296 Y102.749
G1 F900 X143.149 Y112.602 E179.83342
G0 F6000 X143.149 Y112.036
G1 F900 X133.862 Y102.749 E180.28336
G0 F6000 X134.428 Y102.749
G1 F900 X143.149 Y111.471 E180.7059
G0 F6000 X143.149 Y110.905
G1 F900 X134.993 Y102.749 E181.10104
G0 F6000 X135.559 Y102.749
G1 F900 X143.149 Y110.339 E181.46876
G0 F6000 X143.149 Y109.774
G1 F900 X136.125 Y102.749 E181.80908
G0 F6000 X136.69 Y102.749
G1 F900 X143.149 Y109.208 E182.12201
G0 F6000 X143.149 Y108.642
G1 F900 X137.256 Y102.749 E182.40751
G0 F6000 X137.822 Y102.749
G1 F900 X143.149 Y108.077 E182.66562
G0 F6000 X143.149 Y107.511
G1 F900 X138.387 Y102.749 E182.89633
G0 F6000 X138.953 Y102.749
G1 F900 X143.149 Y106.945 E183.09962
G0 F6000 X143.149 Y106.379
G1 F900 X139.519 Y102.749 E183.27549
G0 F6000 X140.084 Y102.749
G1 F900 X143.149 Y105.814 E183.42398
G0 F6000 X143.149 Y105.248
G1 F900 X140.65 Y102.749 E183.54505
G0 F6000 X141.216 Y102.749
G1 F900 X143.149 Y104.682 E183.6387
G0 F6000 X143.149 Y104.117
G1 F900 X141.781 Y102.749 E183.70498
G0 F6000 X142.347 Y102.749
G1 F900 X143.149 Y103.551 E183.74383
G0 F6000 X143.149 Y102.985
M104 S205
G1 F900 X142.913 Y102.749 E183.75527
G1 F3600 E177.75527
G1 F300 Z0.8
;MESH:NONMESH
G0 F6000 X91.3 Y132.8 Z0.8
;TIME_ELAPSED:373.274250
;LAYER:1
M140 S45
M106 S127.5
;MESH:Case lower_v5.stl
G0 F9000 X91.3 Y132.8 Z1
;TYPE:WALL-INNER
G1 F300 Z0.4
G1 F3600 E183.75527
G1 F1200 X91.3 Y102.2 E184.80356
G1 X143.7 Y102.2 E186.59868
G1 X143.7 Y132.8 E187.64697
G1 X91.3 Y132.8 E189.44208
G0 F9000 X90.9 Y133.2
G1 F1200 X90.9 Y101.8 E190.51778
G1 X144.1 Y101.8 E192.34031
G1 X144.1 Y133.2 E193.41601
G1 X90.9 Y133.2 E195.23853
G0 F9000 X90.5 Y133.6
G1 F1200 X90.5 Y101.4 E196.34163
G1 X144.5 Y101.4 E198.19156
G1 X144.5 Y133.6 E199.29467
G1 X90.5 Y133.6 E201.1446
G0 F9000 X90.1 Y134
G1 F1200 X90.1 Y101 E202.27511
G1 X144.9 Y101 E204.15244
G1 X144.9 Y134 E205.28296
G1 X90.1 Y134 E207.16029
G0 F9000 X89.7 Y134.4
G1 F1200 X89.7 Y100.6 E208.31821
G1 X145.3 Y100.6 E210.22295
G1 X145.3 Y134.4 E211.38087
G1 X89.7 Y134.4 E213.28561
G0 F9000 X89.3 Y134.8
G1 F1200 X89.3 Y100.2 E214.47093
G1 X145.7 Y100.2 E216.40308
G1 X145.7 Y134.8 E217.58841
G1 X89.3 Y134.8 E219.52055
G0 F9000 X88.9 Y135.2
G1 F1200 X88.9 Y99.8 E220.73329
G1 X146.1 Y99.8 E222.69284
G1 X146.1 Y135.2 E223.90557
G1 X88.9 Y135.2 E225.86512
G0 F9000 X88.5 Y135.6
;TYPE:WALL-OUTER
G1 F1200 X88.5 Y99.4 E227.10526
G1 X146.5 Y99.4 E229.09222
G1 X146.5 Y135.6 E230.33236
G1 X88.5 Y135.6 E232.31932
G1 F3600 E226.31932
G1 F300 Z1
G0 F9000 X91.69 Y132.41 Z1
;TYPE:SKIN
G1 F300 Z0.4
G1 F3600 E232.31932
G1 F1200 X91.69 Y102.59 E233.34089
G1 X143.31 Y102.59 E235.10929
G1 X143.31 Y132.41 E236.13086
G1 X91.69 Y132.41 E237.89925
G1 F3600 E231.89925
G1 F300 Z1
G0 F9000 X91.849 Y103.311 Z1
G1 F300 Z0.4
G1 F3600 E237.89925
G1 F1200 X92.412 Y102.748 E237.92653
G0 F9000 X92.978 Y102.748
G1 F1200 X91.849 Y103.877 E237.98123
G0 F9000 X91.849 Y104.443
G1 F1200 X93.543 Y102.748 E238.06332
G0 F9000 X94.109 Y102.748
G1 F1200 X91.849 Y105.008 E238.17282
G0 F9000 X91.849 Y105.574
G1 F1200 X94.675 Y102.748 E238.30973
G0 F9000 X95.24 Y102.748
G1 F1200 X91.849 Y106.14 E238.47404
G0 F9000 X91.849 Y106.705
G1 F1200 X95.806 Y102.748 E238.66575
G0 F9000 X96.372 Y102.748
G1 F1200 X91.849 Y107.271 E238.88488
G0 F9000 X91.849 Y107.837
G1 F1200 X96.937 Y102.748 E239.13141
G0 F9000 X97.503 Y102.748
G1 F1200 X91.849 Y108.403 E239.40536
G0 F9000 X91.849 Y108.968
G1 F1200 X98.069 Y102.748 E239.7067
G0 F9000 X98.635 Y102.748
G1 F1200 X91.849 Y109.534 E240.03547
G0 F9000 X91.849 Y110.1
G1 F1200 X99.2 Y102.748 E240.39164
G0 F9000 X99.766 Y102.748
G1 F1200 X91.849 Y110.665 E240.7752
G0 F9000 X91.849 Y111.231
G1 F1200 X100.332 Y102.748 E241.18619
G0 F9000 X100.897 Y102.748
G1 F1200 X91.849 Y111.797 E241.62457
G0 F9000 X91.849 Y112.362
G1 F1200 X101.463 Y102.748 E242.09035
G0 F9000 X102.029 Y102.748
G1 F1200 X91.849 Y112.928 E242.58355
G0 F9000 X91.849 Y113.494
G1 F1200 X102.594 Y102.748 E243.10415
G0 F9000 X103.16 Y102.748
G1 F1200 X91.849 Y114.059 E243.65214
G0 F9000 X91.849 Y114.625
G1 F1200 X103.726 Y102.748 E244.22756
G0 F9000 X104.291 Y102.748
G1 F1200 X91.849 Y115.191 E244.83038
G0 F9000 X91.849 Y115.756
G1 F1200 X104.857 Y102.748 E245.46059
G0 F9000 X105.423 Y102.748
G1 F1200 X91.849 Y116.322 E246.11822
G0 F9000 X91.849 Y116.888
G1 F1200 X105.988 Y102.748 E246.80325
G0 F9000 X106.554 Y102.748
G1 F1200 X91.849 Y117.453 E247.51568
G0 F9000 X91.849 Y118.019
G1 F1200 X107.12 Y102.748 E248.25553
G0 F9000 X107.685 Y102.748
G1 F1200 X91.849 Y118.585 E249.02278
G0 F9000 X91.849 Y119.151
G1 F1200 X108.251 Y102.748 E249.81745
G0 F9000 X108.817 Y102.748
G1 F1200 X91.849 Y119.716 E250.63951
G0 F9000 X91.849 Y120.282
G1 F1200 X109.383 Y102.748 E251.489
G0 F9000 X109.948 Y102.748
G1 F1200 X91.849 Y120.848 E252.36589
G0 F9000 X91.849 Y121.413
G1 F1200 X110.514 Y102.748 E253.27017
G0 F9000 X111.08 Y102.748
G1 F1200 X91.849 Y121.979 E254.20187
G0 F9000 X91.849 Y122.545
G1 F1200 X111.645 Y102.748 E255.16098
G0 F9000 X112.211 Y102.748
G1 F1200 X91.849 Y123.11 E256.14748
G0 F9000 X91.849 Y123.676
G1 F1200 X112.777 Y102.748 E257.1614
G0 F9000 X113.342 Y102.748
G1 F1200 X91.849 Y124.242 E258.20271
G0 F9000 X91.849 Y124.807
G1 F1200 X113.908 Y102.748 E259.27143
G0 F9000 X114.474 Y102.748
G1 F1200 X91.849 Y125.373 E260.36757
G0 F9000 X91.849 Y125.939
G1 F1200 X115.039 Y102.748 E261.4911
G0 F9000 X115.605 Y102.748
G1 F1200 X91.849 Y126.504 E262.64203
G0 F9000 X91.849 Y127.07
G1 F1200 X116.171 Y102.748 E263.82039
G0 F9000 X116.736 Y102.748
G1 F1200 X91.849 Y127.636 E265.02614
G0 F9000 X91.849 Y128.201
G1 F1200 X117.302 Y102.748 E266.25928
