;FLAVOR:Marlin
;TIME:2149
;Filament used: 1.54756m
;Layer height: 0.2
;MINX:99.4
;MINY:90.781
;MINZ:0.2
;MAXX:135.6
;MAXY:148.781
;MAXZ:3.2
;Generated with Cura_SteamEngine 4.6.1
M82 ;absolute extrusion mode
M201 X500.00 Y500.00 Z100.00 E5000.00 ;Setup machine max acceleration
M203 X500.00 Y500.00 Z10.00 E50.00 ;Setup machine max feedrate
M204 P500.00 R1000.00 T500.00 ;Setup Print/Retract/Travel acceleration
M205 X8.00 Y8.00 Z0.40 E5.00 ;Setup Jerk
M220 S100 ;Reset Feedrate
M221 S100 ;Reset Flowrate

M104 S205.0 ; set extruder temp
M140 S55.0 ; set bed temp

G28;
M420 S1 ; enable mesh bed leveling positions
G29 S0; Reading bed leveling values
G0 X4.0 Y4.0 Z20 F7200 ; Move to a position in the left front of the bed

M190 S55.0 ; wait for bed temp
M109 S205.0 ; wait for extruder temp
M300 S2600 P200; Beep


G92 E0 ;Reset Extruder
G1 X4.0 Y4.0 F7200 ; Move to a position in the left front of the bed
G1 Z0.2; Move nozzle above 0.3 mm of the bed
G91 ; Use relative mode
G1 Z1.0 Y200;
G1 Z-1.0;
G1 Y-190 E40 F1000 ; print line left side
G0 Z10.0
G92 E0 ; Set extrusion distance to 0
G90 ; switch back to absolute mode
G92 E0
G92 E0
G1 F3600 E-6
;LAYER_COUNT:13
;LAYER:0
M107
G1 F300 Z0.8
;MESH:Case upper_v5.stl
G0 F6000 X102.2 Y145.981 Z0.8
;TYPE:WALL-INNER
G1 F300 Z0.2
G1 F3600 E0
G1 F900 X102.2 Y93.581 E1.79512
G1 X132.8 Y93.581 E2.84341
G1 X132.8 Y145.981 E4.63852
G1 X102.2 Y145.981 E5.68682
G0 F6000 X101.8 Y146.381
G1 F900 X101.8 Y93.181 E7.50934
G1 X133.2 Y93.181 E8.58504
G1 X133.2 Y146.381 E10.40756
G1 X101.8 Y146.381 E11.48326
G0 F6000 X101.4 Y146.781
G1 F900 X101.4 Y92.781 E13.33319
G1 X133.6 Y92.781 E14.4363
G1 X133.6 Y146.781 E16.28622
G1 X101.4 Y146.781 E17.38933
G0 F6000 X101 Y147.181
G1 F900 X101 Y92.381 E19.26666
G1 X134 Y92.381 E20.39718
G1 X134 Y147.181 E22.27451
G1 X101 Y147.181 E23.40502
G0 F6000 X100.6 Y147.581
G1 F900 X100.6 Y91.981 E25.30977
G1 X134.4 Y91.981 E26.46768
G1 X134.4 Y147.581 E28.37243
G1 X100.6 Y147.581 E29.53034
G0 F6000 X100.2 Y147.981
G1 F900 X100.2 Y91.581 E31.46249
G1 X134.8 Y91.581 E32.64782
G1 X134.8 Y147.981 E34.57996
G1 X100.2 Y147.981 E35.76529
G0 F6000 X99.8 Y148.381
G1 F900 X99.8 Y91.181 E37.72484
G1 X135.2 Y91.181 E38.93757
G1 X135.2 Y148.381 E40.89713
G1 X99.8 Y148.381 E42.10986
G0 F6000 X99.4 Y148.781
;TYPE:WALL-OUTER
G1 F900 X99.4 Y90.781 E44.09682
G1 X135.6 Y90.781 E45.33696
G1 X135.6 Y148.781 E47.32392
G1 X99.4 Y148.781 E48.56405
G1 F3600 E42.56405
G1 F300 Z0.8
G0 F6000 X102.59 Y145.591 Z0.8
;TYPE:SKIN
G1 F300 Z0.2
G1 F3600 E48.56405
G1 F900 X102.59 Y93.971 E50.33245
G1 X132.41 Y93.971 E51.35402
G1 X132.41 Y145.591 E53.12242
G1 X102.59 Y145.591 E54.14399
G0 F6000 X103.004 Y145.43
G1 F900 X102.748 Y145.175 E54.15637
G0 F6000 X102.748 Y144.609
G1 F900 X103.569 Y145.43 E54.19614
G0 F6000 X104.135 Y145.43
G1 F900 X102.748 Y144.044 E54.26332
G0 F6000 X102.748 Y143.478
G1 F900 X104.701 Y145.43 E54.35791
G0 F6000 X105.266 Y145.43
G1 F900 X102.748 Y142.912 E54.4799
G0 F6000 X102.748 Y142.346
G1 F900 X105.832 Y145.43 E54.62932
G0 F6000 X106.398 Y145.43
G1 F900 X102.748 Y141.781 E54.80613
G0 F6000 X102.748 Y141.215
G1 F900 X106.964 Y145.43 E55.01036
G0 F6000 X107.529 Y145.43
G1 F900 X102.748 Y140.649 E55.24199
G0 F6000 X102.748 Y140.084
G1 F900 X108.095 Y145.43 E55.50102
G0 F6000 X108.661 Y145.43
G1 F900 X102.748 Y139.518 E55.78747
G0 F6000 X102.748 Y138.952
G1 F900 X109.226 Y145.43 E56.10131
G0 F6000 X109.792 Y145.43
G1 F900 X102.748 Y138.387 E56.44256
G0 F6000 X102.748 Y137.821
G1 F900 X110.358 Y145.43 E56.81122
G0 F6000 X110.923 Y145.43
G1 F900 X102.748 Y137.255 E57.20728
G0 F6000 X102.748 Y136.69
G1 F900 X111.489 Y145.43 E57.63074
G0 F6000 X112.055 Y145.43
G1 F900 X102.748 Y136.124 E58.08163
G0 F6000 X102.748 Y135.558
G1 F900 X112.62 Y145.43 E58.55991
G0 F6000 X113.186 Y145.43
G1 F900 X102.748 Y134.993 E59.06558
G0 F6000 X102.748 Y134.427
G1 F900 X113.752 Y145.43 E59.59868
G0 F6000 X114.317 Y145.43
G1 F900 X102.748 Y133.861 E60.15918
G0 F6000 X102.748 Y133.295
G1 F900 X114.883 Y145.43 E60.74709
G0 F6000 X115.449 Y145.43
G1 F900 X102.748 Y132.73 E61.36241
G0 F6000 X102.748 Y132.164
G1 F900 X116.015 Y145.43 E62.00514
G0 F6000 X116.58 Y145.43
G1 F900 X102.748 Y131.598 E62.67528
G0 F6000 X102.748 Y131.033
G1 F900 X117.146 Y145.43 E63.37281
G0 F6000 X117.712 Y145.43
G1 F900 X102.748 Y130.467 E64.09776
G0 F6000 X102.748 Y129.901
G1 F900 X118.277 Y145.43 E64.85011
G0 F6000 X118.843 Y145.43
G1 F900 X102.748 Y129.336 E65.62986
G0 F6000 X102.748 Y128.77
G1 F900 X119.409 Y145.43 E66.43702
G0 F6000 X119.974 Y145.43
G1 F900 X102.748 Y128.204 E67.27159
G0 F6000 X102.748 Y127.639
G1 F900 X120.54 Y145.43 E68.13355
G0 F6000 X121.106 Y145.43
G1 F900 X102.748 Y127.073 E69.02294
G0 F6000 X102.748 Y126.507
G1 F900 X121.671 Y145.43 E69.93972
G0 F6000 X122.237 Y145.43
G1 F900 X102.748 Y125.942 E70.8839
G0 F6000 X102.748 Y125.376
G1 F900 X122.803 Y145.43 E71.8555
G0 F6000 X123.368 Y145.43
G1 F900 X102.748 Y124.81 E72.8545
G0 F6000 X102.748 Y124.245
G1 F900 X123.934 Y145.43 E73.8809
G0 F6000 X124.5 Y145.43
G1 F900 X102.748 Y123.679 E74.93471
G0 F6000 X102.748 Y123.113
G1 F900 X125.065 Y145.43 E76.01593
G0 F6000 X125.631 Y145.43
G1 F900 X102.748 Y122.547 E77.12457
G0 F6000 X102.748 Y121.982
G1 F900 X126.197 Y145.43 E78.2606
G0 F6000 X126.763 Y145.43
G1 F900 X102.748 Y121.416 E79.42405
G0 F6000 X102.748 Y120.85
G1 F900 X127.328 Y145.43 E80.61491
G0 F6000 X127.894 Y145.43
G1 F900 X102.748 Y120.285 E81.83316
G0 F6000 X102.748 Y119.719
G1 F900 X128.46 Y145.43 E83.07883
G0 F6000 X129.025 Y145.43
G1 F900 X102.748 Y119.153 E84.3519
G0 F6000 X102.748 Y118.588
G1 F900 X129.591 Y145.43 E85.65237
G0 F6000 X130.157 Y145.43
G1 F900 X102.748 Y118.022 E86.98025
G0 F6000 X102.748 Y117.456
G1 F900 X130.722 Y145.43 E88.33554
G0 F6000 X131.288 Y145.43
G1 F900 X102.748 Y116.891 E89.71822
G0 F6000 X102.748 Y116.325
G1 F900 X131.854 Y145.43 E91.12833
G0 F6000 X132.25 Y145.26
G1 F900 X102.748 Y115.759 E92.55762
G0 F6000 X102.748 Y115.194
G1 F900 X132.25 Y144.695 E93.98691
G0 F6000 X132.25 Y144.129
G1 F900 X102.748 Y114.628 E95.4162
G0 F6000 X102.748 Y114.062
G1 F900 X132.25 Y143.563 E96.84549
G0 F6000 X132.25 Y142.998
G1 F900 X102.748 Y113.497 E98.27478
G0 F6000 X102.748 Y112.931
G1 F900 X132.25 Y142.432 E99.70407
G0 F6000 X132.25 Y141.866
G1 F900 X102.748 Y112.365 E101.13336
G0 F6000 X102.748 Y111.799
G1 F900 X132.25 Y141.301 E102.56267
G0 F6000 X132.25 Y140.735
G1 F900 X102.748 Y111.234 E103.99196
G0 F6000 X102.748 Y110.668
G1 F900 X132.25 Y140.169 E105.42125
G0 F6000 X132.25 Y139.604
G1 F900 X102.748 Y110.102 E106.85056
G0 F6000 X102.748 Y109.537
G1 F900 X132.25 Y139.038 E108.27985
G0 F6000 X132.25 Y138.472
G1 F900 X102.748 Y108.971 E109.70914
G0 F6000 X102.748 Y108.405
G1 F900 X132.25 Y137.907 E111.13846
G0 F6000 X132.25 Y137.341
G1 F900 X102.748 Y107.84 E112.56775
G0 F6000 X102.748 Y107.274
G1 F900 X132.25 Y136.775 E113.99704
G0 F6000 X132.25 Y136.209
G1 F900 X102.748 Y106.708 E115.42633
G0 F6000 X102.748 Y106.143
G1 F900 X132.25 Y135.644 E116.85562
G0 F6000 X132.25 Y135.078
G1 F900 X102.748 Y105.577 E118.28491
G0 F6000 X102.748 Y105.011
G1 F900 X132.25 Y134.512 E119.7142
G0 F6000 X132.25 Y133.947
G1 F900 X102.748 Y104.446 E121.14349
G0 F6000 X102.748 Y103.88
G1 F900 X132.25 Y133.381 E122.57278
G0 F6000 X132.25 Y132.815
G1 F900 X102.748 Y103.314 E124.00207
G0 F6000 X102.748 Y102.748
G1 F900 X132.25 Y132.25 E125.43138
G0 F6000 X132.25 Y131.684
G1 F900 X102.748 Y102.183 E126.86067
G0 F6000 X102.748 Y101.617
G1 F900 X132.25 Y131.118 E128.28996
G0 F6000 X132.25 Y130.553
G1 F900 X102.748 Y101.051 E129.71928
G0 F6000 X102.748 Y100.486
G1 F900 X132.25 Y129.987 E131.14857
G0 F6000 X132.25 Y129.421
G1 F900 X102.748 Y99.92 E132.57786
G0 F6000 X102.748 Y99.354
G1 F900 X132.25 Y128.856 E134.00717
G0 F6000 X132.25 Y128.29
G1 F900 X102.748 Y98.789 E135.43646
G0 F6000 X102.748 Y98.223
G1 F900 X132.25 Y127.724 E136.86575
G0 F6000 X132.25 Y127.159
G1 F900 X102.748 Y97.657 E138.29506
G0 F6000 X102.748 Y97.092
G1 F900 X132.25 Y126.593 E139.72435
G0 F6000 X132.25 Y126.027
G1 F900 X102.748 Y96.526 E141.15364
G0 F6000 X102.748 Y95.96
G1 F900 X132.25 Y125.461 E142.58293
G0 F6000 X132.25 Y124.896
G1 F900 X102.748 Y95.395 E144.01222
G0 F6000 X102.748 Y94.829
G1 F900 X132.25 Y124.33 E145.44151
G0 F6000 X132.25 Y123.764
G1 F900 X102.748 Y94.263 E146.8708
G0 F6000 X103.181 Y94.13
G1 F900 X132.25 Y123.199 E148.27914
G0 F6000 X132.25 Y122.633
G1 F900 X103.747 Y94.13 E149.66005
G0 F6000 X104.313 Y94.13
G1 F900 X132.25 Y122.067 E151.01355
G0 F6000 X132.25 Y121.502
G1 F900 X104.878 Y94.13 E152.33967
G0 F6000 X105.444 Y94.13
G1 F900 X132.25 Y120.936 E153.63836
G0 F6000 X132.25 Y120.37
G1 F900 X106.01 Y94.13 E154.90964
G0 F6000 X106.575 Y94.13
G1 F900 X132.25 Y119.805 E156.15354
G0 F6000 X132.25 Y119.239
G1 F900 X107.141 Y94.13 E157.37003
G0 F6000 X107.707 Y94.13
G1 F900 X132.25 Y118.673 E158.55909
G0 F6000 X132.25 Y118.108
G1 F900 X108.272 Y94.13 E159.72077
G0 F6000 X108.838 Y94.13
G1 F900 X132.25 Y117.542 E160.85504
G0 F6000 X132.25 Y116.976
G1 F900 X109.404 Y94.13 E161.96188
G0 F6000 X109.969 Y94.13
G1 F900 X132.25 Y116.41 E163.04133
G0 F6000 X132.25 Y115.845
G1 F900 X110.535 Y94.13 E164.09338
G0 F6000 X111.101 Y94.13
G1 F900 X132.25 Y115.279 E165.11801
G0 F6000 X132.25 Y114.713
G1 F900 X111.667 Y94.13 E166.11521
G0 F6000 X112.232 Y94.13
G1 F900 X132.25 Y114.148 E167.08505
G0 F6000 X132.25 Y113.582
G1 F900 X112.798 Y94.13 E168.02746
G0 F6000 X113.364 Y94.13
G1 F900 X132.25 Y113.016 E168.94245
G0 F6000 X132.25 Y112.451
G1 F900 X113.929 Y94.13 E169.83006
G0 F6000 X114.495 Y94.13
G1 F900 X132.25 Y111.885 E170.69026
G0 F6000 X132.25 Y111.319
G1 F900 X115.061 Y94.13 E171.52303
G0 F6000 X115.626 Y94.13
G1 F900 X132.25 Y110.754 E172.32843
G0 F6000 X132.25 Y110.188
G1 F900 X116.192 Y94.13 E173.10641
G0 F6000 X116.758 Y94.13
G1 F900 X132.25 Y109.622 E173.85697
G0 F6000 X132.25 Y109.057
G1 F900 X117.323 Y94.13 E174.58015
G0 F6000 X117.889 Y94.13
G1 F900 X132.25 Y108.491 E175.27591
G0 F6000 X132.25 Y107.925
G1 F900 X118.455 Y94.13 E175.94425
G0 F6000 X119.02 Y94.13
G1 F900 X132.25 Y107.36 E176.58522
G0 F6000 X132.25 Y106.794
G1 F900 X119.586 Y94.13 E177.19877
G0 F6000 X120.152 Y94.13
G1 F900 X132.25 Y106.228 E177.78489
G0 F6000 X132.25 Y105.662
G1 F900 X120.717 Y94.13 E178.34362
G0 F6000 X121.283 Y94.13
G1 F900 X132.25 Y105.097 E178.87495
G0 F6000 X132.25 Y104.531
G1 F900 X121.849 Y94.13 E179.37886
G0 F6000 X122.415 Y94.13
G1 F900 X132.25 Y103.965 E179.85534
G0 F6000 X132.25 Y103.4
G1 F900 X122.98 Y94.13 E180.30446
G0 F6000 X123.546 Y94.13
G1 F900 X132.25 Y102.834 E180.72615
G0 F6000 X132.25 Y102.268
G1 F900 X124.112 Y94.13 E181.12042
G0 F6000 X124.677 Y94.13
G1 F900 X132.25 Y101.703 E181.48732
G0 F6000 X132.25 Y101.137
G1 F900 X125.243 Y94.13 E181.82679
G0 F6000 X125.809 Y94.13
G1 F900 X132.25 Y100.571 E182.13885
G0 F6000 X132.25 Y100.006
G1 F900 X126.374 Y94.13 E182.42353
G0 F6000 X126.94 Y94.13
G1 F900 X132.25 Y99.44 E182.68079
G0 F6000 X132.25 Y98.874
G1 F900 X127.506 Y94.13 E182.91062
G0 F6000 X128.071 Y94.13
G1 F900 X132.25 Y98.309 E183.11309
G0 F6000 X132.25 Y97.743
G1 F900 X128.637 Y94.13 E183.28813
G0 F6000 X129.203 Y94.13
G1 F900 X132.25 Y97.177 E183.43575
G0 F6000 X132.25 Y96.611
G1 F900 X129.768 Y94.13 E183.55598
G0 F6000 X130.334 Y94.13
G1 F900 X132.25 Y96.046 E183.6488
G0 F6000 X132.25 Y95.48
G1 F900 X130.9 Y94.13 E183.71421
G0 F6000 X131.465 Y94.13
G1 F900 X132.25 Y94.914 E183.75221
G0 F6000 X132.25 Y94.349
M104 S205
G1 F900 X132.031 Y94.13 E183.76282
G1 F3600 E177.76282
G1 F300 Z0.8
;MESH:NONMESH
G0 F6000 X102.2 Y145.981 Z0.8
;TIME_ELAPSED:373.292974
;LAYER:1
M140 S45
M106 S127.5
;MESH:Case upper_v5.stl
G0 F9000 X102.2 Y145.981 Z1
;TYPE:WALL-INNER
G1 F300 Z0.4
G1 F3600 E183.76282
G1 F1200 X102.2 Y93.581 E185.55794
G1 X132.8 Y93.581 E186.60623
G1 X132.8 Y145.981 E188.40135
G1 X102.2 Y145.981 E189.44964
G0 F9000 X101.8 Y146.381
G1 F1200 X101.8 Y93.181 E191.27216
G1 X133.2 Y93.181 E192.34786
G1 X133.2 Y146.381 E194.17039
G1 X101.8 Y146.381 E195.24609
G0 F9000 X101.4 Y146.781
G1 F1200 X101.4 Y92.781 E197.09601
G1 X133.6 Y92.781 E198.19912
G1 X133.6 Y146.781 E200.04905
G1 X101.4 Y146.781 E201.15215
G0 F9000 X101 Y147.181
G1 F1200 X101 Y92.381 E203.02949
G1 X134 Y92.381 E204.16
G1 X134 Y147.181 E206.03734
G1 X101 Y147.181 E207.16785
G0 F9000 X100.6 Y147.581
G1 F1200 X100.6 Y91.981 E209.07259
G1 X134.4 Y91.981 E210.23051
G1 X134.4 Y147.581 E212.13525
G1 X100.6 Y147.581 E213.29317
G0 F9000 X100.2 Y147.981
G1 F1200 X100.2 Y91.581 E215.22532
G1 X134.8 Y91.581 E216.41064
G1 X134.8 Y147.981 E218.34279
G1 X100.2 Y147.981 E219.52811
G0 F9000 X99.8 Y148.381
G1 F1200 X99.8 Y91.181 E221.48767
G1 X135.2 Y91.181 E222.7004
G1 X135.2 Y148.381 E224.65995
G1 X99.8 Y148.381 E225.87268
G0 F9000 X99.4 Y148.781
;TYPE:WALL-OUTER
G1 F1200 X99.4 Y90.781 E227.85964
G1 X135.6 Y90.781 E229.09978
G1 X135.6 Y148.781 E231.08674
G1 X99.4 Y148.781 E232.32688
G1 F3600 E226.32688
G1 F300 Z1
G0 F9000 X102.59 Y145.591 Z1
;TYPE:SKIN
G1 F300 Z0.4
G1 F3600 E232.32688
G1 F1200 X102.59 Y93.971 E234.09527
G1 X132.41 Y93.971 E235.11685
G1 X132.41 Y145.591 E236.88524
G1 X102.59 Y145.591 E237.90681
G1 F3600 E231.90681
G1 F300 Z1
G0 F9000 X131.755 Y145.43 Z1
G1 F300 Z0.4
G1 F3600 E237.90681
G1 F1200 X132.249 Y144.936 E237.93075
G0 F9000 X132.249 Y144.37
G1 F1200 X131.189 Y145.43 E237.9821
G0 F9000 X130.623 Y145.43
G1 F1200 X132.249 Y143.805 E238.06085
G0 F9000 X132.249 Y143.239
G1 F1200 X130.058 Y145.43 E238.167
G0 F9000 X129.492 Y145.43
G1 F1200 X132.249 Y142.673 E238.30057
G0 F9000 X132.249 Y142.107
G1 F1200 X128.926 Y145.43 E238.46157
G0 F9000 X128.361 Y145.43
G1 F1200 X132.249 Y141.542 E238.64993
G0 F9000 X132.249 Y140.976
G1 F1200 X127.795 Y145.43 E238.86572
G0 F9000 X127.229 Y145.43
G1 F1200 X132.249 Y140.41 E239.10893
G0 F9000 X132.249 Y139.845
G1 F1200 X126.664 Y145.43 E239.37951
G0 F9000 X126.098 Y145.43
G1 F1200 X132.249 Y139.279 E239.67752
G0 F9000 X132.249 Y138.713
G1 F1200 X125.532 Y145.43 E240.00294
G0 F9000 X124.966 Y145.43
G1 F1200 X132.249 Y138.148 E240.35576
G0 F9000 X132.249 Y137.582
G1 F1200 X124.401 Y145.43 E240.73598
G0 F9000 X123.835 Y145.43
G1 F1200 X132.249 Y137.016 E241.14363
G0 F9000 X132.249 Y136.451
G1 F1200 X123.269 Y145.43 E241.57866
G0 F9000 X122.704 Y145.43
G1 F1200 X132.249 Y135.885 E242.0411
G0 F9000 X132.249 Y135.319
G1 F1200 X122.138 Y145.43 E242.53096
G0 F9000 X121.572 Y145.43
G1 F1200 X132.249 Y134.754 E243.04821
G0 F9000 X132.249 Y134.188
G1 F1200 X121.007 Y145.43 E243.59287
G0 F9000 X120.441 Y145.43
G1 F1200 X132.249 Y133.622 E244.16494
G0 F9000 X132.249 Y133.056
G1 F1200 X119.875 Y145.43 E244.76444
G0 F9000 X119.31 Y145.43
G1 F1200 X132.249 Y132.491 E245.39131
G0 F9000 X132.249 Y131.925
G1 F1200 X118.744 Y145.43 E246.0456
G0 F9000 X118.178 Y145.43
G1 F1200 X132.249 Y131.359 E246.72731
G0 F9000 X132.249 Y130.794
G1 F1200 X117.613 Y145.43 E247.4364
G0 F9000 X117.047 Y145.43
G1 F1200 X132.249 Y130.228 E248.1729
G0 F9000 X132.249 Y129.662
G1 F1200 X116.481 Y145.43 E248.93683
G0 F9000 X115.916 Y145.43
G1 F1200 X132.249 Y129.097 E249.72813
G0 F9000 X132.249 Y128.531
G1 F1200 X115.35 Y145.43 E250.54686
G0 F9000 X114.784 Y145.43
G1 F1200 X132.249 Y127.965 E251.393
G0 F9000 X132.249 Y127.4
G1 F1200 X114.218 Y145.43 E252.26654
G0 F9000 X113.653 Y145.43
G1 F1200 X132.249 Y126.834 E253.16748
G0 F9000 X132.249 Y126.268
G1 F1200 X113.087 Y145.43 E254.09585
G0 F9000 X112.521 Y145.43
G1 F1200 X132.249 Y125.703 E255.0516
G0 F9000 X132.249 Y125.137
G1 F1200 X111.956 Y145.43 E256.03476
G0 F9000 X111.39 Y145.43
G1 F1200 X132.249 Y124.571 E257.04534
G0 F9000 X132.249 Y124.006
G1 F1200 X110.824 Y145.43 E258.08331
G0 F9000 X110.259 Y145.43
G1 F1200 X132.249 Y123.44 E259.14869
G0 F9000 X132.249 Y122.874
G1 F1200 X109.693 Y145.43 E260.24148
G0 F9000 X109.127 Y145.43
G1 F1200 X132.249 Y122.308 E261.3617
G0 F9000 X132.249 Y121.743
G1 F1200 X108.562 Y145.43 E262.50928
G0 F9000 X107.996 Y145.43
G1 F1200 X132.249 Y121.177 E263.6843
G0 F9000 X132.249 Y120.611
G1 F1200 X107.43 Y145.43 E264.88673
G0 F9000 X106.865 Y145.43
G1 F1200 X132.249 Y120.046 E266.11653
