;FLAVOR:Marlin
;TIME:5390
;Filament used: 4.11924m
;Layer height: 0.2
;MINX:97.904
;MINY:108.122
;MINZ:0.2
;MAXX:137.096
;MAXY:153.778
;MAXZ:27.6
;Generated with Cura_SteamEngine 4.6.1
M82 ;absolute extrusion mode
M201 X500.00 Y500.00 Z100.00 E5000.00 ;Setup machine max acceleration
M203 X500.00 Y500.00 Z10.00 E50.00 ;Setup machine max feedrate
M204 P500.00 R1000.00 T500.00 ;Setup Print/Retract/Travel acceleration
M205 X8.00 Y8.00 Z0.40 E5.00 ;Setup Jerk
M220 S100 ;Reset Feedrate
M221 S100 ;Reset Flowrate

M104 S205.0 ; set extruder temp
M140 S55.0 ; set bed temp

G28;
M420 S1 ; enable mesh bed leveling positions
G29 S0; Reading bed leveling values
G0 X4.0 Y4.0 Z20 F7200 ; Move to a position in the left front of the bed

M190 S55.0 ; wait for bed temp
M109 S205.0 ; wait for extruder temp
M300 S2600 P200; Beep


G92 E0 ;Reset Extruder
G1 X4.0 Y4.0 F7200 ; Move to a position in the left front of the bed
G1 Z0.2; Move nozzle above 0.3 mm of the bed
G91 ; Use relative mode
G1 Z1.0 Y200;
G1 Z-1.0;
G1 Y-190 E40 F1000 ; print line left side
G0 Z10.0
G92 E0 ; Set extrusion distance to 0
G90 ; switch back to absolute mode
G92 E0
G92 E0
G1 F3600 E-6
;LAYER_COUNT:135
;LAYER:0
M107
G1 F300 Z0.8
;MESH:case_back.stl
G0 F6000 X124.338 Y122.032 Z0.8
;TYPE:WALL-INNER
G1 F300 Z0.2
G1 F3600 E0
G1 F900 X124.338 Y113.002 E0.30935
G1 X110.056 Y113.002 E0.79862
G1 X110.056 Y122.032 E1.10797
G1 X124.338 Y122.032 E1.59724
G0 F6000 X123.938 Y121.632
G1 F900 X123.938 Y113.402 E1.87918
G1 X110.456 Y113.402 E2.34105
G1 X110.456 Y121.632 E2.62299
G1 X123.938 Y121.632 E3.08486
G0 F6000 X123.538 Y121.232
G1 F900 X123.538 Y113.802 E3.3394
G1 X110.856 Y113.802 E3.77385
G1 X110.856 Y121.232 E4.02839
G1 X123.538 Y121.232 E4.46285
G0 F6000 X123.138 Y120.832
G1 F900 X123.138 Y114.202 E4.68998
G1 X111.256 Y114.202 E5.09703
G1 X111.256 Y120.832 E5.32416
G1 X123.138 Y120.832 E5.73122
G0 F6000 X122.738 Y120.432
G1 F900 X122.738 Y114.602 E5.93094
G1 X111.656 Y114.602 E6.31059
G1 X111.656 Y120.432 E6.51031
G1 X122.738 Y120.432 E6.88996
G0 F6000 X122.338 Y120.032
G1 F900 X122.338 Y115.002 E7.06227
G1 X112.056 Y115.002 E7.41451
G1 X112.056 Y120.032 E7.58683
G1 X122.338 Y120.032 E7.93907
G0 F6000 X121.938 Y119.632
G1 F900 X121.938 Y115.402 E8.08398
G1 X112.456 Y115.402 E8.40882
G1 X112.456 Y119.632 E8.55373
G1 X121.938 Y119.632 E8.87856
G0 F6000 X121.538 Y119.232
;TYPE:WALL-OUTER
G1 F900 X121.538 Y115.802 E8.99607
G1 X112.856 Y115.802 E9.29349
G1 X112.856 Y119.232 E9.411
G1 X121.538 Y119.232 E9.70843
G1 F3600 E3.70843
G1 F300 Z0.8
G0 F6000 X133.765 Y150.447 Z0.8
;TYPE:WALL-INNER
G1 F300 Z0.2
G1 F3600 E9.70843
G1 F900 X101.235 Y150.447 E10.82284
G1 X101.235 Y111.651 E12.15191
G1 X101.235 Y111.452 E12.15872
G1 X101.434 Y111.452 E12.16314
G1 X133.765 Y111.453 E13.27073
G1 X133.765 Y150.447 E14.60658
G0 F6000 X134.165 Y150.847
G1 F900 X100.835 Y150.847 E15.7484
G1 X100.835 Y111.251 E17.10488
G1 X100.835 Y111.052 E17.1117
G1 X101.034 Y111.052 E17.11611
G1 X134.165 Y111.053 E18.25111
G1 X134.165 Y150.847 E19.61437
G0 F6000 X134.565 Y151.247
G1 F900 X100.435 Y151.247 E20.78359
G1 X100.435 Y110.851 E22.16747
G1 X100.435 Y110.652 E22.17429
G1 X100.634 Y110.652 E22.1787
G1 X134.565 Y110.653 E23.34111
G1 X134.565 Y151.247 E24.73177
G0 F6000 X134.965 Y151.647
G1 F900 X100.035 Y151.647 E25.9284
G1 X100.035 Y110.451 E27.33969
G1 X100.035 Y110.252 E27.34651
G1 X100.234 Y110.252 E27.35092
G1 X134.965 Y110.253 E28.54073
G1 X134.965 Y151.647 E29.95881
G0 F6000 X135.365 Y152.047
G1 F900 X99.635 Y152.047 E31.18284
G1 X99.635 Y110.051 E32.62154
G1 X99.635 Y109.852 E32.62836
G1 X99.834 Y109.852 E32.63277
G1 X135.365 Y109.853 E33.84999
G1 X135.365 Y152.047 E35.29547
G0 F6000 X135.765 Y152.447
G1 F900 X99.235 Y152.447 E36.54691
G1 X99.235 Y109.651 E38.01301
G1 X99.235 Y109.452 E38.01983
G1 X99.434 Y109.452 E38.02424
G1 X135.765 Y109.453 E39.26887
G1 X135.765 Y152.447 E40.74175
G0 F6000 X136.165 Y152.847
G1 F900 X98.835 Y152.847 E42.0206
G1 X98.835 Y109.251 E43.51411
G1 X98.835 Y109.052 E43.52093
G1 X99.034 Y109.052 E43.52534
G1 X136.165 Y109.053 E44.79737
G1 X136.165 Y152.847 E46.29766
G0 F6000 X136.463 Y153.177
;TYPE:WALL-OUTER
G1 F900 X136.423 Y153.203 E46.2993
G1 X136.332 Y153.238 E46.30264
G1 X136.269 Y153.247 E46.30482
G1 X98.743 Y153.247 E47.59038
G1 X98.652 Y153.236 E47.59352
G1 X98.598 Y153.217 E47.59548
G1 X98.555 Y153.19 E47.59722
G1 X98.505 Y153.145 E47.59952
G1 X98.479 Y153.105 E47.60116
G1 X98.444 Y153.014 E47.6045
G1 X98.435 Y152.951 E47.60668
G1 X98.435 Y108.957 E49.11382
G1 X98.447 Y108.869 E49.11687
G1 X98.46 Y108.829 E49.11831
G1 X98.477 Y108.793 E49.11967
G1 X98.551 Y108.711 E49.12345
G1 X98.59 Y108.69 E49.12497
G1 X98.696 Y108.656 E49.12878
G1 X98.73 Y108.652 E49.12996
G1 X136.264 Y108.653 E50.4158
G1 X136.338 Y108.662 E50.41835
G1 X136.396 Y108.683 E50.42046
G1 X136.411 Y108.688 E50.421
G1 X136.443 Y108.708 E50.4223
G1 X136.496 Y108.756 E50.42475
G1 X136.521 Y108.795 E50.42633
G1 X136.556 Y108.884 E50.42961
G1 X136.565 Y108.946 E50.43176
G1 X136.565 Y152.937 E51.9388
G1 X136.554 Y153.03 E51.942
G1 X136.535 Y153.084 E51.94397
G1 X136.51 Y153.125 E51.94561
G1 X136.463 Y153.177 E51.94801
G0 F6000 X136.125 Y152.842
G1 F3600 E45.94801
G1 F300 Z0.8
G0 F6000 X133.375 Y150.057 Z0.8
;TYPE:SKIN
G1 F300 Z0.2
G1 F3600 E51.94801
G1 F900 X101.625 Y150.057 E53.0357
G1 X101.625 Y111.842 E54.34487
G1 X133.375 Y111.843 E55.43256
G1 X133.375 Y150.057 E56.74169
G1 F3600 E50.74169
G1 F300 Z0.8
G0 F6000 X124.728 Y122.422 Z0.8
G1 F300 Z0.2
G1 F3600 E56.74169
G1 F900 X124.728 Y112.612 E57.07776
G1 X109.666 Y112.612 E57.59375
G1 X109.666 Y122.422 E57.92983
G1 X124.728 Y122.422 E58.44582
G1 F3600 E52.44582
G1 F300 Z0.8
G0 F6000 X133.215 Y112.285 Z0.8
G1 F300 Z0.2
G1 F3600 E58.44582
G1 F900 X132.933 Y112.002 E58.4595
G0 F6000 X132.367 Y112.002
G1 F900 X133.215 Y112.85 E58.50059
G0 F6000 X133.215 Y113.416
G1 F900 X131.801 Y112.002 E58.56909
G0 F6000 X131.236 Y112.002
G1 F900 X133.215 Y113.982 E58.665
G0 F6000 X133.215 Y114.547
G1 F900 X130.67 Y112.002 E58.7883
G0 F6000 X130.104 Y112.002
G1 F900 X133.215 Y115.113 E58.93902
G0 F6000 X133.215 Y115.679
G1 F900 X129.539 Y112.002 E59.11714
G0 F6000 X128.973 Y112.002
G1 F900 X133.215 Y116.244 E59.32266
G0 F6000 X133.215 Y116.81
G1 F900 X128.407 Y112.002 E59.55559
G0 F6000 X127.842 Y112.002
G1 F900 X133.215 Y117.376 E59.81593
G0 F6000 X133.215 Y117.941
G1 F900 X127.276 Y112.002 E60.10366
G0 F6000 X126.71 Y112.002
G1 F900 X133.215 Y118.507 E60.41882
G0 F6000 X133.215 Y119.073
G1 F900 X126.145 Y112.002 E60.76137
G0 F6000 X125.579 Y112.002
G1 F900 X133.215 Y119.638 E61.13132
G0 F6000 X133.215 Y120.204
G1 F900 X125.013 Y112.002 E61.52869
G0 F6000 X124.447 Y112.002
G1 F900 X133.215 Y120.77 E61.95348
G0 F6000 X133.215 Y121.335
G1 F900 X124.887 Y113.007 E62.35696
G0 F6000 X124.887 Y113.573
G1 F900 X133.215 Y121.901 E62.76043
G0 F6000 X133.215 Y122.467
G1 F900 X124.887 Y114.139 E63.16391
G0 F6000 X124.887 Y114.704
G1 F900 X133.215 Y123.033 E63.56741
G0 F6000 X133.215 Y123.598
G1 F900 X124.887 Y115.27 E63.97088
G0 F6000 X124.887 Y115.836
G1 F900 X133.215 Y124.164 E64.37436
G0 F6000 X133.215 Y124.73
G1 F900 X124.887 Y116.401 E64.77786
G0 F6000 X124.887 Y116.967
G1 F900 X133.215 Y125.295 E65.18133
G0 F6000 X133.215 Y125.861
G1 F900 X124.887 Y117.533 E65.58481
G0 F6000 X124.887 Y118.098
G1 F900 X133.215 Y126.427 E65.98831
G0 F6000 X133.215 Y126.992
G1 F900 X124.887 Y118.664 E66.39178
G0 F6000 X124.887 Y119.23
G1 F900 X133.215 Y127.558 E66.79526
G0 F6000 X133.215 Y128.124
G1 F900 X124.887 Y119.795 E67.19876
G0 F6000 X124.887 Y120.361
G1 F900 X133.215 Y128.689 E67.60223
G0 F6000 X133.215 Y129.255
G1 F900 X124.887 Y120.927 E68.00571
G0 F6000 X124.887 Y121.492
G1 F900 X133.215 Y129.821 E68.40921
G0 F6000 X133.215 Y130.386
G1 F900 X124.887 Y122.058 E68.81268
G0 F6000 X124.844 Y122.581
G1 F900 X133.215 Y130.952 E69.21824
G0 F6000 X133.215 Y131.518
G1 F900 X124.278 Y122.581 E69.65122
G0 F6000 X123.713 Y122.581
G1 F900 X133.215 Y132.084 E70.1116
G0 F6000 X133.215 Y132.649
G1 F900 X123.147 Y122.581 E70.59937
G0 F6000 X122.581 Y122.581
G1 F900 X133.215 Y133.215 E71.11457
G0 F6000 X133.215 Y133.781
G1 F900 X122.016 Y122.581 E71.65716
G0 F6000 X121.45 Y122.581
G1 F900 X133.215 Y134.346 E72.22715
G0 F6000 X133.215 Y134.912
G1 F900 X120.884 Y122.581 E72.82457
G0 F6000 X120.319 Y122.581
G1 F900 X133.215 Y135.478 E73.44938
G0 F6000 X133.215 Y136.043
G1 F900 X119.753 Y122.581 E74.10159
G0 F6000 X119.187 Y122.581
G1 F900 X133.215 Y136.609 E74.78121
G0 F6000 X133.215 Y137.175
G1 F900 X118.622 Y122.581 E75.48824
G0 F6000 X118.056 Y122.581
G1 F900 X133.215 Y137.74 E76.22266
G0 F6000 X133.215 Y138.306
G1 F900 X117.49 Y122.581 E76.98451
G0 F6000 X116.925 Y122.581
G1 F900 X133.215 Y138.872 E77.77375
G0 F6000 X133.215 Y139.437
G1 F900 X116.359 Y122.581 E78.59039
G0 F6000 X115.793 Y122.581
G1 F900 X133.215 Y140.003 E79.43445
G0 F6000 X133.215 Y140.569
G1 F900 X115.227 Y122.581 E80.30594
G0 F6000 X114.662 Y122.581
G1 F900 X133.215 Y141.134 E81.20479
G0 F6000 X133.215 Y141.7
G1 F900 X114.096 Y122.581 E82.13107
G0 F6000 X113.53 Y122.581
G1 F900 X133.215 Y142.266 E83.08477
G0 F6000 X133.215 Y142.832
G1 F900 X112.965 Y122.581 E84.06587
G0 F6000 X112.399 Y122.581
G1 F900 X133.215 Y143.397 E85.07436
G0 F6000 X133.215 Y143.963
G1 F900 X111.833 Y122.581 E86.11028
G0 F6000 X111.268 Y122.581
G1 F900 X133.215 Y144.529 E87.17359
G0 F6000 X133.215 Y145.094
G1 F900 X110.702 Y122.581 E88.2643
G0 F6000 X110.136 Y122.581
G1 F900 X133.215 Y145.66 E89.38244
G0 F6000 X133.215 Y146.226
G1 F900 X109.571 Y122.581 E90.52797
G0 F6000 X109.506 Y122.516
G1 F900 X101.785 Y114.795 E90.90203
G0 F6000 X101.785 Y114.23
G1 F900 X109.506 Y121.951 E91.2761
G0 F6000 X109.506 Y121.385
G1 F900 X101.785 Y113.664 E91.65017
G0 F6000 X101.785 Y113.098
G1 F900 X109.506 Y120.819 E92.02424
G0 F6000 X109.506 Y120.254
G1 F900 X101.785 Y112.533 E92.3983
G0 F6000 X101.819 Y112.002
G1 F900 X109.506 Y119.688 E92.7707
G0 F6000 X109.506 Y119.122
G1 F900 X102.385 Y112.002 E93.11567
G0 F6000 X102.951 Y112.002
G1 F900 X109.506 Y118.557 E93.43325
G0 F6000 X109.506 Y117.991
G1 F900 X103.516 Y112.002 E93.72343
G0 F6000 X104.082 Y112.002
G1 F900 X109.506 Y117.425 E93.98619
G0 F6000 X109.506 Y116.86
G1 F900 X104.648 Y112.002 E94.22155
G0 F6000 X105.213 Y112.002
G1 F900 X109.506 Y116.294 E94.42951
G0 F6000 X109.506 Y115.728
G1 F900 X105.779 Y112.002 E94.61005
G0 F6000 X106.345 Y112.002
G1 F900 X109.506 Y115.162 E94.76317
G0 F6000 X109.506 Y114.597
G1 F900 X106.911 Y112.002 E94.8889
G0 F6000 X107.476 Y112.002
G1 F900 X109.506 Y114.031 E94.98722
G0 F6000 X109.506 Y113.465
G1 F900 X108.042 Y112.002 E95.05812
G0 F6000 X108.608 Y112.002
G1 F900 X109.506 Y112.9 E95.10163
G0 F6000 X109.623 Y112.451
G1 F900 X109.173 Y112.002 E95.12341
G0 F6000 X109.739 Y112.002
G1 F900 X110.189 Y112.451 E95.14519
G0 F6000 X110.305 Y112.002
G1 F900 X110.754 Y112.451 E95.16694
G0 F6000 X110.87 Y112.002
G1 F900 X111.32 Y112.451 E95.18872
G0 F6000 X111.436 Y112.002
G1 F900 X111.886 Y112.451 E95.21049
G0 F6000 X112.002 Y112.002
G1 F900 X112.451 Y112.451 E95.23225
G0 F6000 X112.567 Y112.002
G1 F900 X113.017 Y112.451 E95.25402
G0 F6000 X113.133 Y112.002
G1 F900 X113.583 Y112.451 E95.2758
G0 F6000 X113.699 Y112.002
G1 F900 X114.148 Y112.451 E95.29756
G0 F6000 X114.264 Y112.002
G1 F900 X114.714 Y112.451 E95.31933
G0 F6000 X114.83 Y112.002
G1 F900 X115.28 Y112.451 E95.34111
G0 F6000 X115.396 Y112.002
G1 F900 X115.846 Y112.451 E95.36289
G0 F6000 X115.961 Y112.002
G1 F900 X116.411 Y112.451 E95.38466
G0 F6000 X116.527 Y112.002
G1 F900 X116.977 Y112.451 E95.40644
G0 F6000 X117.093 Y112.002
G1 F900 X117.543 Y112.451 E95.42822
G0 F6000 X117.659 Y112.002
G1 F900 X118.108 Y112.451 E95.44997
G0 F6000 X118.225 Y112.002
G1 F900 X118.674 Y112.451 E95.47173
G0 F6000 X118.791 Y112.002
G1 F900 X119.24 Y112.451 E95.49348
G0 F6000 X119.356 Y112.002
G1 F900 X119.805 Y112.451 E95.51523
G0 F6000 X119.922 Y112.002
G1 F900 X120.371 Y112.451 E95.53699
G0 F6000 X120.488 Y112.002
G1 F900 X120.937 Y112.451 E95.55874
G0 F6000 X121.053 Y112.002
G1 F900 X121.502 Y112.451 E95.58049
G0 F6000 X121.619 Y112.002
G1 F900 X122.068 Y112.451 E95.60225
G0 F6000 X122.185 Y112.002
G1 F900 X122.634 Y112.451 E95.624
G0 F6000 X122.75 Y112.002
G1 F900 X123.199 Y112.451 E95.64575
G0 F6000 X123.316 Y112.002
G1 F900 X123.765 Y112.451 E95.6675
G0 F6000 X123.882 Y112.002
G1 F900 X124.331 Y112.451 E95.68926
G1 F3600 E89.68926
G1 F300 Z0.8
G0 F6000 X101.785 Y115.361 Z0.8
G1 F300 Z0.2
G1 F3600 E95.68926
G1 F900 X133.215 Y146.791 E97.21198
G0 F6000 X133.215 Y147.357
G1 F900 X101.785 Y115.927 E98.7347
G0 F6000 X101.785 Y116.493
G1 F900 X133.215 Y147.923 E100.25742
G0 F6000 X133.215 Y148.488
G1 F900 X101.785 Y117.058 E101.78015
G0 F6000 X101.785 Y117.624
G1 F900 X133.215 Y149.054 E103.30287
G0 F6000 X133.215 Y149.62
G1 F900 X101.785 Y118.19 E104.82559
G0 F6000 X101.785 Y118.755
G1 F900 X132.925 Y149.896 E106.33429
G0 F6000 X132.359 Y149.896
G1 F900 X101.785 Y119.321 E107.81556
G0 F6000 X101.785 Y119.887
G1 F900 X131.794 Y149.896 E109.26944
G0 F6000 X131.228 Y149.896
G1 F900 X101.785 Y120.452 E110.69592
G0 F6000 X101.785 Y121.018
G1 F900 X130.662 Y149.896 E112.09498
G0 F6000 X130.097 Y149.896
G1 F900 X101.785 Y121.584 E113.46664
G0 F6000 X101.785 Y122.149
G1 F900 X129.531 Y149.896 E114.8109
G0 F6000 X128.965 Y149.896
G1 F900 X101.785 Y122.715 E116.12774
G0 F6000 X101.785 Y123.281
G1 F900 X128.399 Y149.896 E117.41716
G0 F6000 X127.834 Y149.896
G1 F900 X101.785 Y123.846 E118.67921
G0 F6000 X101.785 Y124.412
G1 F900 X127.268 Y149.896 E119.91384
G0 F6000 X126.702 Y149.896
G1 F900 X101.785 Y124.978 E121.12104
G0 F6000 X101.785 Y125.543
G1 F900 X126.137 Y149.896 E122.30087
G0 F6000 X125.571 Y149.896
G1 F900 X101.785 Y126.109 E123.45328
G0 F6000 X101.785 Y126.675
G1 F900 X125.005 Y149.896 E124.57827
G0 F6000 X124.44 Y149.896
G1 F900 X101.785 Y127.241 E125.67586
G0 F6000 X101.785 Y127.806
G1 F900 X123.874 Y149.896 E126.74605
G0 F6000 X123.308 Y149.896
G1 F900 X101.785 Y128.372 E127.78882
G0 F6000 X101.785 Y128.938
G1 F900 X122.743 Y149.896 E128.8042
G0 F6000 X122.177 Y149.896
G1 F900 X101.785 Y129.503 E129.79217
G0 F6000 X101.785 Y130.069
G1 F900 X121.611 Y149.896 E130.75273
G0 F6000 X121.046 Y149.896
G1 F900 X101.785 Y130.635 E131.68589
G0 F6000 X101.785 Y131.2
G1 F900 X120.48 Y149.896 E132.59165
G0 F6000 X119.914 Y149.896
G1 F900 X101.785 Y131.766 E133.46999
G0 F6000 X101.785 Y132.332
G1 F900 X119.349 Y149.896 E134.32093
G0 F6000 X118.783 Y149.896
G1 F900 X101.785 Y132.897 E135.14447
G0 F6000 X101.785 Y133.463
G1 F900 X118.217 Y149.896 E135.94059
G0 F6000 X117.651 Y149.896
G1 F900 X101.785 Y134.029 E136.70929
G0 F6000 X101.785 Y134.594
G1 F900 X117.086 Y149.896 E137.45062
G0 F6000 X116.52 Y149.896
G1 F900 X101.785 Y135.16 E138.16453
G0 F6000 X101.785 Y135.726
G1 F900 X115.954 Y149.896 E138.85101
G0 F6000 X115.389 Y149.896
G1 F900 X101.785 Y136.292 E139.5101
G0 F6000 X101.785 Y136.857
G1 F900 X114.823 Y149.896 E140.14179
G0 F6000 X114.257 Y149.896
G1 F900 X101.785 Y137.423 E140.74606
G0 F6000 X101.785 Y137.989
G1 F900 X113.692 Y149.896 E141.32293
G0 F6000 X113.126 Y149.896
G1 F900 X101.785 Y138.554 E141.8724
G0 F6000 X101.785 Y139.12
G1 F900 X112.56 Y149.896 E142.39445
G0 F6000 X111.995 Y149.896
G1 F900 X101.785 Y139.686 E142.88911
G0 F6000 X101.785 Y140.251
G1 F900 X111.429 Y149.896 E143.35637
G0 F6000 X110.863 Y149.896
G1 F900 X101.785 Y140.817 E143.7962
G0 F6000 X101.785 Y141.383
G1 F900 X110.298 Y149.896 E144.20864
G0 F6000 X109.732 Y149.896
G1 F900 X101.785 Y141.948 E144.59368
G0 F6000 X101.785 Y142.514
G1 F900 X109.166 Y149.896 E144.9513
G0 F6000 X108.6 Y149.896
G1 F900 X101.785 Y143.08 E145.2815
G0 F6000 X101.785 Y143.645
G1 F900 X108.035 Y149.896 E145.58432
G0 F6000 X107.469 Y149.896
G1 F900 X101.785 Y144.211 E145.85972
G0 F6000 X101.785 Y144.777
G1 F900 X106.903 Y149.896 E146.10771
G0 F6000 X106.338 Y149.896
G1 F900 X101.785 Y145.342 E146.32831
G0 F6000 X101.785 Y145.908
G1 F900 X105.772 Y149.896 E146.5215
G0 F6000 X105.206 Y149.896
G1 F900 X101.785 Y146.474 E146.68727
G0 F6000 X101.785 Y147.04
