;FLAVOR:Marlin
;TIME:2641
;Filament used: 1.85715m
;Layer height: 0.2
;MINX:97.904
;MINY:88.272
;MINZ:0.2
;MAXX:137.096
;MAXY:133.928
;MAXZ:13.4
;Generated with Cura_SteamEngine 4.6.1
M82 ;absolute extrusion mode
M201 X500.00 Y500.00 Z100.00 E5000.00 ;Setup machine max acceleration
M203 X500.00 Y500.00 Z10.00 E50.00 ;Setup machine max feedrate
M204 P500.00 R1000.00 T500.00 ;Setup Print/Retract/Travel acceleration
M205 X8.00 Y8.00 Z0.40 E5.00 ;Setup Jerk
M220 S100 ;Reset Feedrate
M221 S100 ;Reset Flowrate

M104 S205.0 ; set extruder temp
M140 S55.0 ; set bed temp

G28;
M420 S1 ; enable mesh bed leveling positions
G29 S0; Reading bed leveling values
G0 X4.0 Y4.0 Z20 F7200 ; Move to a position in the left front of the bed

M190 S55.0 ; wait for bed temp
M109 S205.0 ; wait for extruder temp
M300 S2600 P200; Beep


G92 E0 ;Reset Extruder
G1 X4.0 Y4.0 F7200 ; Move to a position in the left front of the bed
G1 Z0.2; Move nozzle above 0.3 mm of the bed
G91 ; Use relative mode
G1 Z1.0 Y200;
G1 Z-1.0;
G1 Y-190 E40 F1000 ; print line left side
G0 Z10.0
G92 E0 ; Set extrusion distance to 0
G90 ; switch back to absolute mode
G92 E0
G92 E0
G1 F3600 E-6
;LAYER_COUNT:64
;LAYER:0
M107
G1 F300 Z0.8
;MESH:case_front.stl
G0 F6000 X106.427 Y131.778 Z0.8
;TYPE:WALL-INNER
G1 F300 Z0.2
G1 F3600 E0
G1 F900 X106.76 Y131.726 E0.01155
G1 X107.086 Y131.639 E0.02311
G1 X107.4 Y131.518 E0.03463
G1 X107.701 Y131.365 E0.0462
G1 X107.986 Y131.181 E0.05782
G1 X108.246 Y130.967 E0.06936
G1 X108.486 Y130.73 E0.08091
G1 X108.697 Y130.467 E0.09246
G1 X108.881 Y130.185 E0.104
G1 X109.034 Y129.885 E0.11554
G1 X109.155 Y129.57 E0.1271
G1 X109.243 Y129.242 E0.13873
G1 X109.294 Y128.91 E0.15024
G1 X109.314 Y128.573 E0.1618
G1 X109.294 Y128.236 E0.17337
G1 X109.243 Y127.904 E0.18487
G1 X109.155 Y127.576 E0.19651
G1 X109.034 Y127.261 E0.20807
G1 X108.881 Y126.961 E0.21961
G1 X108.697 Y126.679 E0.23114
G1 X108.486 Y126.416 E0.24269
G1 X108.246 Y126.179 E0.25425
G1 X107.986 Y125.965 E0.26578
G1 X107.701 Y125.781 E0.2774
G1 X107.4 Y125.628 E0.28897
G1 X107.086 Y125.507 E0.3005
G1 X106.76 Y125.42 E0.31206
G1 X106.447 Y125.372 E0.32291
G1 X106.427 Y125.368 E0.32361
G1 X106.09 Y125.349 E0.33517
G1 X105.752 Y125.368 E0.34677
G1 X105.42 Y125.42 E0.35828
G1 X105.095 Y125.507 E0.3698
G1 X104.778 Y125.628 E0.38143
G1 X104.479 Y125.781 E0.39294
G1 X104.193 Y125.965 E0.40459
G1 X103.933 Y126.179 E0.41612
G1 X103.693 Y126.416 E0.42768
G1 X103.482 Y126.679 E0.43923
G1 X103.298 Y126.961 E0.45076
G1 X103.145 Y127.261 E0.4623
G1 X103.024 Y127.576 E0.47386
G1 X102.936 Y127.904 E0.48549
G1 X102.885 Y128.238 E0.49707
G1 X102.866 Y128.573 E0.50856
G1 X102.885 Y128.908 E0.52006
G1 X102.936 Y129.242 E0.53163
G1 X103.024 Y129.57 E0.54327
G1 X103.145 Y129.885 E0.55483
G1 X103.298 Y130.185 E0.56636
G1 X103.482 Y130.467 E0.5779
G1 X103.693 Y130.73 E0.58945
G1 X103.933 Y130.967 E0.60101
G1 X104.193 Y131.181 E0.61254
G1 X104.479 Y131.365 E0.62419
G1 X104.778 Y131.518 E0.6357
G1 X105.095 Y131.639 E0.64732
G1 X105.42 Y131.726 E0.65885
G1 X105.732 Y131.774 E0.66966
G1 X105.752 Y131.778 E0.67036
G1 X106.09 Y131.797 E0.68196
G1 X106.427 Y131.778 E0.69352
G0 F6000 X106.385 Y131.38
G1 F900 X106.677 Y131.334 E0.70365
G1 X106.962 Y131.258 E0.71375
G1 X107.237 Y131.152 E0.72385
G1 X107.501 Y131.018 E0.73399
G1 X107.75 Y130.857 E0.74415
G1 X107.978 Y130.67 E0.75425
G1 X108.188 Y130.462 E0.76438
G1 X108.373 Y130.232 E0.77449
G1 X108.534 Y129.984 E0.78462
G1 X108.668 Y129.722 E0.7947
G1 X108.774 Y129.446 E0.80483
G1 X108.851 Y129.159 E0.81501
G1 X108.896 Y128.868 E0.8251
G1 X108.913 Y128.573 E0.83522
G1 X108.896 Y128.278 E0.84534
G1 X108.851 Y127.987 E0.85543
G1 X108.774 Y127.7 E0.86561
G1 X108.668 Y127.424 E0.87574
G1 X108.534 Y127.162 E0.88582
G1 X108.373 Y126.914 E0.89595
G1 X108.188 Y126.684 E0.90606
G1 X107.978 Y126.476 E0.91619
G1 X107.75 Y126.289 E0.92629
G1 X107.501 Y126.128 E0.93645
G1 X107.237 Y125.994 E0.94659
G1 X106.962 Y125.888 E0.95668
G1 X106.677 Y125.812 E0.96679
G1 X106.385 Y125.766 E0.97692
G1 X106.09 Y125.75 E0.98704
G1 X105.794 Y125.766 E0.99719
G1 X105.503 Y125.812 E1.00729
G1 X105.218 Y125.888 E1.01739
G1 X104.941 Y125.994 E1.02755
G1 X104.679 Y126.128 E1.03763
G1 X104.429 Y126.289 E1.04782
G1 X104.201 Y126.476 E1.05792
G1 X103.991 Y126.684 E1.06805
G1 X103.806 Y126.914 E1.07816
G1 X103.645 Y127.162 E1.08829
G1 X103.511 Y127.424 E1.09837
G1 X103.405 Y127.7 E1.1085
G1 X103.328 Y127.987 E1.11868
G1 X103.283 Y128.279 E1.1288
G1 X103.267 Y128.573 E1.13889
G1 X103.283 Y128.867 E1.14897
G1 X103.328 Y129.159 E1.15909
G1 X103.405 Y129.446 E1.16927
G1 X103.511 Y129.722 E1.1794
G1 X103.645 Y129.984 E1.18948
G1 X103.806 Y130.232 E1.19961
G1 X103.991 Y130.462 E1.20972
G1 X104.201 Y130.67 E1.21985
G1 X104.429 Y130.857 E1.22995
G1 X104.679 Y131.018 E1.24014
G1 X104.941 Y131.152 E1.25022
G1 X105.218 Y131.258 E1.26038
G1 X105.503 Y131.334 E1.27049
G1 X105.794 Y131.38 E1.28058
G1 X106.09 Y131.396 E1.29073
G1 X106.385 Y131.38 E1.30085
G0 F6000 X106.343 Y130.982
;TYPE:WALL-OUTER
G1 F900 X106.594 Y130.942 E1.30956
G1 X106.838 Y130.877 E1.31821
G1 X107.074 Y130.786 E1.32688
G1 X107.301 Y130.671 E1.33559
G1 X107.514 Y130.533 E1.34429
G1 X107.71 Y130.373 E1.35296
G1 X107.89 Y130.194 E1.36165
G1 X108.049 Y129.997 E1.37033
G1 X108.187 Y129.784 E1.37902
G1 X108.302 Y129.559 E1.38768
G1 X108.393 Y129.322 E1.39637
G1 X108.459 Y129.076 E1.4051
G1 X108.498 Y128.826 E1.41377
G1 X108.512 Y128.573 E1.42245
G1 X108.498 Y128.32 E1.43113
G1 X108.459 Y128.07 E1.4398
G1 X108.393 Y127.824 E1.44852
G1 X108.302 Y127.587 E1.45722
G1 X108.187 Y127.362 E1.46588
G1 X108.049 Y127.149 E1.47457
G1 X107.89 Y126.952 E1.48324
G1 X107.71 Y126.773 E1.49194
G1 X107.514 Y126.613 E1.50061
G1 X107.301 Y126.475 E1.5093
G1 X107.074 Y126.36 E1.51802
G1 X106.838 Y126.269 E1.52668
G1 X106.594 Y126.204 E1.53534
G1 X106.343 Y126.164 E1.54404
G1 X106.09 Y126.151 E1.55272
G1 X105.836 Y126.164 E1.56143
G1 X105.586 Y126.204 E1.57011
G1 X105.341 Y126.269 E1.57879
G1 X105.104 Y126.36 E1.58749
G1 X104.879 Y126.475 E1.59614
G1 X104.665 Y126.613 E1.60487
G1 X104.469 Y126.773 E1.61354
G1 X104.289 Y126.952 E1.62223
G1 X104.13 Y127.149 E1.6309
G1 X103.992 Y127.362 E1.6396
G1 X103.877 Y127.587 E1.64826
G1 X103.786 Y127.824 E1.65695
G1 X103.72 Y128.07 E1.66568
G1 X103.681 Y128.32 E1.67435
G1 X103.668 Y128.573 E1.68303
G1 X103.681 Y128.826 E1.6917
G1 X103.72 Y129.076 E1.70037
G1 X103.786 Y129.322 E1.7091
G1 X103.877 Y129.559 E1.71779
G1 X103.992 Y129.784 E1.72645
G1 X104.13 Y129.997 E1.73515
G1 X104.289 Y130.194 E1.74382
G1 X104.469 Y130.373 E1.75251
G1 X104.665 Y130.533 E1.76118
G1 X104.879 Y130.671 E1.76991
G1 X105.104 Y130.786 E1.77856
G1 X105.341 Y130.877 E1.78726
G1 X105.586 Y130.942 E1.79594
G1 X105.836 Y130.982 E1.80462
G1 X106.09 Y130.995 E1.81333
G1 X106.343 Y130.982 E1.82201
G0 F6000 X106.388 Y131.419
G1 F3600 E-4.17799
G1 F300 Z0.8
G0 F6000 X135.76 Y116.948 Z0.8
;TYPE:WALL-INNER
G1 F300 Z0.2
G1 F3600 E1.82201
G1 F900 X135.76 Y117.147 E1.82883
G1 X135.759 Y132.594 E2.35801
G1 X99.436 Y132.592 E3.60236
G1 X99.237 Y132.592 E3.60918
G1 X99.237 Y132.393 E3.61359
G1 X99.239 Y116.948 E4.1427
G1 X135.561 Y116.948 E5.38702
G1 X135.76 Y116.948 E5.39143
G0 F6000 X135.93 Y116.548
G1 F900 X136.098 Y116.548 E5.39718
G1 X136.098 Y95.734 E6.11023
G1 X99.039 Y95.734 E7.37979
G1 X98.84 Y95.734 E7.38661
G1 X98.84 Y95.535 E7.39102
G1 X98.841 Y89.206 E7.60784
G1 X136.162 Y89.209 E8.88638
G1 X136.162 Y95.734 E9.10991
G1 X136.161 Y116.548 E9.22339
G1 X136.161 Y116.716 E9.22744
G1 X136.159 Y132.994 E9.78509
G1 X99.036 Y132.992 E11.05685
G1 X98.837 Y132.992 E11.06366
G1 X98.837 Y132.793 E11.06808
G1 X98.839 Y116.548 E11.6246
G1 X135.93 Y116.548 E12.89526
G0 F6000 X135.698 Y116.148
;TYPE:WALL-OUTER
G1 F900 X135.698 Y96.134 E13.5809
G1 X98.696 Y96.134 E14.84851
G1 X98.696 Y116.148 E15.53415
G1 X135.698 Y116.148 E16.80176
G1 F3600 E10.80176
G1 F300 Z0.8
G0 F6000 X127.952 Y131.774 Z0.8
;TYPE:WALL-INNER
G1 F300 Z0.2
G1 F3600 E16.80176
G1 F900 X127.972 Y131.778 E16.80246
G1 X128.31 Y131.797 E16.81405
G1 X128.647 Y131.778 E16.82562
G1 X128.98 Y131.726 E16.83716
G1 X129.306 Y131.639 E16.84872
G1 X129.62 Y131.518 E16.86025
G1 X129.921 Y131.365 E16.87182
G1 X130.206 Y131.181 E16.88344
G1 X130.466 Y130.967 E16.89498
G1 X130.706 Y130.73 E16.90653
G1 X130.917 Y130.467 E16.91808
G1 X131.101 Y130.185 E16.92962
G1 X131.254 Y129.885 E16.94115
G1 X131.375 Y129.57 E16.95271
G1 X131.463 Y129.242 E16.96435
G1 X131.514 Y128.91 E16.97586
G1 X131.534 Y128.573 E16.98742
G1 X131.514 Y128.236 E16.99899
G1 X131.463 Y127.904 E17.01049
G1 X131.375 Y127.576 E17.02213
G1 X131.254 Y127.261 E17.03369
G1 X131.101 Y126.961 E17.04522
G1 X130.917 Y126.679 E17.05676
G1 X130.706 Y126.416 E17.06831
G1 X130.466 Y126.179 E17.07987
G1 X130.206 Y125.965 E17.0914
G1 X129.921 Y125.781 E17.10302
G1 X129.62 Y125.628 E17.11459
G1 X129.306 Y125.507 E17.12612
G1 X128.98 Y125.42 E17.13768
G1 X128.667 Y125.372 E17.14853
G1 X128.647 Y125.368 E17.14922
G1 X128.31 Y125.349 E17.16079
G1 X127.972 Y125.368 E17.17238
G1 X127.64 Y125.42 E17.1839
G1 X127.315 Y125.507 E17.19542
G1 X126.998 Y125.628 E17.20705
G1 X126.699 Y125.781 E17.21855
G1 X126.413 Y125.965 E17.2302
G1 X126.153 Y126.179 E17.24174
G1 X125.913 Y126.416 E17.25329
G1 X125.702 Y126.679 E17.26485
G1 X125.518 Y126.961 E17.27638
G1 X125.365 Y127.261 E17.28792
G1 X125.244 Y127.576 E17.29948
G1 X125.156 Y127.904 E17.31111
G1 X125.105 Y128.238 E17.32269
G1 X125.086 Y128.573 E17.33418
G1 X125.105 Y128.908 E17.34568
G1 X125.156 Y129.242 E17.35725
G1 X125.244 Y129.57 E17.36888
G1 X125.365 Y129.885 E17.38044
G1 X125.518 Y130.185 E17.39198
G1 X125.702 Y130.467 E17.40352
G1 X125.913 Y130.73 E17.41507
G1 X126.153 Y130.967 E17.42662
G1 X126.413 Y131.181 E17.43816
G1 X126.699 Y131.365 E17.44981
G1 X126.998 Y131.518 E17.46132
G1 X127.315 Y131.639 E17.47294
G1 X127.64 Y131.726 E17.48447
G1 X127.952 Y131.774 E17.49528
G0 F6000 X128.014 Y131.38
G1 F900 X128.31 Y131.396 E17.50544
G1 X128.605 Y131.38 E17.51556
G1 X128.897 Y131.334 E17.52568
G1 X129.182 Y131.258 E17.53579
G1 X129.457 Y131.152 E17.54588
G1 X129.721 Y131.018 E17.55603
G1 X129.97 Y130.857 E17.56618
G1 X130.198 Y130.67 E17.57629
G1 X130.408 Y130.462 E17.58641
G1 X130.593 Y130.232 E17.59652
G1 X130.754 Y129.984 E17.60665
G1 X130.888 Y129.722 E17.61673
G1 X130.994 Y129.446 E17.62686
G1 X131.071 Y129.159 E17.63704
G1 X131.116 Y128.868 E17.64713
G1 X131.133 Y128.573 E17.65725
G1 X131.116 Y128.278 E17.66738
G1 X131.071 Y127.987 E17.67746
G1 X130.994 Y127.7 E17.68764
G1 X130.888 Y127.424 E17.69777
G1 X130.754 Y127.162 E17.70785
G1 X130.593 Y126.914 E17.71798
G1 X130.408 Y126.684 E17.72809
G1 X130.198 Y126.476 E17.73822
G1 X129.97 Y126.289 E17.74832
G1 X129.721 Y126.128 E17.75848
G1 X129.457 Y125.994 E17.76862
G1 X129.182 Y125.888 E17.77872
G1 X128.897 Y125.812 E17.78882
G1 X128.605 Y125.766 E17.79895
G1 X128.31 Y125.75 E17.80907
G1 X128.014 Y125.766 E17.81923
G1 X127.723 Y125.812 E17.82932
G1 X127.438 Y125.888 E17.83942
G1 X127.161 Y125.994 E17.84958
G1 X126.899 Y126.128 E17.85967
G1 X126.649 Y126.289 E17.86985
G1 X126.421 Y126.476 E17.87996
G1 X126.211 Y126.684 E17.89008
G1 X126.026 Y126.914 E17.90019
G1 X125.865 Y127.162 E17.91032
G1 X125.731 Y127.424 E17.9204
G1 X125.625 Y127.7 E17.93053
G1 X125.548 Y127.987 E17.94071
G1 X125.503 Y128.279 E17.95083
G1 X125.487 Y128.573 E17.96092
G1 X125.503 Y128.867 E17.97101
G1 X125.548 Y129.159 E17.98113
G1 X125.625 Y129.446 E17.99131
G1 X125.731 Y129.722 E18.00144
G1 X125.865 Y129.984 E18.01152
G1 X126.026 Y130.232 E18.02165
G1 X126.211 Y130.462 E18.03176
G1 X126.421 Y130.67 E18.04188
G1 X126.649 Y130.857 E18.05199
G1 X126.899 Y131.018 E18.06217
G1 X127.161 Y131.152 E18.07225
G1 X127.438 Y131.258 E18.08242
G1 X127.723 Y131.334 E18.09252
G1 X128.014 Y131.38 E18.10261
G0 F6000 X128.056 Y130.982
;TYPE:WALL-OUTER
G1 F900 X128.31 Y130.995 E18.11133
G1 X128.563 Y130.982 E18.12
G1 X128.814 Y130.942 E18.12871
G1 X129.058 Y130.877 E18.13736
G1 X129.294 Y130.786 E18.14603
G1 X129.521 Y130.671 E18.15474
G1 X129.734 Y130.533 E18.16344
G1 X129.93 Y130.373 E18.17211
G1 X130.11 Y130.194 E18.1808
G1 X130.269 Y129.997 E18.18948
G1 X130.407 Y129.784 E18.19817
G1 X130.522 Y129.559 E18.20683
G1 X130.613 Y129.322 E18.21552
G1 X130.679 Y129.076 E18.22425
G1 X130.718 Y128.826 E18.23292
G1 X130.732 Y128.573 E18.2416
G1 X130.718 Y128.32 E18.25028
G1 X130.679 Y128.07 E18.25895
G1 X130.613 Y127.824 E18.26767
G1 X130.522 Y127.587 E18.27637
G1 X130.407 Y127.362 E18.28503
G1 X130.269 Y127.149 E18.29372
G1 X130.11 Y126.952 E18.30239
G1 X129.93 Y126.773 E18.31109
G1 X129.734 Y126.613 E18.31976
G1 X129.521 Y126.475 E18.32845
G1 X129.294 Y126.36 E18.33717
G1 X129.058 Y126.269 E18.34583
G1 X128.814 Y126.204 E18.35449
G1 X128.563 Y126.164 E18.36319
G1 X128.31 Y126.151 E18.37187
G1 X128.056 Y126.164 E18.38058
G1 X127.806 Y126.204 E18.38926
G1 X127.561 Y126.269 E18.39794
G1 X127.324 Y126.36 E18.40664
G1 X127.099 Y126.475 E18.41529
G1 X126.885 Y126.613 E18.42402
G1 X126.689 Y126.773 E18.43269
G1 X126.509 Y126.952 E18.44138
G1 X126.35 Y127.149 E18.45005
G1 X126.212 Y127.362 E18.45875
G1 X126.097 Y127.587 E18.46741
G1 X126.006 Y127.824 E18.4761
G1 X125.94 Y128.07 E18.48483
G1 X125.901 Y128.32 E18.4935
G1 X125.888 Y128.573 E18.50218
G1 X125.901 Y128.826 E18.51085
G1 X125.94 Y129.076 E18.51952
G1 X126.006 Y129.322 E18.52825
G1 X126.097 Y129.559 E18.53694
G1 X126.212 Y129.784 E18.5456
G1 X126.35 Y129.997 E18.5543
G1 X126.509 Y130.194 E18.56297
G1 X126.689 Y130.373 E18.57166
G1 X126.885 Y130.533 E18.58033
G1 X127.099 Y130.671 E18.58906
G1 X127.324 Y130.786 E18.59771
G1 X127.561 Y130.877 E18.60641
G1 X127.806 Y130.942 E18.61509
G1 X128.056 Y130.982 E18.62377
G0 F6000 X128.01 Y131.419
G1 F3600 E12.62377
G1 F300 Z0.8
G0 F6000 X117.2 Y131.797 Z0.8
;TYPE:WALL-INNER
G1 F300 Z0.2
G1 F3600 E18.62377
G1 F900 X117.537 Y131.778 E18.63533
G1 X117.87 Y131.726 E18.64688
G1 X118.196 Y131.639 E18.65843
G1 X118.51 Y131.518 E18.66996
G1 X118.811 Y131.365 E18.68153
G1 X119.096 Y131.181 E18.69315
G1 X119.356 Y130.967 E18.70469
G1 X119.596 Y130.73 E18.71624
G1 X119.807 Y130.467 E18.72779
G1 X119.991 Y130.185 E18.73933
G1 X120.144 Y129.885 E18.75087
G1 X120.265 Y129.57 E18.76243
G1 X120.353 Y129.242 E18.77406
G1 X120.404 Y128.91 E18.78557
G1 X120.424 Y128.573 E18.79713
G1 X120.404 Y128.236 E18.8087
G1 X120.353 Y127.904 E18.8202
G1 X120.265 Y127.576 E18.83184
G1 X120.144 Y127.261 E18.8434
G1 X119.991 Y126.961 E18.85494
G1 X119.807 Y126.679 E18.86647
G1 X119.596 Y126.416 E18.87802
G1 X119.356 Y126.179 E18.88958
G1 X119.096 Y125.965 E18.90111
G1 X118.811 Y125.781 E18.91273
G1 X118.51 Y125.628 E18.9243
G1 X118.196 Y125.507 E18.93583
G1 X117.87 Y125.42 E18.94739
G1 X117.557 Y125.372 E18.95824
G1 X117.537 Y125.368 E18.95894
G1 X117.2 Y125.349 E18.9705
G1 X116.862 Y125.368 E18.9821
G1 X116.53 Y125.42 E18.99361
G1 X116.205 Y125.507 E19.00513
G1 X115.888 Y125.628 E19.01676
G1 X115.589 Y125.781 E19.02826
G1 X115.303 Y125.965 E19.03992
G1 X115.043 Y126.179 E19.05145
G1 X114.803 Y126.416 E19.06301
G1 X114.592 Y126.679 E19.07456
G1 X114.408 Y126.961 E19.08609
G1 X114.255 Y127.261 E19.09763
G1 X114.134 Y127.576 E19.10919
G1 X114.046 Y127.904 E19.12082
G1 X113.995 Y128.238 E19.1324
G1 X113.976 Y128.573 E19.14389
G1 X113.995 Y128.908 E19.15539
G1 X114.046 Y129.242 E19.16696
G1 X114.134 Y129.57 E19.1786
G1 X114.255 Y129.885 E19.19016
G1 X114.408 Y130.185 E19.20169
G1 X114.592 Y130.467 E19.21323
G1 X114.803 Y130.73 E19.22478
G1 X115.043 Y130.967 E19.23634
G1 X115.303 Y131.181 E19.24787
G1 X115.589 Y131.365 E19.25952
G1 X115.888 Y131.518 E19.27103
G1 X116.205 Y131.639 E19.28265
G1 X116.53 Y131.726 E19.29418
G1 X116.842 Y131.774 E19.30499
G1 X116.862 Y131.778 E19.30569
G1 X117.2 Y131.797 E19.31729
G0 F6000 X117.2 Y131.396
G1 F900 X117.495 Y131.38 E19.32741
G1 X117.787 Y131.334 E19.33754
G1 X118.072 Y131.258 E19.34764
G1 X118.347 Y131.152 E19.35774
G1 X118.611 Y131.018 E19.36788
G1 X118.86 Y130.857 E19.37804
G1 X119.088 Y130.67 E19.38814
G1 X119.298 Y130.462 E19.39827
G1 X119.483 Y130.232 E19.40838
G1 X119.644 Y129.984 E19.41851
