;FLAVOR:Marlin
;TIME:900
;Filament used: 0.645647m
;Layer height: 0.2
;MINX:97.904
;MINY:97.422
;MINZ:0.2
;MAXX:137.096
;MAXY:143.078
;MAXZ:6
;Generated with Cura_SteamEngine 4.6.1
M82 ;absolute extrusion mode
M201 X500.00 Y500.00 Z100.00 E5000.00 ;Setup machine max acceleration
M203 X500.00 Y500.00 Z10.00 E50.00 ;Setup machine max feedrate
M204 P500.00 R1000.00 T500.00 ;Setup Print/Retract/Travel acceleration
M205 X8.00 Y8.00 Z0.40 E5.00 ;Setup Jerk
M220 S100 ;Reset Feedrate
M221 S100 ;Reset Flowrate

M104 S205.0 ; set extruder temp
M140 S55.0 ; set bed temp

G28;
M420 S1 ; enable mesh bed leveling positions
G29 S0; Reading bed leveling values
G0 X4.0 Y4.0 Z20 F7200 ; Move to a position in the left front of the bed

M190 S55.0 ; wait for bed temp
M109 S205.0 ; wait for extruder temp
M300 S2600 P200; Beep


G92 E0 ;Reset Extruder
G1 X4.0 Y4.0 F7200 ; Move to a position in the left front of the bed
G1 Z0.2; Move nozzle above 0.3 mm of the bed
G91 ; Use relative mode
G1 Z1.0 Y200;
G1 Z-1.0;
G1 Y-190 E40 F1000 ; print line left side
G0 Z10.0
G92 E0 ; Set extrusion distance to 0
G90 ; switch back to absolute mode
G92 E0
G92 E0
G1 F3600 E-6
;LAYER_COUNT:27
;LAYER:0
M107
G1 F300 Z0.8
;MESH:case_back_stripped.stl
G0 F6000 X98.72 Y142.262 Z0.8
;TYPE:WALL-INNER
G1 F300 Z0.2
G1 F3600 E0
G1 F900 X136.28 Y142.262 E1.28673
G1 X136.28 Y98.238 E2.7949
G1 X98.72 Y98.238 E4.08163
G1 X98.72 Y142.262 E5.5898
G0 F6000 X99.12 Y141.862
;TYPE:WALL-OUTER
G1 F900 X135.88 Y141.862 E6.84912
G1 X135.88 Y98.638 E8.32989
G1 X99.12 Y98.638 E9.58921
G1 X99.12 Y141.862 E11.06997
G0 F6000 X98.659 Y142.673
;TYPE:WALL-INNER
G1 F900 X98.6 Y142.66 E11.07204
G1 X98.548 Y142.641 E11.07394
G1 X98.492 Y142.611 E11.07612
G1 X98.453 Y142.582 E11.07778
G1 X98.405 Y142.535 E11.08008
G1 X98.373 Y142.492 E11.08192
G1 X98.341 Y142.435 E11.08416
G1 X98.324 Y142.388 E11.08587
G1 X98.31 Y142.324 E11.08811
G1 X98.304 Y142.25 E11.09066
G1 X98.309 Y98.177 E12.60051
G1 X98.322 Y98.118 E12.60258
G1 X98.341 Y98.066 E12.60447
G1 X98.371 Y98.01 E12.60665
G1 X98.4 Y97.971 E12.60832
G1 X98.447 Y97.923 E12.61062
G1 X98.49 Y97.891 E12.61245
G1 X98.547 Y97.859 E12.61469
G1 X98.594 Y97.842 E12.61641
G1 X98.658 Y97.828 E12.61865
G1 X98.733 Y97.822 E12.62123
G1 X136.341 Y97.827 E13.9096
G1 X136.452 Y97.859 E13.91356
G1 X136.508 Y97.889 E13.91573
G1 X136.547 Y97.918 E13.9174
G1 X136.595 Y97.965 E13.9197
G1 X136.627 Y98.008 E13.92154
G1 X136.659 Y98.065 E13.92378
G1 X136.676 Y98.112 E13.92549
G1 X136.69 Y98.176 E13.92773
G1 X136.696 Y98.25 E13.93028
G1 X136.691 Y142.323 E15.44013
G1 X136.679 Y142.379 E15.44209
G1 X136.659 Y142.434 E15.44409
G1 X136.629 Y142.49 E15.44627
G1 X136.6 Y142.529 E15.44793
G1 X136.553 Y142.577 E15.45024
G1 X136.51 Y142.609 E15.45207
G1 X136.453 Y142.641 E15.45431
G1 X136.406 Y142.658 E15.45602
G1 X136.342 Y142.672 E15.45827
G1 X136.267 Y142.678 E15.46084
G1 X98.659 Y142.673 E16.74922
G0 F6000 X98.603 Y143.07
;TYPE:WALL-OUTER
G1 F900 X98.487 Y143.045 E16.75328
G1 X98.383 Y143.007 E16.75708
G1 X98.282 Y142.953 E16.761
G1 X98.187 Y142.882 E16.76506
G1 X98.105 Y142.801 E16.76901
G1 X98.036 Y142.708 E16.77298
G1 X97.978 Y142.604 E16.77706
G1 X97.938 Y142.498 E16.78094
G1 X97.913 Y142.384 E16.78494
G1 X97.904 Y142.268 E16.78892
G1 X97.904 Y98.232 E18.29751
G1 X97.912 Y98.121 E18.30132
G1 X97.937 Y98.005 E18.30538
G1 X97.975 Y97.901 E18.30918
G1 X98.029 Y97.8 E18.3131
G1 X98.1 Y97.705 E18.31716
G1 X98.181 Y97.623 E18.32111
G1 X98.274 Y97.554 E18.32508
G1 X98.378 Y97.496 E18.32916
G1 X98.484 Y97.456 E18.33304
G1 X98.598 Y97.431 E18.33704
G1 X98.716 Y97.422 E18.34109
G1 X136.284 Y97.422 E19.62809
G1 X136.397 Y97.43 E19.63197
G1 X136.513 Y97.455 E19.63604
G1 X136.617 Y97.493 E19.63983
G1 X136.718 Y97.547 E19.64376
G1 X136.813 Y97.618 E19.64782
G1 X136.895 Y97.699 E19.65177
G1 X136.964 Y97.792 E19.65574
G1 X137.022 Y97.896 E19.65981
G1 X137.062 Y98.002 E19.6637
G1 X137.087 Y98.116 E19.66769
G1 X137.096 Y98.232 E19.67168
G1 X137.096 Y142.268 E21.18026
G1 X137.088 Y142.379 E21.18408
G1 X137.063 Y142.495 E21.18814
G1 X137.025 Y142.599 E21.19193
G1 X136.971 Y142.7 E21.19586
G1 X136.9 Y142.795 E21.19992
G1 X136.819 Y142.877 E21.20387
G1 X136.726 Y142.946 E21.20784
G1 X136.622 Y143.004 E21.21192
G1 X136.516 Y143.044 E21.2158
G1 X136.402 Y143.069 E21.21979
G1 X136.284 Y143.078 E21.22385
G1 X98.716 Y143.078 E22.51085
G1 X98.603 Y143.07 E22.51473
M104 S205
G0 F6000 X98.665 Y142.635
;MESH:NONMESH
G0 F300 X98.665 Y142.635 Z0.4
G0 F6000 X98.72 Y142.262
;TIME_ELAPSED:48.564666
;LAYER:1
M140 S45
M106 S127.5
;TYPE:WALL-INNER
;MESH:case_back_stripped.stl
G1 F1200 X136.28 Y142.262 E23.80146
G1 X136.28 Y98.238 E25.30963
G1 X98.72 Y98.238 E26.59636
G1 X98.72 Y142.262 E28.10453
G0 F9000 X99.12 Y141.862
;TYPE:WALL-OUTER
G1 F1200 X135.88 Y141.862 E29.36385
G1 X135.88 Y98.638 E30.84462
G1 X99.12 Y98.638 E32.10394
G1 X99.12 Y141.862 E33.58471
G1 F3600 E27.58471
G1 F300 Z1
G0 F9000 X136.346 Y142.672 Z1
;TYPE:WALL-INNER
G1 F300 Z0.4
G1 F3600 E33.58471
G1 F1200 X136.266 Y142.678 E33.58745
G1 X98.734 Y142.678 E34.87322
G1 X98.655 Y142.672 E34.87594
G1 X98.607 Y142.662 E34.87762
G1 X98.548 Y142.641 E34.87976
G1 X98.503 Y142.617 E34.88151
G1 X98.45 Y142.579 E34.88374
G1 X98.411 Y142.541 E34.88561
G1 X98.372 Y142.49 E34.88781
G1 X98.344 Y142.441 E34.88974
G1 X98.322 Y142.381 E34.89193
G1 X98.31 Y142.328 E34.89379
G1 X98.304 Y142.25 E34.89647
G1 X98.304 Y98.25 E36.40382
G1 X98.31 Y98.173 E36.40647
G1 X98.32 Y98.125 E36.40815
G1 X98.339 Y98.072 E36.41008
G1 X98.369 Y98.015 E36.41228
G1 X98.404 Y97.967 E36.41432
G1 X98.441 Y97.929 E36.41614
G1 X98.492 Y97.89 E36.41833
G1 X98.541 Y97.862 E36.42027
G1 X98.601 Y97.84 E36.42246
G1 X98.654 Y97.828 E36.42432
G1 X98.734 Y97.822 E36.42707
G1 X136.266 Y97.822 E37.71284
G1 X136.345 Y97.828 E37.71555
G1 X136.452 Y97.859 E37.71937
G1 X136.496 Y97.882 E37.72107
G1 X136.554 Y97.924 E37.72352
G1 X136.586 Y97.955 E37.72505
G1 X136.628 Y98.01 E37.72742
G1 X136.656 Y98.059 E37.72935
G1 X136.678 Y98.118 E37.73151
G1 X136.69 Y98.172 E37.7334
G1 X136.696 Y98.25 E37.73608
G1 X136.696 Y142.25 E39.24343
G1 X136.69 Y142.327 E39.24608
G1 X136.68 Y142.375 E39.24776
G1 X136.659 Y142.434 E39.2499
G1 X136.635 Y142.479 E39.25165
G1 X136.597 Y142.532 E39.25388
G1 X136.559 Y142.571 E39.25575
G1 X136.508 Y142.61 E39.25795
G1 X136.459 Y142.638 E39.25988
G1 X136.399 Y142.66 E39.26207
G1 X136.346 Y142.672 E39.26393
G0 F9000 X136.401 Y143.069
;TYPE:WALL-OUTER
G1 F1200 X136.284 Y143.078 E39.26795
G1 X98.716 Y143.078 E40.55496
G1 X98.6 Y143.069 E40.55894
G1 X98.502 Y143.049 E40.56237
G1 X98.389 Y143.009 E40.56648
G1 X98.291 Y142.957 E40.57028
G1 X98.188 Y142.882 E40.57464
G1 X98.113 Y142.81 E40.5782
G1 X98.039 Y142.712 E40.58241
G1 X97.979 Y142.607 E40.58655
G1 X97.939 Y142.5 E40.59047
G1 X97.913 Y142.383 E40.59457
G1 X97.904 Y142.268 E40.59852
G1 X97.904 Y98.232 E42.10711
G1 X97.913 Y98.118 E42.11102
G1 X97.933 Y98.02 E42.11445
G1 X97.973 Y97.907 E42.11856
G1 X98.027 Y97.805 E42.12251
G1 X98.1 Y97.706 E42.12672
G1 X98.172 Y97.631 E42.13029
G1 X98.27 Y97.557 E42.13449
G1 X98.375 Y97.497 E42.13864
G1 X98.482 Y97.457 E42.14255
G1 X98.599 Y97.431 E42.14665
G1 X98.716 Y97.422 E42.15067
G1 X136.284 Y97.422 E43.43768
G1 X136.4 Y97.431 E43.44166
G1 X136.498 Y97.451 E43.44509
G1 X136.611 Y97.491 E43.4492
G1 X136.709 Y97.543 E43.453
G1 X136.81 Y97.616 E43.45727
G1 X136.887 Y97.69 E43.46092
G1 X136.961 Y97.788 E43.46513
G1 X137.021 Y97.893 E43.46927
G1 X137.061 Y98 E43.47319
G1 X137.087 Y98.117 E43.47729
G1 X137.096 Y98.232 E43.48125
G1 X137.096 Y142.268 E44.98983
G1 X137.087 Y142.382 E44.99375
G1 X137.067 Y142.48 E44.99717
G1 X137.027 Y142.593 E45.00128
G1 X136.975 Y142.691 E45.00508
G1 X136.9 Y142.794 E45.00944
G1 X136.828 Y142.869 E45.01301
G1 X136.73 Y142.943 E45.01721
G1 X136.625 Y143.003 E45.02136
G1 X136.518 Y143.043 E45.02527
G1 X136.401 Y143.069 E45.02937
G0 F9000 X136.337 Y142.634
G1 F3600 E39.02937
G1 F300 Z1
;MESH:NONMESH
G0 F9000 X98.72 Y142.262 Z1
;TIME_ELAPSED:83.344705
;LAYER:2
M106 S255
;MESH:case_back_stripped.stl
G0 F12000 X98.72 Y142.262 Z1.2
;TYPE:WALL-INNER
G1 F300 Z0.6
G1 F3600 E45.02937
G1 F1500 X136.28 Y142.262 E46.3161
G1 X136.28 Y98.238 E47.82427
G1 X98.72 Y98.238 E49.111
G1 X98.72 Y142.262 E50.61917
G0 F12000 X99.12 Y141.862
;TYPE:WALL-OUTER
G1 F1500 X135.88 Y141.862 E51.8785
G1 X135.88 Y98.638 E53.35926
G1 X99.12 Y98.638 E54.61858
G1 X99.12 Y141.862 E56.09935
G1 F3600 E50.09935
G1 F300 Z1.2
G0 F12000 X136.345 Y142.672 Z1.2
;TYPE:WALL-INNER
G1 F300 Z0.6
G1 F3600 E56.09935
G1 F1500 X136.267 Y142.678 E56.10203
G1 X98.734 Y142.678 E57.38783
G1 X98.658 Y142.672 E57.39044
G1 X98.613 Y142.663 E57.39202
G1 X98.555 Y142.643 E57.39412
G1 X98.509 Y142.62 E57.39588
G1 X98.451 Y142.578 E57.39833
G1 X98.408 Y142.538 E57.40034
G1 X98.374 Y142.494 E57.40225
G1 X98.347 Y142.446 E57.40414
G1 X98.322 Y142.382 E57.40649
G1 X98.31 Y142.327 E57.40842
G1 X98.304 Y142.25 E57.41106
G1 X98.304 Y98.25 E58.91841
G1 X98.31 Y98.176 E58.92096
G1 X98.319 Y98.131 E58.92253
G1 X98.339 Y98.073 E58.92463
G1 X98.363 Y98.026 E58.92644
G1 X98.404 Y97.969 E58.92884
G1 X98.443 Y97.927 E58.93081
G1 X98.492 Y97.889 E58.93293
G1 X98.536 Y97.865 E58.93465
G1 X98.6 Y97.84 E58.937
G1 X98.655 Y97.828 E58.93893
G1 X98.733 Y97.822 E58.94161
G1 X136.266 Y97.822 E60.22741
G1 X136.342 Y97.828 E60.23003
G1 X136.445 Y97.857 E60.23369
G1 X136.491 Y97.88 E60.23545
G1 X136.549 Y97.922 E60.23791
G1 X136.592 Y97.962 E60.23992
G1 X136.626 Y98.006 E60.24182
G1 X136.653 Y98.054 E60.24371
G1 X136.677 Y98.116 E60.24599
G1 X136.69 Y98.173 E60.24799
G1 X136.696 Y98.25 E60.25064
G1 X136.696 Y142.25 E61.75799
G1 X136.69 Y142.324 E61.76053
G1 X136.681 Y142.369 E61.7621
G1 X136.661 Y142.427 E61.7642
G1 X136.638 Y142.473 E61.76597
G1 X136.596 Y142.531 E61.76842
G1 X136.556 Y142.574 E61.77043
G1 X136.512 Y142.608 E61.77234
G1 X136.464 Y142.635 E61.77422
G1 X136.4 Y142.66 E61.77658
G1 X136.345 Y142.672 E61.7785
G0 F12000 X136.402 Y143.069
;TYPE:WALL-OUTER
G1 F1500 X136.284 Y143.078 E61.78256
G1 X98.716 Y143.078 E63.06956
G1 X98.599 Y143.069 E63.07358
G1 X98.508 Y143.05 E63.07677
G1 X98.402 Y143.014 E63.0806
G1 X98.3 Y142.962 E63.08452
G1 X98.197 Y142.888 E63.08887
G1 X98.109 Y142.805 E63.09301
G1 X98.04 Y142.717 E63.09684
G1 X97.985 Y142.618 E63.10072
G1 X97.939 Y142.499 E63.10509
G1 X97.913 Y142.384 E63.10913
G1 X97.904 Y142.268 E63.11312
G1 X97.904 Y98.232 E64.6217
G1 X97.913 Y98.117 E64.62565
G1 X97.932 Y98.026 E64.62884
G1 X97.968 Y97.92 E64.63267
G1 X98.02 Y97.818 E64.63659
G1 X98.094 Y97.715 E64.64094
G1 X98.177 Y97.627 E64.64508
G1 X98.267 Y97.557 E64.64899
G1 X98.364 Y97.503 E64.65279
G1 X98.483 Y97.457 E64.65716
G1 X98.598 Y97.431 E64.6612
G1 X98.716 Y97.422 E64.66526
G1 X136.284 Y97.422 E65.95226
G1 X136.401 Y97.431 E65.95628
G1 X136.492 Y97.45 E65.95946
G1 X136.598 Y97.486 E65.9633
G1 X136.7 Y97.538 E65.96722
G1 X136.803 Y97.612 E65.97157
G1 X136.891 Y97.695 E65.97571
G1 X136.96 Y97.783 E65.97954
G1 X137.015 Y97.882 E65.98342
G1 X137.061 Y98.001 E65.98779
G1 X137.087 Y98.116 E65.99183
G1 X137.096 Y98.232 E65.99582
G1 X137.096 Y142.268 E67.5044
G1 X137.087 Y142.383 E67.50835
G1 X137.068 Y142.474 E67.51153
G1 X137.032 Y142.58 E67.51537
G1 X136.98 Y142.682 E67.51929
G1 X136.906 Y142.785 E67.52364
G1 X136.823 Y142.873 E67.52778
G1 X136.735 Y142.942 E67.53161
G1 X136.636 Y142.997 E67.53549
G1 X136.517 Y143.043 E67.53986
G1 X136.402 Y143.069 E67.5439
G0 F12000 X136.337 Y142.634
G1 F3600 E61.5439
G1 F300 Z1.2
;MESH:NONMESH
G0 F12000 X98.72 Y142.262 Z1.2
;TIME_ELAPSED:111.887742
;LAYER:3
;MESH:case_back_stripped.stl
G0 X98.72 Y142.262 Z1.4
;TYPE:WALL-INNER
G1 F300 Z0.8
G1 F3600 E67.5439
G1 F1500 X136.28 Y142.262 E68.83063
G1 X136.28 Y98.238 E70.3388
G1 X98.72 Y98.238 E71.62553
G1 X98.72 Y142.262 E73.1337
G0 F12000 X99.12 Y141.862
;TYPE:WALL-OUTER
G1 F1500 X135.88 Y141.862 E74.39302
G1 X135.88 Y98.638 E75.87379
G1 X99.12 Y98.638 E77.13311
G1 X99.12 Y141.862 E78.61387
G1 F3600 E72.61387
G1 F300 Z1.4
G0 F12000 X136.442 Y142.644 Z1.4
;TYPE:WALL-INNER
G1 F300 Z0.8
G1 F3600 E78.61387
G1 F1500 X136.351 Y142.671 E78.61713
G1 X136.262 Y142.678 E78.62018
G1 X98.737 Y142.678 E79.90571
G1 X98.649 Y142.671 E79.90874
G1 X98.6 Y142.66 E79.91046
G1 X98.539 Y142.636 E79.9127
G1 X98.484 Y142.606 E79.91485
G1 X98.445 Y142.575 E79.91656
G1 X98.382 Y142.507 E79.91973
G1 X98.338 Y142.424 E79.92295
G1 X98.311 Y142.333 E79.9262
G1 X98.304 Y142.246 E79.92919
G1 X98.31 Y98.173 E81.43904
G1 X98.323 Y98.115 E81.44108
G1 X98.346 Y98.057 E81.44322
G1 X98.376 Y98.002 E81.44536
G1 X98.407 Y97.963 E81.44707
G1 X98.475 Y97.9 E81.45025
G1 X98.558 Y97.856 E81.45346
G1 X98.649 Y97.829 E81.45672
G1 X98.738 Y97.822 E81.45977
G1 X136.314 Y97.826 E82.74705
G1 X136.4 Y97.84 E82.75004
G1 X136.461 Y97.864 E82.75228
G1 X136.516 Y97.894 E82.75443
G1 X136.555 Y97.925 E82.75613
G1 X136.618 Y97.993 E82.75931
G1 X136.662 Y98.076 E82.76253
G1 X136.688 Y98.163 E82.76564
G1 X136.696 Y98.254 E82.76877
G1 X136.691 Y142.323 E84.27848
G1 X136.678 Y142.382 E84.28055
G1 X136.654 Y142.443 E84.2828
G1 X136.624 Y142.497 E84.28491
G1 X136.595 Y142.534 E84.28652
G1 X136.525 Y142.6 E84.28982
G1 X136.442 Y142.644 E84.29304
G0 F12000 X136.599 Y143.014
;TYPE:WALL-OUTER
G1 F1500 X136.477 Y143.053 E84.29743
G1 X136.403 Y143.068 E84.30001
G1 X136.283 Y143.078 E84.30414
G1 X98.717 Y143.078 E85.59107
G1 X98.594 Y143.068 E85.5953
G1 X98.482 Y143.043 E85.59923
G1 X98.365 Y142.998 E85.60352
G1 X98.262 Y142.94 E85.60757
G1 X98.172 Y142.868 E85.61152
G1 X98.082 Y142.774 E85.61598
G1 X98.045 Y142.724 E85.61811
G1 X97.968 Y142.581 E85.62368
G1 X97.929 Y142.459 E85.62806
G1 X97.914 Y142.385 E85.63065
G1 X97.904 Y142.268 E85.63467
G1 X97.908 Y98.177 E87.14514
G1 X97.914 Y98.112 E87.14738
G1 X97.939 Y98 E87.15131
G1 X97.984 Y97.883 E87.1556
G1 X98.042 Y97.78 E87.15965
G1 X98.114 Y97.69 E87.1636
G1 X98.208 Y97.6 E87.16806
G1 X98.258 Y97.563 E87.17019
G1 X98.401 Y97.486 E87.17575
G1 X98.523 Y97.447 E87.18014
G1 X98.597 Y97.432 E87.18273
G1 X98.717 Y97.422 E87.18685
G1 X136.336 Y97.426 E88.4756
G1 X136.406 Y97.432 E88.47801
G1 X136.518 Y97.457 E88.48194
G1 X136.635 Y97.502 E88.48623
G1 X136.738 Y97.56 E88.49028
G1 X136.828 Y97.632 E88.49423
G1 X136.918 Y97.726 E88.49869
G1 X136.955 Y97.776 E88.50082
G1 X137.032 Y97.919 E88.50639
G1 X137.071 Y98.041 E88.51077
G1 X137.086 Y98.115 E88.51336
G1 X137.096 Y98.232 E88.51738
G1 X137.092 Y142.323 E90.02785
G1 X137.086 Y142.388 E90.03009
G1 X137.061 Y142.5 E90.03402
G1 X137.016 Y142.617 E90.03831
G1 X136.958 Y142.72 E90.04236
G1 X136.886 Y142.81 E90.04631
G1 X136.792 Y142.9 E90.05077
G1 X136.742 Y142.937 E90.0529
G1 X136.599 Y143.014 E90.05846
G0 F12000 X136.427 Y142.61
G1 F3600 E84.05846
G1 F300 Z1.4
;MESH:NONMESH
G0 F12000 X98.72 Y142.262 Z1.4
;TIME_ELAPSED:140.432207
;LAYER:4
;MESH:case_back_stripped.stl
G0 X98.72 Y142.262 Z1.6
;TYPE:WALL-INNER
G1 F300 Z1
G1 F3600 E90.05846
G1 F1500 X136.28 Y142.262 E91.34519
G1 X136.28 Y98.238 E92.85336
G1 X98.72 Y98.238 E94.14009
G1 X98.72 Y142.262 E95.64826
G0 F12000 X99.12 Y141.862
;TYPE:WALL-OUTER
G1 F1500 X135.88 Y141.862 E96.90758
G1 X135.88 Y98.638 E98.38835
G1 X99.12 Y98.638 E99.64767
G1 X99.12 Y141.862 E101.12844
G0 F12000 X98.65 Y142.671
;TYPE:WALL-INNER
G1 F1500 X98.6 Y142.66 E101.13019
G1 X98.534 Y142.634 E101.13262
G1 X98.492 Y142.61 E101.13428
G1 X98.413 Y142.543 E101.13783
G1 X98.381 Y142.503 E101.13958
G1 X98.345 Y142.442 E101.14201
G1 X98.324 Y142.387 E101.14402
G1 X98.311 Y142.328 E101.14609
G1 X98.304 Y142.246 E101.14891
G1 X98.314 Y98.155 E102.65938
G1 X98.322 Y98.118 E102.66068
G1 X98.348 Y98.052 E102.66311
G1 X98.372 Y98.01 E102.66476
G1 X98.439 Y97.931 E102.66831
G1 X98.479 Y97.899 E102.67007
G1 X98.54 Y97.863 E102.67249
G1 X98.594 Y97.843 E102.67447
G1 X98.654 Y97.829 E102.67658
G1 X98.738 Y97.822 E102.67946
G1 X136.312 Y97.827 E103.96667
G1 X136.413 Y97.845 E103.97019
G1 X136.466 Y97.866 E103.97214
G1 X136.514 Y97.894 E103.97404
G1 X136.567 Y97.936 E103.97636
G1 X136.617 Y97.994 E103.97898
G1 X136.655 Y98.058 E103.98153
G1 X136.675 Y98.112 E103.98351
G1 X136.689 Y98.172 E103.98562
