;FLAVOR:Marlin
;TIME:5155
;Filament used: 3.79852m
;Layer height: 0.2
;MINX:85.784
;MINY:78.827
;MINZ:0.2
;MAXX:149.216
;MAXY:162.459
;MAXZ:3.2
;Generated with Cura_SteamEngine 4.6.1
M82 ;absolute extrusion mode
M201 X500.00 Y500.00 Z100.00 E5000.00 ;Setup machine max acceleration
M203 X500.00 Y500.00 Z10.00 E50.00 ;Setup machine max feedrate
M204 P500.00 R1000.00 T500.00 ;Setup Print/Retract/Travel acceleration
M205 X8.00 Y8.00 Z0.40 E5.00 ;Setup Jerk
M220 S100 ;Reset Feedrate
M221 S100 ;Reset Flowrate

M104 S205.0 ; set extruder temp
M140 S55.0 ; set bed temp

G28;
M420 S1 ; enable mesh bed leveling positions
G29 S0; Reading bed leveling values
G0 X4.0 Y4.0 Z20 F7200 ; Move to a position in the left front of the bed

M190 S55.0 ; wait for bed temp
M109 S205.0 ; wait for extruder temp
M300 S2600 P200; Beep


G92 E0 ;Reset Extruder
G1 X4.0 Y4.0 F7200 ; Move to a position in the left front of the bed
G1 Z0.2; Move nozzle above 0.3 mm of the bed
G91 ; Use relative mode
G1 Z1.0 Y200;
G1 Z-1.0;
G1 Y-190 E40 F1000 ; print line left side
G0 Z10.0
G92 E0 ; Set extrusion distance to 0
G90 ; switch back to absolute mode
G92 E0
G92 E0
G1 F3600 E-6
;LAYER_COUNT:13
;LAYER:0
M107
G1 F300 Z0.8
;MESH:Case upper_v1.stl
G0 F6000 X88.584 Y159.659 Z0.8
;TYPE:WALL-INNER
G1 F300 Z0.2
G1 F3600 E0
G1 F900 X88.584 Y81.627 E2.67322
G1 X146.416 Y81.627 E4.65442
G1 X146.416 Y159.659 E7.32764
G1 X88.584 Y159.659 E9.30884
G0 F6000 X88.184 Y160.059
G1 F900 X88.184 Y81.227 E12.00946
G1 X146.816 Y81.227 E14.01807
G1 X146.816 Y160.059 E16.7187
G1 X88.184 Y160.059 E18.72731
G0 F6000 X87.784 Y160.459
G1 F900 X87.784 Y80.827 E21.45534
G1 X147.216 Y80.827 E23.49135
G1 X147.216 Y160.459 E26.21938
G1 X87.784 Y160.459 E28.2554
G0 F6000 X87.384 Y160.859
G1 F900 X87.384 Y80.427 E31.01083
G1 X147.616 Y80.427 E33.07426
G1 X147.616 Y160.859 E35.82969
G1 X87.384 Y160.859 E37.89312
G0 F6000 X86.984 Y161.259
G1 F900 X86.984 Y80.027 E40.67596
G1 X148.016 Y80.027 E42.76679
G1 X148.016 Y161.259 E45.54963
G1 X86.984 Y161.259 E47.64046
G0 F6000 X86.584 Y161.659
G1 F900 X86.584 Y79.627 E50.45071
G1 X148.416 Y79.627 E52.56894
G1 X148.416 Y161.659 E55.37919
G1 X86.584 Y161.659 E57.49743
G0 F6000 X86.184 Y162.059
G1 F900 X86.184 Y79.227 E60.33508
G1 X148.816 Y79.227 E62.48073
G1 X148.816 Y162.059 E65.31838
G1 X86.184 Y162.059 E67.46402
G0 F6000 X85.784 Y162.459
;TYPE:WALL-OUTER
G1 F900 X85.784 Y78.827 E70.32908
G1 X149.216 Y78.827 E72.50213
G1 X149.216 Y162.459 E75.36719
G1 X85.784 Y162.459 E77.54024
G1 F3600 E71.54024
G1 F300 Z0.8
G0 F6000 X88.974 Y159.269 Z0.8
;TYPE:SKIN
G1 F300 Z0.2
G1 F3600 E77.54024
G1 F900 X88.974 Y82.017 E80.18674
G1 X146.026 Y82.017 E82.14122
G1 X146.026 Y159.269 E84.78771
G1 X88.974 Y159.269 E86.7422
G0 F6000 X89.528 Y159.108
G1 F900 X89.133 Y158.712 E86.76136
G0 F6000 X89.133 Y158.147
G1 F900 X90.094 Y159.108 E86.80792
G0 F6000 X90.66 Y159.108
G1 F900 X89.133 Y157.581 E86.8819
G0 F6000 X89.133 Y157.015
G1 F900 X91.225 Y159.108 E86.98328
G0 F6000 X91.791 Y159.108
G1 F900 X89.133 Y156.45 E87.11205
G0 F6000 X89.133 Y155.884
G1 F900 X92.357 Y159.108 E87.26825
G0 F6000 X92.923 Y159.108
G1 F900 X89.133 Y155.318 E87.45186
G0 F6000 X89.133 Y154.753
G1 F900 X93.488 Y159.108 E87.66286
G0 F6000 X94.054 Y159.108
G1 F900 X89.133 Y154.187 E87.90127
G0 F6000 X89.133 Y153.621
G1 F900 X94.62 Y159.108 E88.1671
G0 F6000 X95.185 Y159.108
G1 F900 X89.133 Y153.056 E88.46031
G0 F6000 X89.133 Y152.49
G1 F900 X95.751 Y159.108 E88.78094
G0 F6000 X96.317 Y159.108
G1 F900 X89.133 Y151.924 E89.12899
G0 F6000 X89.133 Y151.359
G1 F900 X96.882 Y159.108 E89.50441
G0 F6000 X97.448 Y159.108
G1 F900 X89.133 Y150.793 E89.90726
G0 F6000 X89.133 Y150.227
G1 F900 X98.014 Y159.108 E90.33753
G0 F6000 X98.579 Y159.108
G1 F900 X89.133 Y149.661 E90.79519
G0 F6000 X89.133 Y149.096
G1 F900 X99.145 Y159.108 E91.28025
G0 F6000 X99.711 Y159.108
G1 F900 X89.133 Y148.53 E91.79274
G0 F6000 X89.133 Y147.964
G1 F900 X100.276 Y159.108 E92.33262
G0 F6000 X100.842 Y159.108
G1 F900 X89.133 Y147.399 E92.8999
G0 F6000 X89.133 Y146.833
G1 F900 X101.408 Y159.108 E93.4946
G0 F6000 X101.973 Y159.108
G1 F900 X89.133 Y146.267 E94.11669
G0 F6000 X89.133 Y145.702
G1 F900 X102.539 Y159.108 E94.76619
G0 F6000 X103.105 Y159.108
G1 F900 X89.133 Y145.136 E95.4431
G0 F6000 X89.133 Y144.57
G1 F900 X103.671 Y159.108 E96.14744
G0 F6000 X104.236 Y159.108
G1 F900 X89.133 Y144.005 E96.87915
G0 F6000 X89.133 Y143.439
G1 F900 X104.802 Y159.108 E97.63828
G0 F6000 X105.368 Y159.108
G1 F900 X89.133 Y142.873 E98.42484
G0 F6000 X89.133 Y142.308
G1 F900 X105.933 Y159.108 E99.23876
G0 F6000 X106.499 Y159.108
G1 F900 X89.133 Y141.742 E100.08011
G0 F6000 X89.133 Y141.176
G1 F900 X107.065 Y159.108 E100.94888
G0 F6000 X107.63 Y159.108
G1 F900 X89.133 Y140.611 E101.84503
G0 F6000 X89.133 Y140.045
G1 F900 X108.196 Y159.108 E102.76859
G0 F6000 X108.762 Y159.108
G1 F900 X89.133 Y139.479 E103.71958
G0 F6000 X89.133 Y138.913
G1 F900 X109.327 Y159.108 E104.69796
G0 F6000 X109.893 Y159.108
G1 F900 X89.133 Y138.348 E105.70374
G0 F6000 X89.133 Y137.782
G1 F900 X110.459 Y159.108 E106.73695
G0 F6000 X111.024 Y159.108
G1 F900 X89.133 Y137.216 E107.79755
G0 F6000 X89.133 Y136.651
G1 F900 X111.59 Y159.108 E108.88555
G0 F6000 X112.156 Y159.108
G1 F900 X89.133 Y136.085 E110.00096
G0 F6000 X89.133 Y135.519
G1 F900 X112.722 Y159.108 E111.14381
G0 F6000 X113.287 Y159.108
G1 F900 X89.133 Y134.954 E112.31402
G0 F6000 X89.133 Y134.388
G1 F900 X113.853 Y159.108 E113.51166
G0 F6000 X114.419 Y159.108
G1 F900 X89.133 Y133.822 E114.73671
G0 F6000 X89.133 Y133.257
G1 F900 X114.984 Y159.108 E115.98914
G0 F6000 X115.55 Y159.108
G1 F900 X89.133 Y132.691 E117.26899
G0 F6000 X89.133 Y132.125
G1 F900 X116.116 Y159.108 E118.57627
G0 F6000 X116.681 Y159.108
G1 F900 X89.133 Y131.56 E119.91091
G0 F6000 X89.133 Y130.994
G1 F900 X117.247 Y159.108 E121.27298
G0 F6000 X117.813 Y159.108
G1 F900 X89.133 Y130.428 E122.66247
G0 F6000 X89.133 Y129.862
G1 F900 X118.378 Y159.108 E124.07936
G0 F6000 X118.944 Y159.108
G1 F900 X89.133 Y129.297 E125.52364
G0 F6000 X89.133 Y128.731
G1 F900 X119.51 Y159.108 E126.99535
G0 F6000 X120.075 Y159.108
G1 F900 X89.133 Y128.165 E128.49445
G0 F6000 X89.133 Y127.6
G1 F900 X120.641 Y159.108 E130.02096
G0 F6000 X121.207 Y159.108
G1 F900 X89.133 Y127.034 E131.57488
G0 F6000 X89.133 Y126.468
G1 F900 X121.772 Y159.108 E133.1562
G0 F6000 X122.338 Y159.108
G1 F900 X89.133 Y125.903 E134.76491
G0 F6000 X89.133 Y125.337
G1 F900 X122.904 Y159.108 E136.40105
G0 F6000 X123.47 Y159.108
G1 F900 X89.133 Y124.771 E138.06461
G0 F6000 X89.133 Y124.206
G1 F900 X124.035 Y159.108 E139.75555
G0 F6000 X124.601 Y159.108
G1 F900 X89.133 Y123.64 E141.4739
G0 F6000 X89.133 Y123.074
G1 F900 X125.167 Y159.108 E143.21968
G0 F6000 X125.732 Y159.108
G1 F900 X89.133 Y122.509 E144.99283
G0 F6000 X89.133 Y121.943
G1 F900 X126.298 Y159.108 E146.7934
G0 F6000 X126.864 Y159.108
G1 F900 X89.133 Y121.377 E148.62139
G0 F6000 X89.133 Y120.812
G1 F900 X127.429 Y159.108 E150.47676
G0 F6000 X127.995 Y159.108
G1 F900 X89.133 Y120.246 E152.35955
G0 F6000 X89.133 Y119.68
G1 F900 X128.561 Y159.108 E154.26976
G0 F6000 X129.126 Y159.108
G1 F900 X89.133 Y119.114 E156.20736
G0 F6000 X89.133 Y118.549
G1 F900 X129.692 Y159.108 E158.17237
G0 F6000 X130.258 Y159.108
G1 F900 X89.133 Y117.983 E160.16479
G0 F6000 X89.133 Y117.417
G1 F900 X130.823 Y159.108 E162.18462
G0 F6000 X131.389 Y159.108
G1 F900 X89.133 Y116.852 E164.23184
G0 F6000 X89.133 Y116.286
G1 F900 X131.955 Y159.108 E166.30648
G0 F6000 X132.521 Y159.108
G1 F900 X89.133 Y115.72 E168.40854
G0 F6000 X89.133 Y115.155
G1 F900 X133.086 Y159.108 E170.53798
G0 F6000 X133.652 Y159.108
G1 F900 X89.133 Y114.589 E172.69484
G0 F6000 X89.133 Y114.023
G1 F900 X134.218 Y159.108 E174.87912
G0 F6000 X134.783 Y159.108
G1 F900 X89.133 Y113.458 E177.09077
G0 F6000 X89.133 Y112.892
G1 F900 X135.349 Y159.108 E179.32985
G0 F6000 X135.915 Y159.108
G1 F900 X89.133 Y112.326 E181.59634
G0 F6000 X89.133 Y111.761
G1 F900 X136.48 Y159.108 E183.89021
G0 F6000 X137.046 Y159.108
G1 F900 X89.133 Y111.195 E186.2115
G0 F6000 X89.133 Y110.629
G1 F900 X137.612 Y159.108 E188.56022
G0 F6000 X138.177 Y159.108
G1 F900 X89.133 Y110.063 E190.93633
G0 F6000 X89.133 Y109.498
G1 F900 X138.743 Y159.108 E193.33983
G0 F6000 X139.309 Y159.108
G1 F900 X89.133 Y108.932 E195.77076
G0 F6000 X89.133 Y108.366
G1 F900 X139.874 Y159.108 E198.22909
G0 F6000 X140.44 Y159.108
G1 F900 X89.133 Y107.801 E200.71481
G0 F6000 X89.133 Y107.235
G1 F900 X141.006 Y159.108 E203.22796
G0 F6000 X141.571 Y159.108
G1 F900 X89.133 Y106.669 E205.7685
G0 F6000 X89.133 Y106.104
G1 F900 X142.137 Y159.108 E208.33644
G0 F6000 X142.703 Y159.108
G1 F900 X89.133 Y105.538 E210.9318
G0 F6000 X89.133 Y104.972
G1 F900 X143.269 Y159.108 E213.55458
G0 F6000 X143.834 Y159.108
G1 F900 X89.133 Y104.407 E216.20474
G0 F6000 X89.133 Y103.841
G1 F900 X144.4 Y159.108 E218.88232
G0 F6000 X144.966 Y159.108
G1 F900 X89.133 Y103.275 E221.58732
G0 F6000 X89.133 Y102.71
G1 F900 X145.531 Y159.108 E224.31969
G0 F6000 X145.865 Y158.876
G1 F900 X89.133 Y102.144 E227.06825
G0 F6000 X89.133 Y101.578
G1 F900 X145.865 Y158.31 E229.8168
G0 F6000 X145.865 Y157.744
G1 F900 X89.133 Y101.013 E232.56533
G0 F6000 X89.133 Y100.447
G1 F900 X145.865 Y157.179 E235.31388
G0 F6000 X145.865 Y156.613
G1 F900 X89.133 Y99.881 E238.06244
G0 F6000 X89.133 Y99.315
G1 F900 X145.865 Y156.047 E240.81099
G0 F6000 X145.865 Y155.482
G1 F900 X89.133 Y98.75 E243.55955
G0 F6000 X89.133 Y98.184
G1 F900 X145.865 Y154.916 E246.3081
G0 F6000 X145.865 Y154.35
G1 F900 X89.133 Y97.618 E249.05666
G0 F6000 X89.133 Y97.053
G1 F900 X145.865 Y153.785 E251.80521
G0 F6000 X145.865 Y153.219
G1 F900 X89.133 Y96.487 E254.55376
G0 F6000 X89.133 Y95.921
G1 F900 X145.865 Y152.653 E257.30232
G0 F6000 X145.865 Y152.088
G1 F900 X89.133 Y95.356 E260.05087
G0 F6000 X89.133 Y94.79
G1 F900 X145.865 Y151.522 E262.79943
G0 F6000 X145.865 Y150.956
G1 F900 X89.133 Y94.224 E265.54798
G0 F6000 X89.133 Y93.659
G1 F900 X145.865 Y150.391 E268.29654
G0 F6000 X145.865 Y149.825
G1 F900 X89.133 Y93.093 E271.04509
G0 F6000 X89.133 Y92.527
G1 F900 X145.865 Y149.259 E273.79364
G0 F6000 X145.865 Y148.693
G1 F900 X89.133 Y91.962 E276.54218
G0 F6000 X89.133 Y91.396
G1 F900 X145.865 Y148.128 E279.29073
G0 F6000 X145.865 Y147.562
G1 F900 X89.133 Y90.83 E282.03928
G0 F6000 X89.133 Y90.265
G1 F900 X145.865 Y146.996 E284.78781
G0 F6000 X145.865 Y146.431
G1 F900 X89.133 Y89.699 E287.53637
G0 F6000 X89.133 Y89.133
G1 F900 X145.865 Y145.865 E290.28492
G0 F6000 X145.865 Y145.299
G1 F900 X89.133 Y88.567 E293.03348
G0 F6000 X89.133 Y88.002
G1 F900 X145.865 Y144.734 E295.78203
G0 F6000 X145.865 Y144.168
G1 F900 X89.133 Y87.436 E298.53059
G0 F6000 X89.133 Y86.87
G1 F900 X145.865 Y143.602 E301.27914
G0 F6000 X145.865 Y143.037
G1 F900 X89.133 Y86.305 E304.02769
G0 F6000 X89.133 Y85.739
G1 F900 X145.865 Y142.471 E306.77625
G0 F6000 X145.865 Y141.905
G1 F900 X89.133 Y85.173 E309.5248
G0 F6000 X89.133 Y84.608
G1 F900 X145.865 Y141.34 E312.27336
G0 F6000 X145.865 Y140.774
G1 F900 X89.133 Y84.042 E315.02191
G0 F6000 X89.133 Y83.476
G1 F900 X145.865 Y140.208 E317.77047
G0 F6000 X145.865 Y139.642
G1 F900 X89.133 Y82.911 E320.519
G0 F6000 X89.133 Y82.345
G1 F900 X145.865 Y139.077 E323.26755
G0 F6000 X145.865 Y138.511
G1 F900 X89.531 Y82.177 E325.99682
G0 F6000 X90.096 Y82.177
G1 F900 X145.865 Y137.945 E328.6987
G0 F6000 X145.865 Y137.38
G1 F900 X90.662 Y82.177 E331.37317
G0 F6000 X91.228 Y82.177
G1 F900 X145.865 Y136.814 E334.02023
G0 F6000 X145.865 Y136.248
G1 F900 X91.793 Y82.177 E336.63989
G0 F6000 X92.359 Y82.177
G1 F900 X145.865 Y135.683 E339.23215
G0 F6000 X145.865 Y135.117
G1 F900 X92.925 Y82.177 E341.79699
G0 F6000 X93.49 Y82.177
G1 F900 X145.865 Y134.551 E344.33443
G0 F6000 X145.865 Y133.986
G1 F900 X94.056 Y82.177 E346.84447
G0 F6000 X94.622 Y82.177
G1 F900 X145.865 Y133.42 E349.3271
G0 F6000 X145.865 Y132.854
G1 F900 X95.187 Y82.177 E351.78232
G0 F6000 X95.753 Y82.177
G1 F900 X145.865 Y132.289 E354.21015
G0 F6000 X145.865 Y131.723
G1 F900 X96.319 Y82.177 E356.61056
G0 F6000 X96.884 Y82.177
G1 F900 X145.865 Y131.157 E358.98357
G0 F6000 X145.865 Y130.592
G1 F900 X97.45 Y82.177 E361.32918
G0 F6000 X98.016 Y82.177
G1 F900 X145.865 Y130.026 E363.64737
G0 F6000 X145.865 Y129.46
G1 F900 X98.581 Y82.177 E365.93816
G0 F6000 X99.147 Y82.177
G1 F900 X145.865 Y128.894 E368.20153
G0 F6000 X145.865 Y128.329
G1 F900 X99.713 Y82.177 E370.43751
G0 F6000 X100.279 Y82.177
G1 F900 X145.865 Y127.763 E372.64606
G0 F6000 X145.865 Y127.197
G1 F900 X100.844 Y82.177 E374.82722
G0 F6000 X101.41 Y82.177
G1 F900 X145.865 Y126.632 E376.98097
G0 F6000 X145.865 Y126.066
G1 F900 X101.976 Y82.177 E379.10731
G0 F6000 X102.541 Y82.177
G1 F900 X145.865 Y125.5 E381.20625
G0 F6000 X145.865 Y124.935
G1 F900 X103.107 Y82.177 E383.27779
G0 F6000 X103.673 Y82.177
G1 F900 X145.865 Y124.369 E385.32191
G0 F6000 X145.865 Y123.803
G1 F900 X104.238 Y82.177 E387.33863
G0 F6000 X104.804 Y82.177
G1 F900 X145.865 Y123.238 E389.32796
G0 F6000 X145.865 Y122.672
G1 F900 X105.37 Y82.177 E391.28986
G0 F6000 X105.935 Y82.177
G1 F900 X145.865 Y122.106 E393.22437
G0 F6000 X145.865 Y121.541
G1 F900 X106.501 Y82.177 E395.13148
G0 F6000 X107.067 Y82.177
G1 F900 X145.865 Y120.975 E397.01116
G0 F6000 X145.865 Y120.409
G1 F900 X107.632 Y82.177 E398.86345
G0 F6000 X108.198 Y82.177
G1 F900 X145.865 Y119.843 E400.68832
G0 F6000 X145.865 Y119.278
G1 F900 X108.764 Y82.177 E402.48579
G0 F6000 X109.33 Y82.177
G1 F900 X145.865 Y118.712 E404.25584
G0 F6000 X145.865 Y118.146
G1 F900 X109.895 Y82.177 E405.99849
G0 F6000 X110.461 Y82.177
G1 F900 X145.865 Y117.581 E407.71375
G0 F6000 X145.865 Y117.015
G1 F900 X111.027 Y82.177 E409.40158
G0 F6000 X111.592 Y82.177
G1 F900 X145.865 Y116.449 E411.06202
G0 F6000 X145.865 Y115.884
G1 F900 X112.158 Y82.177 E412.69505
G0 F6000 X112.724 Y82.177
G1 F900 X145.865 Y115.318 E414.30067
G0 F6000 X145.865 Y114.752
G1 F900 X113.289 Y82.177 E415.87889
G0 F6000 X113.855 Y82.177
G1 F900 X145.865 Y114.187 E417.42971
G0 F6000 X145.865 Y113.621
G1 F900 X114.421 Y82.177 E418.95311
G0 F6000 X114.986 Y82.177
G1 F900 X145.865 Y113.055 E420.44911
G0 F6000 X145.865 Y112.49
G1 F900 X115.552 Y82.177 E421.91772
G0 F6000 X116.118 Y82.177
G1 F900 X145.865 Y111.924 E423.3589
G0 F6000 X145.865 Y111.358
G1 F900 X116.683 Y82.177 E424.77269
G0 F6000 X117.249 Y82.177
G1 F900 X145.865 Y110.793 E426.15908
G0 F6000 X145.865 Y110.227
G1 F900 X117.815 Y82.177 E427.51805
G0 F6000 X118.38 Y82.177
G1 F900 X145.865 Y109.661 E428.84962
G0 F6000 X145.865 Y109.095
G1 F900 X118.946 Y82.177 E430.15377
G0 F6000 X119.512 Y82.177
G1 F900 X145.865 Y108.53 E431.43052
G0 F6000 X145.865 Y107.964
G1 F900 X120.078 Y82.177 E432.67985
G0 F6000 X120.643 Y82.177
G1 F900 X145.865 Y107.398 E433.90178
G0 F6000 X145.865 Y106.833
G1 F900 X121.209 Y82.177 E435.09631
G0 F6000 X121.775 Y82.177
G1 F900 X145.865 Y106.267 E436.26343
G0 F6000 X145.865 Y105.701
G1 F900 X122.34 Y82.177 E437.40314
G0 F6000 X122.906 Y82.177
G1 F900 X145.865 Y105.136 E438.51546
G0 F6000 X145.865 Y104.57
G1 F900 X123.472 Y82.177 E439.60036
G0 F6000 X124.037 Y82.177
G1 F900 X145.865 Y104.004 E440.65786
G0 F6000 X145.865 Y103.439
G1 F900 X124.603 Y82.177 E441.68796
G0 F6000 X125.169 Y82.177
G1 F900 X145.865 Y102.873 E442.69064
G0 F6000 X145.865 Y102.307
G1 F900 X125.734 Y82.177 E443.66592
G0 F6000 X126.3 Y82.177
G1 F900 X145.865 Y101.742 E444.61381
G0 F6000 X145.865 Y101.176
G1 F900 X126.866 Y82.177 E445.53428
G0 F6000 X127.431 Y82.177
G1 F900 X145.865 Y100.61 E446.42734
G0 F6000 X145.865 Y100.045
G1 F900 X127.997 Y82.177 E447.29301
G0 F6000 X128.563 Y82.177
G1 F900 X145.865 Y99.479 E448.13126
G0 F6000 X145.865 Y98.913
G1 F900 X129.129 Y82.177 E448.94209
G0 F6000 X129.694 Y82.177
G1 F900 X145.865 Y98.347 E449.72552
G0 F6000 X145.865 Y97.782
G1 F900 X130.26 Y82.177 E450.48155
G0 F6000 X130.826 Y82.177
G1 F900 X145.865 Y97.216 E451.21016
G0 F6000 X145.865 Y96.65
G1 F900 X131.391 Y82.177 E451.91137
G0 F6000 X131.957 Y82.177
G1 F900 X145.865 Y96.085 E452.58519
G0 F6000 X145.865 Y95.519
G1 F900 X132.523 Y82.177 E453.23158
G0 F6000 X133.088 Y82.177
