;FLAVOR:Marlin
;TIME:11717
;Filament used: 8.77585m
;Layer height: 0.2
;MINX:75.483
;MINY:85.784
;MINZ:0.2
;MAXX:159.515
;MAXY:149.216
;MAXZ:27.2
;Generated with Cura_SteamEngine 4.6.1
M82 ;absolute extrusion mode
M201 X500.00 Y500.00 Z100.00 E5000.00 ;Setup machine max acceleration
M203 X500.00 Y500.00 Z10.00 E50.00 ;Setup machine max feedrate
M204 P500.00 R1000.00 T500.00 ;Setup Print/Retract/Travel acceleration
M205 X8.00 Y8.00 Z0.40 E5.00 ;Setup Jerk
M220 S100 ;Reset Feedrate
M221 S100 ;Reset Flowrate

M104 S205.0 ; set extruder temp
M140 S55.0 ; set bed temp

G28;
M420 S1 ; enable mesh bed leveling positions
G29 S0; Reading bed leveling values
G0 X4.0 Y4.0 Z20 F7200 ; Move to a position in the left front of the bed

M190 S55.0 ; wait for bed temp
M109 S205.0 ; wait for extruder temp
M300 S2600 P200; Beep


G92 E0 ;Reset Extruder
G1 X4.0 Y4.0 F7200 ; Move to a position in the left front of the bed
G1 Z0.2; Move nozzle above 0.3 mm of the bed
G91 ; Use relative mode
G1 Z1.0 Y200;
G1 Z-1.0;
G1 Y-190 E40 F1000 ; print line left side
G0 Z10.0
G92 E0 ; Set extrusion distance to 0
G90 ; switch back to absolute mode
G92 E0
G92 E0
G1 F3600 E-6
;LAYER_COUNT:136
;LAYER:0
M107
G1 F300 Z0.8
;MESH:Case lower_v1.stl
G0 F6000 X78.484 Y146.416 Z0.8
;TYPE:WALL-INNER
G1 F300 Z0.2
G1 F3600 E0
G1 F900 X78.484 Y88.584 E1.98121
G1 X156.516 Y88.584 E4.65442
G1 X156.516 Y146.416 E6.63563
G1 X78.484 Y146.416 E9.30884
G0 F6000 X78.084 Y146.816
G1 F900 X78.084 Y88.184 E11.31745
G1 X156.916 Y88.184 E14.01807
G1 X156.916 Y146.816 E16.02669
G1 X78.084 Y146.816 E18.72731
G0 F6000 X77.684 Y147.216
G1 F900 X77.684 Y87.784 E20.76333
G1 X157.316 Y87.784 E23.49135
G1 X157.316 Y147.216 E25.52737
G1 X77.684 Y147.216 E28.2554
G0 F6000 X77.284 Y147.616
G1 F900 X77.284 Y87.384 E30.31882
G1 X157.716 Y87.384 E33.07426
G1 X157.716 Y147.616 E35.13768
G1 X77.284 Y147.616 E37.89312
G0 F6000 X76.884 Y148.016
G1 F900 X76.884 Y86.984 E39.98395
G1 X158.116 Y86.984 E42.76679
G1 X158.116 Y148.016 E44.85762
G1 X76.884 Y148.016 E47.64046
G0 F6000 X76.484 Y148.416
G1 F900 X76.484 Y86.584 E49.7587
G1 X158.516 Y86.584 E52.56894
G1 X158.516 Y148.416 E54.68718
G1 X76.484 Y148.416 E57.49743
G0 F6000 X76.084 Y148.816
G1 F900 X76.084 Y86.184 E59.64307
G1 X158.916 Y86.184 E62.48073
G1 X158.916 Y148.816 E64.62637
G1 X76.084 Y148.816 E67.46402
G0 F6000 X75.684 Y149.216
;TYPE:WALL-OUTER
G1 F900 X75.684 Y85.784 E69.63707
G1 X159.316 Y85.784 E72.50213
G1 X159.316 Y149.216 E74.67518
G1 X75.684 Y149.216 E77.54024
G1 F3600 E71.54024
G1 F300 Z0.8
G0 F6000 X78.874 Y146.026 Z0.8
;TYPE:SKIN
G1 F300 Z0.2
G1 F3600 E77.54024
G1 F900 X78.874 Y88.974 E79.49473
G1 X156.126 Y88.974 E82.14122
G1 X156.126 Y146.026 E84.0957
G1 X78.874 Y146.026 E86.7422
G0 F6000 X79.114 Y145.865
G1 F900 X79.034 Y145.784 E86.7461
G0 F6000 X79.034 Y145.219
G1 F900 X79.68 Y145.865 E86.7774
G0 F6000 X80.246 Y145.865
G1 F900 X79.034 Y144.653 E86.83611
G0 F6000 X79.034 Y144.087
G1 F900 X80.811 Y145.865 E86.92223
G0 F6000 X81.377 Y145.865
G1 F900 X79.034 Y143.522 E87.03574
G0 F6000 X79.034 Y142.956
G1 F900 X81.943 Y145.865 E87.17668
G0 F6000 X82.508 Y145.865
G1 F900 X79.034 Y142.39 E87.34501
G0 F6000 X79.034 Y141.825
G1 F900 X83.074 Y145.865 E87.54074
G0 F6000 X83.64 Y145.865
G1 F900 X79.034 Y141.259 E87.76389
G0 F6000 X79.034 Y140.693
G1 F900 X84.205 Y145.865 E88.01444
G0 F6000 X84.771 Y145.865
G1 F900 X79.034 Y140.128 E88.29239
G0 F6000 X79.034 Y139.562
G1 F900 X85.337 Y145.865 E88.59776
G0 F6000 X85.902 Y145.865
G1 F900 X79.034 Y138.996 E88.93052
G0 F6000 X79.034 Y138.431
G1 F900 X86.468 Y145.865 E89.29069
G0 F6000 X87.034 Y145.865
G1 F900 X79.034 Y137.865 E89.67827
G0 F6000 X79.034 Y137.299
G1 F900 X87.599 Y145.865 E90.09325
G0 F6000 X88.165 Y145.865
G1 F900 X79.034 Y136.733 E90.53566
G0 F6000 X79.034 Y136.168
G1 F900 X88.731 Y145.865 E91.00546
G0 F6000 X89.296 Y145.865
G1 F900 X79.034 Y135.602 E91.50265
G0 F6000 X79.034 Y135.036
G1 F900 X89.862 Y145.865 E92.02727
G0 F6000 X90.428 Y145.865
G1 F900 X79.034 Y134.471 E92.57929
G0 F6000 X79.034 Y133.905
G1 F900 X90.994 Y145.865 E93.15873
G0 F6000 X91.559 Y145.865
G1 F900 X79.034 Y133.339 E93.76557
G0 F6000 X79.034 Y132.774
G1 F900 X92.125 Y145.865 E94.3998
G0 F6000 X92.691 Y145.865
G1 F900 X79.034 Y132.208 E95.06145
G0 F6000 X79.034 Y131.642
G1 F900 X93.256 Y145.865 E95.75051
G0 F6000 X93.822 Y145.865
G1 F900 X79.034 Y131.077 E96.46696
G0 F6000 X79.034 Y130.511
G1 F900 X94.388 Y145.865 E97.21083
G0 F6000 X94.953 Y145.865
G1 F900 X79.034 Y129.945 E97.9821
G0 F6000 X79.034 Y129.38
G1 F900 X95.519 Y145.865 E98.78076
G0 F6000 X96.085 Y145.865
G1 F900 X79.034 Y128.814 E99.60685
G0 F6000 X79.034 Y128.248
G1 F900 X96.65 Y145.865 E100.46033
G0 F6000 X97.216 Y145.865
G1 F900 X79.034 Y127.682 E101.34124
G0 F6000 X79.034 Y127.117
G1 F900 X97.782 Y145.865 E102.24954
G0 F6000 X98.347 Y145.865
G1 F900 X79.034 Y126.551 E103.18525
G0 F6000 X79.034 Y125.985
G1 F900 X98.913 Y145.865 E104.14837
G0 F6000 X99.479 Y145.865
G1 F900 X79.034 Y125.42 E105.13889
G0 F6000 X79.034 Y124.854
G1 F900 X100.045 Y145.865 E106.15683
G0 F6000 X100.61 Y145.865
G1 F900 X79.034 Y124.288 E107.20217
G0 F6000 X79.034 Y123.723
G1 F900 X101.176 Y145.865 E108.27491
G0 F6000 X101.742 Y145.865
G1 F900 X79.034 Y123.157 E109.37506
G0 F6000 X79.034 Y122.591
G1 F900 X102.307 Y145.865 E110.50262
G0 F6000 X102.873 Y145.865
G1 F900 X79.034 Y122.026 E111.65757
G0 F6000 X79.034 Y121.46
G1 F900 X103.439 Y145.865 E112.83995
G0 F6000 X104.004 Y145.865
G1 F900 X79.034 Y120.894 E114.04972
G0 F6000 X79.034 Y120.329
G1 F900 X104.57 Y145.865 E115.28689
G0 F6000 X105.136 Y145.865
G1 F900 X79.034 Y119.763 E116.55148
G0 F6000 X79.034 Y119.197
G1 F900 X105.701 Y145.865 E117.84347
G0 F6000 X106.267 Y145.865
G1 F900 X79.034 Y118.632 E119.16285
G0 F6000 X79.034 Y118.066
G1 F900 X106.833 Y145.865 E120.50966
G0 F6000 X107.398 Y145.865
G1 F900 X79.034 Y117.5 E121.88386
G0 F6000 X79.034 Y116.934
G1 F900 X107.964 Y145.865 E123.28549
G0 F6000 X108.53 Y145.865
G1 F900 X79.034 Y116.369 E124.71451
G0 F6000 X79.034 Y115.803
G1 F900 X109.095 Y145.865 E126.17093
G0 F6000 X109.661 Y145.865
G1 F900 X79.034 Y115.237 E127.65478
G0 F6000 X79.034 Y114.672
G1 F900 X110.227 Y145.865 E129.16602
G0 F6000 X110.793 Y145.865
G1 F900 X79.034 Y114.106 E130.70468
G0 F6000 X79.034 Y113.54
G1 F900 X111.358 Y145.865 E132.27074
G0 F6000 X111.924 Y145.865
G1 F900 X79.034 Y112.975 E133.86419
G0 F6000 X79.034 Y112.409
G1 F900 X112.49 Y145.865 E135.48507
G0 F6000 X113.055 Y145.865
G1 F900 X79.034 Y111.843 E137.13335
G0 F6000 X79.034 Y111.278
G1 F900 X113.621 Y145.865 E138.80902
G0 F6000 X114.187 Y145.865
G1 F900 X79.034 Y110.712 E140.51211
G0 F6000 X79.034 Y110.146
G1 F900 X114.752 Y145.865 E142.2426
G0 F6000 X115.318 Y145.865
G1 F900 X79.034 Y109.581 E144.00049
G0 F6000 X79.034 Y109.015
G1 F900 X115.884 Y145.865 E145.7858
G0 F6000 X116.449 Y145.865
G1 F900 X79.034 Y108.449 E147.59851
G0 F6000 X79.034 Y107.883
G1 F900 X117.015 Y145.865 E149.43864
G0 F6000 X117.581 Y145.865
G1 F900 X79.034 Y107.318 E151.30617
G0 F6000 X79.034 Y106.752
G1 F900 X118.146 Y145.865 E153.20109
G0 F6000 X118.712 Y145.865
G1 F900 X79.034 Y106.186 E155.12344
G0 F6000 X79.034 Y105.621
G1 F900 X119.278 Y145.865 E157.07318
G0 F6000 X119.843 Y145.865
G1 F900 X79.034 Y105.055 E159.05032
G0 F6000 X79.034 Y104.489
G1 F900 X120.409 Y145.865 E161.05488
G0 F6000 X120.975 Y145.865
G1 F900 X79.034 Y103.924 E163.08684
G0 F6000 X79.034 Y103.358
G1 F900 X121.541 Y145.865 E165.14622
G0 F6000 X122.106 Y145.865
G1 F900 X79.034 Y102.792 E167.233
G0 F6000 X79.034 Y102.227
G1 F900 X122.672 Y145.865 E169.34718
G0 F6000 X123.238 Y145.865
G1 F900 X79.034 Y101.661 E171.48877
G0 F6000 X79.034 Y101.095
G1 F900 X123.803 Y145.865 E173.65777
G0 F6000 X124.369 Y145.865
G1 F900 X79.034 Y100.53 E175.85416
G0 F6000 X79.034 Y99.964
G1 F900 X124.935 Y145.865 E178.07797
G0 F6000 X125.5 Y145.865
G1 F900 X79.034 Y99.398 E180.32918
G0 F6000 X79.034 Y98.833
G1 F900 X126.066 Y145.865 E182.60779
G0 F6000 X126.632 Y145.865
G1 F900 X79.034 Y98.267 E184.91382
G0 F6000 X79.034 Y97.701
G1 F900 X127.197 Y145.865 E187.24725
G0 F6000 X127.763 Y145.865
G1 F900 X79.034 Y97.135 E189.6081
G0 F6000 X79.034 Y96.57
G1 F900 X128.329 Y145.865 E191.99634
G0 F6000 X128.894 Y145.865
G1 F900 X79.034 Y96.004 E194.41199
G0 F6000 X79.034 Y95.438
G1 F900 X129.46 Y145.865 E196.85505
G0 F6000 X130.026 Y145.865
G1 F900 X79.034 Y94.873 E199.32552
G0 F6000 X79.034 Y94.307
G1 F900 X130.592 Y145.865 E201.8234
G0 F6000 X131.157 Y145.865
G1 F900 X79.034 Y93.741 E204.34868
G0 F6000 X79.034 Y93.176
G1 F900 X131.723 Y145.865 E206.90136
G0 F6000 X132.289 Y145.865
G1 F900 X79.034 Y92.61 E209.48146
G0 F6000 X79.034 Y92.044
G1 F900 X132.854 Y145.865 E212.08896
G0 F6000 X133.42 Y145.865
G1 F900 X79.034 Y91.479 E214.72385
G0 F6000 X79.034 Y90.913
G1 F900 X133.986 Y145.865 E217.38617
G0 F6000 X134.551 Y145.865
G1 F900 X79.034 Y90.347 E220.07589
G0 F6000 X79.034 Y89.782
G1 F900 X135.117 Y145.865 E222.793
G0 F6000 X135.683 Y145.865
G1 F900 X79.034 Y89.216 E225.53753
G0 F6000 X79.516 Y89.133
G1 F900 X136.248 Y145.865 E228.28608
G0 F6000 X136.814 Y145.865
G1 F900 X80.082 Y89.133 E231.03464
G0 F6000 X80.648 Y89.133
G1 F900 X137.38 Y145.865 E233.78319
G0 F6000 X137.945 Y145.865
G1 F900 X81.214 Y89.133 E236.53172
G0 F6000 X81.779 Y89.133
G1 F900 X138.511 Y145.865 E239.28028
G0 F6000 X139.077 Y145.865
G1 F900 X82.345 Y89.133 E242.02883
G0 F6000 X82.911 Y89.133
G1 F900 X139.642 Y145.865 E244.77736
G0 F6000 X140.208 Y145.865
G1 F900 X83.476 Y89.133 E247.52592
G0 F6000 X84.042 Y89.133
G1 F900 X140.774 Y145.865 E250.27447
G0 F6000 X141.34 Y145.865
G1 F900 X84.608 Y89.133 E253.02302
G0 F6000 X85.173 Y89.133
G1 F900 X141.905 Y145.865 E255.77158
G0 F6000 X142.471 Y145.865
G1 F900 X85.739 Y89.133 E258.52013
G0 F6000 X86.305 Y89.133
G1 F900 X143.037 Y145.865 E261.26869
G0 F6000 X143.602 Y145.865
G1 F900 X86.87 Y89.133 E264.01724
G0 F6000 X87.436 Y89.133
G1 F900 X144.168 Y145.865 E266.7658
G0 F6000 X144.734 Y145.865
G1 F900 X88.002 Y89.133 E269.51435
G0 F6000 X88.567 Y89.133
G1 F900 X145.299 Y145.865 E272.2629
G0 F6000 X145.865 Y145.865
G1 F900 X89.133 Y89.133 E275.01146
G0 F6000 X89.699 Y89.133
G1 F900 X146.431 Y145.865 E277.76001
G0 F6000 X146.996 Y145.865
G1 F900 X90.265 Y89.133 E280.50854
G0 F6000 X90.83 Y89.133
G1 F900 X147.562 Y145.865 E283.2571
G0 F6000 X148.128 Y145.865
G1 F900 X91.396 Y89.133 E286.00565
G0 F6000 X91.962 Y89.133
G1 F900 X148.693 Y145.865 E288.75418
G0 F6000 X149.259 Y145.865
G1 F900 X92.527 Y89.133 E291.50274
G0 F6000 X93.093 Y89.133
G1 F900 X149.825 Y145.865 E294.25129
G0 F6000 X150.391 Y145.865
G1 F900 X93.659 Y89.133 E296.99985
G0 F6000 X94.224 Y89.133
G1 F900 X150.956 Y145.865 E299.7484
G0 F6000 X151.522 Y145.865
G1 F900 X94.79 Y89.133 E302.49695
G0 F6000 X95.356 Y89.133
G1 F900 X152.088 Y145.865 E305.24551
G0 F6000 X152.653 Y145.865
G1 F900 X95.921 Y89.133 E307.99406
G0 F6000 X96.487 Y89.133
G1 F900 X153.219 Y145.865 E310.74262
G0 F6000 X153.785 Y145.865
G1 F900 X97.053 Y89.133 E313.49117
G0 F6000 X97.618 Y89.133
G1 F900 X154.35 Y145.865 E316.23973
G0 F6000 X154.916 Y145.865
G1 F900 X98.184 Y89.133 E318.98828
G0 F6000 X98.75 Y89.133
G1 F900 X155.482 Y145.865 E321.73683
G0 F6000 X155.965 Y145.782
G1 F900 X99.315 Y89.133 E324.48139
G0 F6000 X99.881 Y89.133
G1 F900 X155.965 Y145.217 E327.19855
G0 F6000 X155.965 Y144.651
G1 F900 X100.447 Y89.133 E329.88829
G0 F6000 X101.013 Y89.133
G1 F900 X155.965 Y144.085 E332.55061
G0 F6000 X155.965 Y143.52
G1 F900 X101.578 Y89.133 E335.18555
G0 F6000 X102.144 Y89.133
G1 F900 X155.965 Y142.954 E337.79307
G0 F6000 X155.965 Y142.388
G1 F900 X102.71 Y89.133 E340.37317
G0 F6000 X103.275 Y89.133
G1 F900 X155.965 Y141.822 E342.92588
G0 F6000 X155.965 Y141.257
G1 F900 X103.841 Y89.133 E345.45118
G0 F6000 X104.407 Y89.133
G1 F900 X155.965 Y140.691 E347.94907
G0 F6000 X155.965 Y140.125
G1 F900 X104.972 Y89.133 E350.41955
G0 F6000 X105.538 Y89.133
G1 F900 X155.965 Y139.56 E352.86264
G0 F6000 X155.965 Y138.994
G1 F900 X106.104 Y89.133 E355.27831
G0 F6000 X106.669 Y89.133
G1 F900 X155.965 Y138.428 E357.66658
G0 F6000 X155.965 Y137.863
G1 F900 X107.235 Y89.133 E360.02745
G0 F6000 X107.801 Y89.133
G1 F900 X155.965 Y137.297 E362.36091
G0 F6000 X155.965 Y136.731
G1 F900 X108.366 Y89.133 E364.66696
G0 F6000 X108.932 Y89.133
G1 F900 X155.965 Y136.166 E366.94562
G0 F6000 X155.965 Y135.6
G1 F900 X109.498 Y89.133 E369.19685
G0 F6000 X110.063 Y89.133
G1 F900 X155.965 Y135.034 E371.42069
G0 F6000 X155.965 Y134.469
G1 F900 X110.629 Y89.133 E373.61713
G0 F6000 X111.195 Y89.133
G1 F900 X155.965 Y133.903 E375.78615
G0 F6000 X155.965 Y133.337
G1 F900 X111.761 Y89.133 E377.92775
G0 F6000 X112.326 Y89.133
G1 F900 X155.965 Y132.772 E380.04197
G0 F6000 X155.965 Y132.206
G1 F900 X112.892 Y89.133 E382.12877
G0 F6000 X113.458 Y89.133
G1 F900 X155.965 Y131.64 E384.18815
G0 F6000 X155.965 Y131.074
G1 F900 X114.023 Y89.133 E386.22014
G0 F6000 X114.589 Y89.133
G1 F900 X155.965 Y130.509 E388.22472
G0 F6000 X155.965 Y129.943
G1 F900 X115.155 Y89.133 E390.20189
G0 F6000 X115.72 Y89.133
G1 F900 X155.965 Y129.377 E392.15165
G0 F6000 X155.965 Y128.812
G1 F900 X116.286 Y89.133 E394.07402
G0 F6000 X116.852 Y89.133
G1 F900 X155.965 Y128.246 E395.96897
G0 F6000 X155.965 Y127.68
G1 F900 X117.417 Y89.133 E397.83652
G0 F6000 X117.983 Y89.133
G1 F900 X155.965 Y127.115 E399.67668
G0 F6000 X155.965 Y126.549
G1 F900 X118.549 Y89.133 E401.48941
G0 F6000 X119.114 Y89.133
G1 F900 X155.965 Y125.983 E403.27474
G0 F6000 X155.965 Y125.418
G1 F900 X119.68 Y89.133 E405.03268
G0 F6000 X120.246 Y89.133
G1 F900 X155.965 Y124.852 E406.7632
G0 F6000 X155.965 Y124.286
G1 F900 X120.812 Y89.133 E408.46629
G0 F6000 X121.377 Y89.133
G1 F900 X155.965 Y123.721 E410.14201
G0 F6000 X155.965 Y123.155
G1 F900 X121.943 Y89.133 E411.79031
G0 F6000 X122.509 Y89.133
G1 F900 X155.965 Y122.589 E413.41119
G0 F6000 X155.965 Y122.024
G1 F900 X123.074 Y89.133 E415.00469
G0 F6000 X123.64 Y89.133
G1 F900 X155.965 Y121.458 E416.57078
G0 F6000 X155.965 Y120.892
G1 F900 X124.206 Y89.133 E418.10944
G0 F6000 X124.771 Y89.133
G1 F900 X155.965 Y120.326 E419.6207
G0 F6000 X155.965 Y119.761
G1 F900 X125.337 Y89.133 E421.10457
G0 F6000 X125.903 Y89.133
G1 F900 X155.965 Y119.195 E422.56101
G0 F6000 X155.965 Y118.629
G1 F900 X126.468 Y89.133 E423.99006
G0 F6000 X127.034 Y89.133
G1 F900 X155.965 Y118.064 E425.39171
G0 F6000 X155.965 Y117.498
G1 F900 X127.6 Y89.133 E426.76594
G0 F6000 X128.165 Y89.133
G1 F900 X155.965 Y116.932 E428.11277
G0 F6000 X155.965 Y116.367
G1 F900 X128.731 Y89.133 E429.43221
G0 F6000 X129.297 Y89.133
G1 F900 X155.965 Y115.801 E430.72422
G0 F6000 X155.965 Y115.235
G1 F900 X129.862 Y89.133 E431.98883
G0 F6000 X130.428 Y89.133
G1 F900 X155.965 Y114.67 E433.22605
G0 F6000 X155.965 Y114.104
G1 F900 X130.994 Y89.133 E434.43585
G0 F6000 X131.56 Y89.133
G1 F900 X155.965 Y113.538 E435.61822
G0 F6000 X155.965 Y112.973
G1 F900 X132.125 Y89.133 E436.77322
G0 F6000 X132.691 Y89.133
G1 F900 X155.965 Y112.407 E437.9008
G0 F6000 X155.965 Y111.841
G1 F900 X133.257 Y89.133 E439.00096
G0 F6000 X133.822 Y89.133
G1 F900 X155.965 Y111.275 E440.07372
G0 F6000 X155.965 Y110.71
G1 F900 X134.388 Y89.133 E441.11908
G0 F6000 X134.954 Y89.133
G1 F900 X155.965 Y110.144 E442.13703
G0 F6000 X155.965 Y109.578
G1 F900 X135.519 Y89.133 E443.12757
G0 F6000 X136.085 Y89.133
G1 F900 X155.965 Y109.013 E444.09072
G0 F6000 X155.965 Y108.447
G1 F900 X136.651 Y89.133 E445.02644
G0 F6000 X137.216 Y89.133
G1 F900 X155.965 Y107.881 E445.93477
G0 F6000 X155.965 Y107.316
G1 F900 X137.782 Y89.133 E446.8157
G0 F6000 X138.348 Y89.133
G1 F900 X155.965 Y106.75 E447.66921
G0 F6000 X155.965 Y106.184
G1 F900 X138.913 Y89.133 E448.49532
G0 F6000 X139.479 Y89.133
G1 F900 X155.965 Y105.619 E449.29404
G0 F6000 X155.965 Y105.053
G1 F900 X140.045 Y89.133 E450.06533
G0 F6000 X140.611 Y89.133
G1 F900 X155.965 Y104.487 E450.8092
G0 F6000 X155.965 Y103.922
G1 F900 X141.176 Y89.133 E451.5257
G0 F6000 X141.742 Y89.133
G1 F900 X155.965 Y103.356 E452.21478
G0 F6000 X155.965 Y102.79
G1 F900 X142.308 Y89.133 E452.87643
G0 F6000 X142.873 Y89.133
