;FLAVOR:Marlin
;TIME:5814
;Filament used: 3.30521m
;Layer height: 0.2
;MINX:67.208
;MINY:67.208
;MINZ:0.2
;MAXX:167.792
;MAXY:167.792
;MAXZ:5
;Generated with Cura_SteamEngine 4.13.1
M82 ;absolute extrusion mode
M201 X500.00 Y500.00 Z100.00 E5000.00 ;Setup machine max acceleration
M203 X500.00 Y500.00 Z10.00 E50.00 ;Setup machine max feedrate
M204 P500.00 R1000.00 T500.00 ;Setup Print/Retract/Travel acceleration
M205 X8.00 Y8.00 Z0.40 E5.00 ;Setup Jerk
M220 S100 ;Reset Feedrate
M221 S100 ;Reset Flowrate

M104 S205.0 ; set extruder temp
M140 S55.0 ; set bed temp

G28;
M420 S1 ; enable mesh bed leveling positions
G29 S0; Reading bed leveling values
G0 X4.0 Y4.0 Z20 F7200 ; Move to a position in the left front of the bed

M190 S55.0 ; wait for bed temp
M109 S205.0 ; wait for extruder temp
M300 S2600 P200; Beep


G92 E0 ;Reset Extruder
G1 X4.0 Y4.0 F7200 ; Move to a position in the left front of the bed
G1 Z0.2; Move nozzle above 0.3 mm of the bed
G91 ; Use relative mode
G1 Z1.0 Y200;
G1 Z-1.0;
G1 Y-190 E40 F1000 ; print line left side
G0 Z10.0
G92 E0 ; Set extrusion distance to 0
G90 ; switch back to absolute mode
G92 E0
G92 E0
G1 F3600 E-6
;LAYER_COUNT:25
;LAYER:0
M107
G1 F300 Z0.8
;MESH:PerfectCoffeePid Scale Case v9-Top.stl
G0 F6000 X166.201 Y167.194 Z0.8
;TYPE:WALL-OUTER
G1 F300 Z0.2
G1 F3600 E0
G1 F900 X167.194 Y68.799 E3.37098
G1 X68.799 Y67.806 E6.74196
G1 X67.806 Y166.201 E10.11294
G1 X166.201 Y167.194 E13.48393
G0 F6000 X166.205 Y167.765
G1 F900 X165.978 Y167.792 E13.49176
G1 X68.012 Y166.803 E16.84804
G1 X67.793 Y166.772 E16.85562
G1 X67.603 Y166.691 E16.8627
G1 X67.437 Y166.561 E16.86992
G1 X67.312 Y166.394 E16.87706
G1 X67.235 Y166.205 E16.88406
G1 X67.208 Y165.978 E16.89189
G1 X68.197 Y68.012 E20.24817
G1 X68.228 Y67.793 E20.25575
G1 X68.309 Y67.603 E20.26282
G1 X68.439 Y67.437 E20.27005
G1 X68.606 Y67.312 E20.27719
G1 X68.795 Y67.235 E20.28419
G1 X69.022 Y67.208 E20.29202
G1 X166.988 Y68.197 E23.6483
G1 X167.207 Y68.228 E23.65588
G1 X167.397 Y68.309 E23.66295
G1 X167.563 Y68.439 E23.67018
G1 X167.688 Y68.606 E23.67732
G1 X167.765 Y68.795 E23.68431
G1 X167.792 Y69.022 E23.69215
G1 X166.803 Y166.988 E27.04843
G1 X166.772 Y167.207 E27.05601
G1 X166.691 Y167.397 E27.06308
G1 X166.561 Y167.563 E27.07031
G1 X166.394 Y167.688 E27.07745
G1 X166.205 Y167.765 E27.08444
G0 F6000 X166.061 Y167.476
;TYPE:SKIN
G1 F900 X165.791 Y167.488 E27.09023
G1 X159.505 Y167.425 E27.22475
G1 X153.219 Y167.361 E27.35927
G1 X146.648 Y167.295 E27.49988
G1 X140.076 Y167.229 E27.64052
G1 X133.79 Y167.165 E27.77504
G1 X127.218 Y167.099 E27.91568
G1 X120.932 Y167.036 E28.0502
G1 X114.361 Y166.97 E28.19082
G1 X107.789 Y166.903 E28.33146
G1 X101.503 Y166.84 E28.46597
G1 X95.217 Y166.776 E28.60049
G1 X88.646 Y166.71 E28.74111
G1 X82.074 Y166.644 E28.88175
G1 X75.788 Y166.58 E29.01627
G1 X69.502 Y166.517 E29.15079
G1 X68.073 Y166.503 E29.18137
G0 F6000 X67.897 Y166.609
G1 F900 X67.663 Y166.375 E29.18704
G1 X67.63 Y166.342
G1 X67.399 Y166.111 E29.19263
G0 F6000 X67.508 Y165.937
G1 F900 X67.511 Y165.657 E29.19863
G1 X67.576 Y159.217 E29.3365
G1 X67.64 Y152.776 E29.4744
G1 X67.705 Y146.336 E29.61227
G1 X67.77 Y139.895 E29.75017
G1 X67.835 Y133.455 E29.88805
G1 X67.9 Y127.015 E30.02592
G1 X67.965 Y120.574 E30.16382
G1 X68.033 Y113.854 E30.30769
G1 X68.098 Y107.413 E30.44558
G1 X68.163 Y100.972 E30.58348
G1 X68.228 Y94.532 E30.72136
G1 X68.292 Y88.091 E30.85925
G1 X68.357 Y81.651 E30.99713
G1 X68.425 Y74.931 E31.141
G1 X68.49 Y68.49 E31.2789
G1 X68.558 Y67.71 E31.29566
G1 X68.936 Y67.522 E31.3047
G1 X72.921 Y67.547 E31.39001
G1 X79.493 Y67.613 E31.53071
G1 X86.064 Y67.68 E31.67139
G1 X92.636 Y67.746 E31.81209
G1 X99.207 Y67.812 E31.95277
G1 X105.779 Y67.878 E32.09347
G1 X112.351 Y67.945 E32.23417
G1 X118.637 Y68.008 E32.36875
G1 X124.923 Y68.071 E32.50333
G1 X131.209 Y68.135 E32.63791
G1 X137.495 Y68.198 E32.77249
G1 X143.78 Y68.261 E32.90705
G1 X150.352 Y68.328 E33.04775
G1 X156.923 Y68.394 E33.18843
G1 X163.495 Y68.46 E33.32913
G1 X166.924 Y68.495 E33.40254
G0 F6000 X167.102 Y68.389
G1 F900 X167.336 Y68.624 E33.40822
G1 X167.368 Y68.656
G1 X167.599 Y68.887 E33.41382
G0 F6000 X167.489 Y69.06
G1 F900 X167.486 Y69.34 E33.41984
G1 X167.421 Y75.78 E33.5583
G1 X167.357 Y82.221 E33.69678
G1 X167.292 Y88.662 E33.83526
G1 X167.227 Y95.102 E33.97372
G1 X167.163 Y101.543 E34.1122
G1 X167.095 Y108.263 E34.25668
G1 X167.03 Y114.704 E34.39516
G1 X166.965 Y121.144 E34.53362
G1 X166.9 Y127.585 E34.6721
G1 X166.835 Y134.025 E34.81056
G1 X166.77 Y140.466 E34.94904
G1 X166.705 Y146.906 E35.0875
G1 X166.64 Y153.347 E35.22599
G1 X166.575 Y159.787 E35.36445
G1 X166.51 Y166.228 E35.50293
G1 X166.439 Y167.288 E35.52577
G1 X166.299 Y167.43 E35.53005
G1 F3600 E29.53005
G1 F300 Z0.8
G0 F6000 X158.678 Y159.518 Z0.8
;TYPE:WALL-INNER
G1 F300 Z0.2
G1 F3600 E35.53005
G1 F900 X159.518 Y76.322 E38.38032
G1 X76.322 Y75.482 E41.23059
G1 X75.482 Y158.678 E44.08086
G1 X158.678 Y159.518 E46.93113
G0 F6000 X158.282 Y159.114
;TYPE:WALL-OUTER
G1 F900 X159.114 Y76.718 E49.75399
G1 X76.718 Y75.886 E52.57685
G1 X75.886 Y158.282 E55.39971
G1 X158.282 Y159.114 E58.22257
G1 F3600 E52.22257
G1 F300 Z0.8
G0 F6000 X164.221 Y165.174 Z0.8
;TYPE:WALL-INNER
G1 F300 Z0.2
G1 F3600 E58.22257
G1 F900 X69.826 Y164.221 E61.45652
G1 X70.779 Y69.826 E64.69046
G1 X165.174 Y70.779 E67.9244
G1 X164.221 Y165.174 E71.15834
G0 F6000 X164.617 Y165.578
;TYPE:WALL-OUTER
G1 F900 X69.422 Y164.617 E74.4197
G1 X70.383 Y69.422 E77.68105
G1 X165.578 Y70.383 E80.9424
G1 X164.617 Y165.578 E84.20375
G0 F6000 X163.835 Y164.78
;TYPE:SKIN
G1 F900 X70.22 Y163.835 E87.41097
G1 X71.165 Y70.22 E90.61819
G1 X164.78 Y71.165 E93.82541
G1 X163.835 Y164.78 E97.03263
G1 F3600 E91.03263
G1 F300 Z0.8
G0 F6000 X159.064 Y159.912 Z0.8
G1 F300 Z0.2
G1 F3600 E97.03263
G1 F900 X159.912 Y75.936 E99.90962
G1 X75.936 Y75.088 E102.78661
G1 X75.088 Y159.064 E105.6636
G1 X159.064 Y159.912 E108.54059
G1 F3600 E102.54059
G1 F300 Z0.8
G0 F6000 X164.612 Y71.839 Z0.8
G1 F300 Z0.2
G1 F3600 E108.54059
G1 F900 X164.09 Y71.318 E108.56586
G0 F6000 X163.519 Y71.312
G1 F900 X164.606 Y72.399 E108.61852
G0 F6000 X164.601 Y72.959
G1 F900 X162.947 Y71.306 E108.69863
G0 F6000 X162.376 Y71.301
G1 F900 X164.595 Y73.52 E108.80614
G0 F6000 X164.589 Y74.08
G1 F900 X161.804 Y71.294 E108.94109
G0 F6000 X161.233 Y71.289
G1 F900 X164.584 Y74.64 E109.10344
G0 F6000 X164.578 Y75.2
G1 F900 X160.661 Y71.283 E109.29321
G0 F6000 X160.09 Y71.277
G1 F900 X164.572 Y75.76 E109.51038
G0 F6000 X164.567 Y76.32
G1 F900 X159.519 Y71.272 E109.75494
G0 F6000 X158.947 Y71.266
G1 F900 X164.561 Y76.88 E110.02693
G0 F6000 X164.555 Y77.44
G1 F900 X158.375 Y71.26 E110.32634
G0 F6000 X157.804 Y71.254
G1 F900 X164.55 Y78 E110.65317
G0 F6000 X164.544 Y78.56
G1 F900 X157.232 Y71.248 E111.00742
G0 F6000 X156.661 Y71.243
G1 F900 X164.538 Y79.12 E111.38905
G0 F6000 X164.533 Y79.68
G1 F900 X156.09 Y71.237 E111.7981
G1 F3600 E105.7981
G1 F300 Z0.8
G0 F6000 X160.072 Y75.785 Z0.8
G1 F300 Z0.2
G1 F3600 E111.7981
G1 F900 X164.527 Y80.24 E112.01393
G0 F6000 X164.521 Y80.8
G1 F900 X160.067 Y76.345 E112.22974
G0 F6000 X160.061 Y76.905
G1 F900 X164.516 Y81.36 E112.44558
G0 F6000 X164.51 Y81.92
G1 F900 X160.055 Y77.465 E112.66142
G0 F6000 X160.05 Y78.025
G1 F900 X164.504 Y82.48 E112.87723
G0 F6000 X164.499 Y83.04
G1 F900 X160.044 Y78.585 E113.09306
G0 F6000 X160.038 Y79.145
G1 F900 X164.493 Y83.6 E113.3089
G0 F6000 X164.487 Y84.16
G1 F900 X160.033 Y79.705 E113.52471
G0 F6000 X160.027 Y80.265
G1 F900 X164.482 Y84.721 E113.74057
G0 F6000 X164.477 Y85.281
G1 F900 X160.021 Y80.825 E113.95646
G0 F6000 X160.016 Y81.385
G1 F900 X164.471 Y85.841 E114.17232
G0 F6000 X164.465 Y86.401
G1 F900 X160.01 Y81.945 E114.38818
G0 F6000 X160.004 Y82.505
G1 F900 X164.46 Y86.961 E114.60406
G0 F6000 X164.454 Y87.521
G1 F900 X159.999 Y83.065 E114.81992
G0 F6000 X159.993 Y83.625
G1 F900 X164.448 Y88.081 E115.03578
G0 F6000 X164.443 Y88.641
G1 F900 X159.987 Y84.186 E115.25164
G0 F6000 X159.982 Y84.746
G1 F900 X164.437 Y89.201 E115.46748
G0 F6000 X164.432 Y89.761
G1 F900 X159.976 Y85.306 E115.68334
G0 F6000 X159.97 Y85.866
G1 F900 X164.426 Y90.321 E115.8992
G0 F6000 X164.42 Y90.881
G1 F900 X159.965 Y86.426 E116.11503
G0 F6000 X159.959 Y86.986
G1 F900 X164.415 Y91.441 E116.33089
G0 F6000 X164.409 Y92.001
G1 F900 X159.953 Y87.546 E116.54675
G0 F6000 X159.948 Y88.106
G1 F900 X164.403 Y92.561 E116.76259
G0 F6000 X164.398 Y93.121
G1 F900 X159.942 Y88.666 E116.97845
G0 F6000 X159.936 Y89.226
G1 F900 X164.392 Y93.681 E117.19431
G0 F6000 X164.386 Y94.241
G1 F900 X159.931 Y89.786 E117.41015
G0 F6000 X159.925 Y90.346
G1 F900 X164.381 Y94.801 E117.62601
G0 F6000 X164.375 Y95.361
G1 F900 X159.919 Y90.906 E117.84187
G0 F6000 X159.914 Y91.466
G1 F900 X164.369 Y95.921 E118.0577
G0 F6000 X164.364 Y96.481
G1 F900 X159.908 Y92.026 E118.27356
G0 F6000 X159.903 Y92.586
G1 F900 X164.358 Y97.041 E118.4894
G0 F6000 X164.352 Y97.601
G1 F900 X159.897 Y93.146 E118.70524
G0 F6000 X159.891 Y93.706
G1 F900 X164.347 Y98.161 E118.9211
G0 F6000 X164.341 Y98.722
G1 F900 X159.886 Y94.266 E119.13696
G0 F6000 X159.88 Y94.826
G1 F900 X164.335 Y99.282 E119.35282
G0 F6000 X164.33 Y99.842
G1 F900 X159.874 Y95.386 E119.5687
G0 F6000 X159.869 Y95.946
G1 F900 X164.324 Y100.402 E119.78456
G0 F6000 X164.318 Y100.962
G1 F900 X159.863 Y96.506 E120.00042
G0 F6000 X159.857 Y97.066
G1 F900 X164.313 Y101.522 E120.21631
G0 F6000 X164.307 Y102.082
G1 F900 X159.852 Y97.626 E120.43217
G0 F6000 X159.846 Y98.186
G1 F900 X164.301 Y102.642 E120.64803
G0 F6000 X164.296 Y103.202
G1 F900 X159.84 Y98.746 E120.86391
G0 F6000 X159.835 Y99.306
G1 F900 X164.29 Y103.762 E121.07977
G0 F6000 X164.284 Y104.322
G1 F900 X159.829 Y99.866 E121.29563
G0 F6000 X159.823 Y100.426
G1 F900 X164.279 Y104.882 E121.51152
G0 F6000 X164.273 Y105.442
G1 F900 X159.818 Y100.986 E121.72738
G0 F6000 X159.812 Y101.546
G1 F900 X164.267 Y106.002 E121.94324
G0 F6000 X164.262 Y106.562
G1 F900 X159.806 Y102.106 E122.15912
G0 F6000 X159.801 Y102.666
G1 F900 X164.256 Y107.122 E122.37498
G0 F6000 X164.251 Y107.682
G1 F900 X159.795 Y103.226 E122.59087
G0 F6000 X159.789 Y103.787
G1 F900 X164.245 Y108.242 E122.80673
G0 F6000 X164.239 Y108.802
G1 F900 X159.784 Y104.347 E123.02256
G0 F6000 X159.778 Y104.907
G1 F900 X164.234 Y109.362 E123.23842
G0 F6000 X164.228 Y109.922
G1 F900 X159.772 Y105.467 E123.45428
G0 F6000 X159.767 Y106.027
G1 F900 X164.222 Y110.482 E123.67012
G0 F6000 X164.217 Y111.042
G1 F900 X159.761 Y106.587 E123.88598
G0 F6000 X159.755 Y107.147
G1 F900 X164.211 Y111.602 E124.10184
G0 F6000 X164.205 Y112.162
G1 F900 X159.75 Y107.707 E124.31767
G0 F6000 X159.744 Y108.267
G1 F900 X164.2 Y112.722 E124.53354
G0 F6000 X164.194 Y113.282
G1 F900 X159.738 Y108.827 E124.7494
G0 F6000 X159.733 Y109.387
G1 F900 X164.188 Y113.842 E124.96523
G0 F6000 X164.183 Y114.402
G1 F900 X159.727 Y109.947 E125.18109
G0 F6000 X159.721 Y110.507
G1 F900 X164.177 Y114.962 E125.39695
G0 F6000 X164.171 Y115.522
G1 F900 X159.716 Y111.067 E125.61279
G0 F6000 X159.71 Y111.627
G1 F900 X164.166 Y116.082 E125.82865
G0 F6000 X164.16 Y116.642
G1 F900 X159.705 Y112.187 E126.04448
G0 F6000 X159.699 Y112.747
G1 F900 X164.154 Y117.202 E126.26032
G0 F6000 X164.149 Y117.762
G1 F900 X159.693 Y113.307 E126.47618
G0 F6000 X159.688 Y113.867
G1 F900 X164.143 Y118.323 E126.69204
G0 F6000 X164.137 Y118.883
G1 F900 X159.682 Y114.427 E126.9079
G0 F6000 X159.676 Y114.987
G1 F900 X164.132 Y119.443 E127.12379
G0 F6000 X164.127 Y120.003
G1 F900 X159.671 Y115.547 E127.33967
G0 F6000 X159.665 Y116.107
G1 F900 X164.121 Y120.563 E127.55555
G0 F6000 X164.115 Y121.123
G1 F900 X159.659 Y116.667 E127.77144
G0 F6000 X159.654 Y117.227
G1 F900 X164.11 Y121.683 E127.98732
G0 F6000 X164.104 Y122.243
G1 F900 X159.648 Y117.787 E128.20321
G0 F6000 X159.642 Y118.347
G1 F900 X164.098 Y122.803 E128.41909
G0 F6000 X164.093 Y123.363
G1 F900 X159.637 Y118.907 E128.63498
G0 F6000 X159.631 Y119.467
G1 F900 X164.087 Y123.923 E128.85086
G0 F6000 X164.082 Y124.484
G1 F900 X159.625 Y120.027 E129.06679
G0 F6000 X159.62 Y120.587
G1 F900 X164.076 Y125.044 E129.2827
G0 F6000 X164.07 Y125.604
G1 F900 X159.614 Y121.147 E129.49861
G0 F6000 X159.608 Y121.707
G1 F900 X164.065 Y126.164 E129.71454
G0 F6000 X164.059 Y126.724
G1 F900 X159.603 Y122.267 E129.93045
G0 F6000 X159.597 Y122.827
G1 F900 X164.053 Y127.284 E130.14636
G0 F6000 X164.048 Y127.844
G1 F900 X159.591 Y123.388 E130.36227
G0 F6000 X159.586 Y123.948
G1 F900 X164.042 Y128.404 E130.57816
G0 F6000 X164.036 Y128.964
G1 F900 X159.58 Y124.508 E130.79404
G0 F6000 X159.574 Y125.068
G1 F900 X164.031 Y129.524 E131.00995
G0 F6000 X164.025 Y130.084
G1 F900 X159.569 Y125.628 E131.22583
G0 F6000 X159.563 Y126.188
G1 F900 X164.019 Y130.644 E131.44172
G0 F6000 X164.014 Y131.204
G1 F900 X159.557 Y126.748 E131.65763
G0 F6000 X159.552 Y127.308
G1 F900 X164.008 Y131.764 E131.87351
G0 F6000 X164.002 Y132.324
G1 F900 X159.546 Y127.868 E132.08939
G0 F6000 X159.54 Y128.428
G1 F900 X163.997 Y132.884 E132.3053
G0 F6000 X163.991 Y133.444
G1 F900 X159.535 Y128.988 E132.52119
G0 F6000 X159.529 Y129.548
G1 F900 X163.985 Y134.004 E132.73707
G0 F6000 X163.98 Y134.564
G1 F900 X159.523 Y130.108 E132.95298
G0 F6000 X159.518 Y130.668
G1 F900 X163.974 Y135.124 E133.16887
G0 F6000 X163.968 Y135.684
G1 F900 X159.512 Y131.228 E133.38475
G0 F6000 X159.507 Y131.788
G1 F900 X163.963 Y136.244 E133.60063
G0 F6000 X163.957 Y136.804
G1 F900 X159.501 Y132.348 E133.81652
G0 F6000 X159.495 Y132.908
G1 F900 X163.951 Y137.364 E134.0324
G0 F6000 X163.946 Y137.924
G1 F900 X159.49 Y133.468 E134.24829
G0 F6000 X159.484 Y134.028
G1 F900 X163.94 Y138.484 E134.46417
G0 F6000 X163.934 Y139.044
G1 F900 X159.478 Y134.588 E134.68006
G0 F6000 X159.473 Y135.148
G1 F900 X163.929 Y139.604 E134.89594
G0 F6000 X163.923 Y140.164
G1 F900 X159.467 Y135.708 E135.11183
G0 F6000 X159.461 Y136.268
G1 F900 X163.917 Y140.724 E135.32771
G0 F6000 X163.912 Y141.284
G1 F900 X159.456 Y136.828 E135.5436
G0 F6000 X159.45 Y137.388
G1 F900 X163.906 Y141.844 E135.75948
G0 F6000 X163.9 Y142.404
G1 F900 X159.444 Y137.948 E135.97536
G0 F6000 X159.439 Y138.508
G1 F900 X163.895 Y142.964 E136.19125
G0 F6000 X163.889 Y143.524
G1 F900 X159.434 Y139.069 E136.40708
G0 F6000 X159.428 Y139.629
G1 F900 X163.884 Y144.085 E136.62297
G0 F6000 X163.878 Y144.645
G1 F900 X159.422 Y140.189 E136.83885
G0 F6000 X159.417 Y140.749
G1 F900 X163.872 Y145.205 E137.05471
G0 F6000 X163.867 Y145.765
G1 F900 X159.411 Y141.309 E137.2706
G0 F6000 X159.405 Y141.869
G1 F900 X163.861 Y146.325 E137.48648
G0 F6000 X163.855 Y146.885
G1 F900 X159.4 Y142.429 E137.70234
G0 F6000 X159.394 Y142.989
G1 F900 X163.85 Y147.445 E137.91823
G0 F6000 X163.844 Y148.005
G1 F900 X159.388 Y143.549 E138.13411
G0 F6000 X159.383 Y144.109
G1 F900 X163.838 Y148.565 E138.34997
G0 F6000 X163.833 Y149.125
G1 F900 X159.377 Y144.669 E138.56586
G0 F6000 X159.371 Y145.229
G1 F900 X163.827 Y149.685 E138.78174
G0 F6000 X163.821 Y150.245
G1 F900 X159.366 Y145.789 E138.9976
G0 F6000 X159.36 Y146.349
G1 F900 X163.816 Y150.805 E139.21349
G0 F6000 X163.81 Y151.365
G1 F900 X159.354 Y146.909 E139.42937
G0 F6000 X159.349 Y147.469
G1 F900 X163.804 Y151.925 E139.64523
G0 F6000 X163.799 Y152.485
G1 F900 X159.343 Y148.029 E139.86111
G0 F6000 X159.338 Y148.59
G1 F900 X163.793 Y153.045 E140.07695
G0 F6000 X163.787 Y153.605
G1 F900 X159.332 Y149.15 E140.29279
G0 F6000 X159.326 Y149.71
G1 F900 X163.782 Y154.165 E140.50865
G0 F6000 X163.777 Y154.726
G1 F900 X159.321 Y150.27 E140.72453
G0 F6000 X159.315 Y150.83
G1 F900 X163.771 Y155.286 E140.94042
G0 F6000 X163.765 Y155.846
G1 F900 X159.309 Y151.39 E141.1563
G0 F6000 X159.304 Y151.95
G1 F900 X163.76 Y156.406 E141.37219
G0 F6000 X163.754 Y156.966
G1 F900 X159.298 Y152.51 E141.58807
G0 F6000 X159.292 Y153.07
G1 F900 X163.748 Y157.526 E141.80395
G0 F6000 X163.743 Y158.086
G1 F900 X159.287 Y153.63 E142.01984
G0 F6000 X159.281 Y154.19
G1 F900 X163.737 Y158.646 E142.23572
G0 F6000 X163.731 Y159.206
G1 F900 X159.275 Y154.75 E142.45161
G0 F6000 X159.27 Y155.31
G1 F900 X163.726 Y159.766 E142.66749
G0 F6000 X163.72 Y160.326
G1 F900 X159.264 Y155.87 E142.88338
