;FLAVOR:Marlin
;TIME:15553
;Filament used: 9.94166m
;Layer height: 0.2
;MINX:59.206
;MINY:45.673
;MINZ:0.2
;MAXX:193.431
;MAXY:179.898
;MAXZ:10.6
;Generated with Cura_SteamEngine 4.13.1
M82 ;absolute extrusion mode
M201 X500.00 Y500.00 Z100.00 E5000.00 ;Setup machine max acceleration
M203 X500.00 Y500.00 Z10.00 E50.00 ;Setup machine max feedrate
M204 P500.00 R1000.00 T500.00 ;Setup Print/Retract/Travel acceleration
M205 X8.00 Y8.00 Z0.40 E5.00 ;Setup Jerk
M220 S100 ;Reset Feedrate
M221 S100 ;Reset Flowrate

M104 S205.0 ; set extruder temp
M140 S55.0 ; set bed temp

G28;
M420 S1 ; enable mesh bed leveling positions
G29 S0; Reading bed leveling values
G0 X4.0 Y4.0 Z20 F7200 ; Move to a position in the left front of the bed

M190 S55.0 ; wait for bed temp
M109 S205.0 ; wait for extruder temp
M300 S2600 P200; Beep


G92 E0 ;Reset Extruder
G1 X4.0 Y4.0 F7200 ; Move to a position in the left front of the bed
G1 Z0.2; Move nozzle above 0.3 mm of the bed
G91 ; Use relative mode
G1 Z1.0 Y200;
G1 Z-1.0;
G1 Y-190 E40 F1000 ; print line left side
G0 Z10.0
G92 E0 ; Set extrusion distance to 0
G90 ; switch back to absolute mode
G92 E0
G92 E0
G1 F3600 E-6
;LAYER_COUNT:50
;LAYER:0
M107
G1 F300 Z0.8
;MESH:PerfectCoffeePid Scale Case v9-Bottom.stl
G0 F6000 X76.211 Y146.321 Z0.8
;TYPE:WALL-INNER
G1 F300 Z0.2
G1 F3600 E0
G1 F900 X76.996 Y145.816 E0.03198
G1 X77.694 Y145.198 E0.06391
G1 X78.289 Y144.477 E0.09594
G1 X78.76 Y143.668 E0.12801
G1 X79.099 Y142.799 E0.15996
G1 X79.299 Y141.888 E0.19192
G1 X79.356 Y140.958 E0.22384
G1 X79.291 Y140.288 E0.2469
G1 X79.263 Y140.026 E0.25592
G1 X79.028 Y139.124 E0.28785
G1 X78.653 Y138.27 E0.31981
G1 X78.151 Y137.481 E0.35184
G1 X77.53 Y136.784 E0.38382
G1 X76.808 Y136.192 E0.41581
G1 X76.002 Y135.72 E0.44781
G1 X75.132 Y135.379 E0.47982
G1 X74.22 Y135.18 E0.5118
G1 X73.289 Y135.124 E0.54375
G1 X72.36 Y135.215 E0.57573
G1 X71.478 Y135.446 E0.60696
G1 X71.175 Y135.551 E0.61795
G1 X70.813 Y135.732 E0.63181
G1 X70.6 Y135.827 E0.6398
G1 X69.813 Y136.329 E0.67178
G1 X69.115 Y136.95 E0.70379
G1 X68.524 Y137.674 E0.73581
G1 X68.055 Y138.479 E0.76772
G1 X67.712 Y139.346 E0.79966
G1 X67.51 Y140.26 E0.83173
G1 X67.458 Y141.19 E0.86364
G1 X67.523 Y141.859 E0.88667
G1 X67.551 Y142.121 E0.89569
G1 X67.785 Y143.022 E0.92758
G1 X68.158 Y143.878 E0.95957
G1 X68.662 Y144.665 E0.99159
G1 X69.283 Y145.363 E1.02359
G1 X70.005 Y145.953 E1.05554
G1 X70.582 Y146.295 E1.07851
G1 X70.812 Y146.428 E1.08762
G1 X71.68 Y146.768 E1.11955
G1 X72.592 Y146.966 E1.15152
G1 X73.523 Y147.021 E1.18347
G1 X74.451 Y146.931 E1.21541
G1 X75.356 Y146.697 E1.24744
G1 X76.211 Y146.321 E1.27943
G0 F6000 X76.021 Y145.968
;TYPE:WALL-OUTER
G1 F900 X76.754 Y145.496 E1.3093
G1 X77.405 Y144.919 E1.3391
G1 X77.96 Y144.247 E1.36896
G1 X78.399 Y143.494 E1.39882
G1 X78.715 Y142.683 E1.42864
G1 X78.902 Y141.833 E1.45845
G1 X78.955 Y140.965 E1.48824
G1 X78.893 Y140.329 E1.51014
G1 X78.868 Y140.098 E1.5181
G1 X78.649 Y139.256 E1.5479
G1 X78.299 Y138.459 E1.57772
G1 X77.831 Y137.723 E1.6076
G1 X77.252 Y137.073 E1.63742
G1 X76.579 Y136.521 E1.66724
G1 X75.827 Y136.081 E1.69709
G1 X75.016 Y135.763 E1.72693
G1 X74.165 Y135.577 E1.75677
G1 X73.297 Y135.525 E1.78656
G1 X72.431 Y135.61 E1.81637
G1 X71.594 Y135.829 E1.84601
G1 X71.331 Y135.92 E1.85554
G1 X70.984 Y136.094 E1.86884
G1 X70.79 Y136.18 E1.87611
G1 X70.055 Y136.649 E1.90598
G1 X69.405 Y137.228 E1.9358
G1 X68.854 Y137.903 E1.96565
G1 X68.416 Y138.654 E1.99544
G1 X68.096 Y139.463 E2.02524
G1 X67.908 Y140.315 E2.05513
G1 X67.859 Y141.182 E2.08488
G1 X67.921 Y141.818 E2.10677
G1 X67.946 Y142.049 E2.11473
G1 X68.164 Y142.891 E2.14453
G1 X68.512 Y143.689 E2.17435
G1 X68.982 Y144.423 E2.20421
G1 X69.561 Y145.073 E2.23403
G1 X70.235 Y145.624 E2.26385
G1 X70.784 Y145.95 E2.28573
G1 X70.986 Y146.067 E2.29373
G1 X71.796 Y146.384 E2.32352
G1 X72.647 Y146.569 E2.35336
G1 X73.515 Y146.62 E2.38314
G1 X74.381 Y146.536 E2.41295
G1 X75.225 Y146.318 E2.44281
G1 X76.021 Y145.968 E2.4726
G0 F6000 X76.229 Y146.355
G1 F3600 E-3.5274
G1 F300 Z0.8
G0 F6000 X106.19 Y179.494 Z0.8
;TYPE:WALL-INNER
G1 F300 Z0.2
G1 F3600 E2.4726
G1 F900 X105.995 Y179.431 E2.47962
G1 X105.836 Y179.25 E2.48788
G1 X87.181 Y144.358 E3.84332
G1 X78.176 Y149.171 E4.19311
G1 X76.991 Y149.761 E4.23846
G1 X75.753 Y150.174 E4.28317
G1 X74.475 Y150.411 E4.3277
G1 X73.129 Y150.468 E4.37385
G1 X71.837 Y150.341 E4.41833
G1 X70.56 Y150.033 E4.46333
G1 X69.328 Y149.542 E4.50876
G1 X68.189 Y148.892 E4.55369
G1 X67.143 Y148.083 E4.59899
G1 X66.227 Y147.139 E4.64405
G1 X65.446 Y146.073 E4.68932
G1 X64.826 Y144.911 E4.73444
G1 X64.376 Y143.678 E4.77941
G1 X64.101 Y142.395 E4.82436
G1 X64.008 Y141.067 E4.86997
G1 X64.098 Y139.766 E4.91464
G1 X64.373 Y138.475 E4.95986
G1 X64.831 Y137.226 E5.00544
G1 X65.439 Y136.086 E5.0497
G1 X66.231 Y135.002 E5.09569
G1 X67.144 Y134.064 E5.14053
G1 X67.162 Y134.048 E5.14136
G1 X68.178 Y133.262 E5.18536
G1 X69.32 Y132.607 E5.23046
G1 X78.325 Y127.792 E5.58029
G1 X59.667 Y92.89 E6.93608
G1 X59.61 Y92.661 E6.94417
G1 X59.672 Y92.463 E6.95128
G1 X59.849 Y92.305 E6.9594
G1 X146.209 Y46.135 E10.31419
G1 X146.441 Y46.077 E10.32238
G1 X146.642 Y46.139 E10.32958
G1 X146.802 Y46.32 E10.33786
G1 X192.971 Y132.681 E13.69266
G1 X193.027 Y132.908 E13.70067
G1 X192.965 Y133.108 E13.70784
G1 X192.784 Y133.268 E13.71611
G1 X106.423 Y179.437 E17.07091
G1 X106.19 Y179.494 E17.07913
G0 F6000 X106.391 Y179.876
;TYPE:WALL-OUTER
G1 F900 X106.178 Y179.897 E17.08646
G1 X105.976 Y179.863 E17.09348
G1 X105.781 Y179.773 E17.10083
G1 X105.629 Y179.648 E17.10758
G1 X105.493 Y179.458 E17.11558
G1 X87.017 Y144.899 E18.45808
G1 X78.365 Y149.524 E18.79417
G1 X77.178 Y150.117 E18.83962
G1 X77.141 Y150.132 E18.84099
G1 X75.851 Y150.562 E18.88757
G1 X74.516 Y150.81 E18.93409
G1 X73.121 Y150.869 E18.98192
G1 X71.768 Y150.736 E19.0285
G1 X70.45 Y150.418 E19.07494
G1 X70.415 Y150.406 E19.07621
G1 X69.159 Y149.906 E19.12252
G1 X67.96 Y149.221 E19.16983
G1 X66.897 Y148.4 E19.21584
G1 X66.864 Y148.37 E19.21737
G1 X65.943 Y147.422 E19.26265
G1 X65.916 Y147.392 E19.26403
G1 X65.117 Y146.301 E19.31036
G1 X65.095 Y146.265 E19.31181
G1 X64.473 Y145.101 E19.35702
G1 X64.457 Y145.068 E19.35827
G1 X63.991 Y143.791 E19.40484
G1 X63.704 Y142.451 E19.45179
G1 X63.607 Y141.067 E19.49932
G1 X63.701 Y139.712 E19.54585
G1 X63.989 Y138.358 E19.59327
G1 X64.463 Y137.066 E19.64042
G1 X65.097 Y135.878 E19.68655
G1 X65.117 Y135.848 E19.68779
G1 X65.926 Y134.742 E19.73473
G1 X66.868 Y133.773 E19.78103
G1 X66.902 Y133.744 E19.78256
G1 X67.943 Y132.938 E19.82766
G1 X67.975 Y132.917 E19.82897
G1 X69.131 Y132.254 E19.87462
G1 X77.784 Y127.628 E20.21076
G1 X59.304 Y93.06 E21.55359
G1 X59.228 Y92.858 E21.56099
G1 X59.207 Y92.645 E21.56832
G1 X59.241 Y92.442 E21.57537
G1 X59.331 Y92.248 E21.5827
G1 X59.458 Y92.094 E21.58953
G1 X59.641 Y91.962 E21.59726
G1 X146.043 Y45.77 E24.95367
G1 X146.246 Y45.694 E24.96109
G1 X146.458 Y45.674 E24.96839
G1 X146.662 Y45.708 E24.97547
G1 X146.854 Y45.796 E24.98271
G1 X147.011 Y45.925 E24.98967
G1 X147.145 Y46.112 E24.99755
G1 X193.334 Y132.511 E28.35382
G1 X193.41 Y132.713 E28.36121
G1 X193.43 Y132.925 E28.36851
G1 X193.396 Y133.128 E28.37556
G1 X193.308 Y133.32 E28.38279
G1 X193.179 Y133.477 E28.38976
G1 X192.992 Y133.611 E28.39764
G1 X106.593 Y179.8 E31.7539
G1 X106.391 Y179.876 E31.7613
G0 F6000 X106.292 Y179.448
G0 X106.212 Y179.087
;TYPE:SKIN
G1 F900 X106.16 Y179.028 E31.76399
G1 X87.341 Y143.83 E33.13133
G1 X77.997 Y148.824 E33.49429
G1 X76.841 Y149.4 E33.53853
G1 X75.659 Y149.795 E33.58123
G1 X74.43 Y150.023 E33.62405
G1 X73.137 Y150.077 E33.66838
G1 X71.903 Y149.956 E33.71086
G1 X70.682 Y149.661 E33.75389
G1 X69.495 Y149.188 E33.79767
G1 X68.401 Y148.564 E33.84081
G1 X67.405 Y147.794 E33.88394
G1 X66.524 Y146.885 E33.92731
G1 X65.778 Y145.868 E33.97052
G1 X65.183 Y144.752 E34.01384
G1 X64.753 Y143.577 E34.05671
G1 X64.489 Y142.342 E34.09997
G1 X64.4 Y141.067 E34.14376
G1 X64.486 Y139.819 E34.18661
G1 X64.75 Y138.577 E34.23011
G1 X65.188 Y137.385 E34.27361
G1 X65.771 Y136.291 E34.31608
G1 X66.531 Y135.252 E34.36018
G1 X67.401 Y134.357 E34.40294
G1 X68.389 Y133.59 E34.44579
G1 X69.51 Y132.948 E34.49005
G1 X78.853 Y127.952 E34.853
G1 X60.034 Y92.75 E36.22047
G1 X60.016 Y92.678 E36.22301
G1 X60.072 Y92.628 E36.22558
G1 X146.351 Y46.501 E39.57722
G1 X146.426 Y46.483 E39.57986
G1 X146.479 Y46.543 E39.5826
G1 X192.605 Y132.824 E42.93429
G1 X192.622 Y132.891 E42.93666
G1 X192.561 Y132.945 E42.93945
G1 X106.283 Y179.07 E46.29102
G1 X106.212 Y179.087 E46.29352
G1 F3600 E40.29352
G1 F300 Z0.8
G0 F6000 X77.232 Y146.128 Z0.8
G1 F300 Z0.2
G1 F3600 E46.29352
G1 F900 X77.975 Y145.469 E46.32755
G1 X78.61 Y144.701 E46.36169
G1 X79.113 Y143.838 E46.39591
G1 X79.473 Y142.912 E46.42994
G1 X79.687 Y141.942 E46.46397
G1 X79.748 Y140.951 E46.49798
G1 X79.679 Y140.249 E46.52215
G1 X79.647 Y139.956 E46.53225
G1 X79.398 Y138.995 E46.56626
G1 X78.998 Y138.086 E46.60028
G1 X78.463 Y137.245 E46.63442
G1 X77.801 Y136.502 E46.66852
G1 X77.032 Y135.871 E46.70259
G1 X76.173 Y135.369 E46.73668
G1 X75.245 Y135.005 E46.77083
G1 X74.273 Y134.792 E46.80492
G1 X73.281 Y134.732 E46.83896
G1 X72.291 Y134.83 E46.87304
G1 X71.365 Y135.072 E46.90583
G1 X71.023 Y135.191 E46.91824
G1 X70.655 Y135.375 E46.93233
G1 X70.415 Y135.482 E46.94133
G1 X69.577 Y136.017 E46.97539
G1 X68.832 Y136.679 E47.00954
G1 X68.202 Y137.451 E47.04367
G1 X67.704 Y138.308 E47.07763
G1 X67.338 Y139.231 E47.11164
G1 X67.122 Y140.207 E47.14589
G1 X67.066 Y141.198 E47.17989
G1 X67.135 Y141.898 E47.20399
G1 X67.167 Y142.191 E47.21409
G1 X67.415 Y143.149 E47.24799
G1 X67.813 Y144.062 E47.28211
G1 X68.35 Y144.901 E47.31623
G1 X69.012 Y145.646 E47.35038
G1 X69.781 Y146.273 E47.38437
G1 X70.385 Y146.632 E47.40844
G1 X70.642 Y146.781 E47.41861
G1 X71.567 Y147.142 E47.45263
G1 X72.539 Y147.354 E47.48671
G1 X73.531 Y147.413 E47.52076
G1 X74.519 Y147.317 E47.55476
G1 X75.484 Y147.067 E47.58891
G1 X76.396 Y146.666 E47.62304
G1 X77.232 Y146.128 E47.6571
G1 F3600 E41.6571
G1 F300 Z0.8
G0 F6000 X146.518 Y46.958 Z0.8
G1 F300 Z0.2
G1 F3600 E47.6571
G1 F900 X146.279 Y46.719 E47.66868
G0 F6000 X145.911 Y46.916
G1 F900 X147.168 Y48.173 E47.72958
G0 F6000 X147.818 Y49.389
G1 F900 X145.542 Y47.113 E47.83985
G0 F6000 X145.173 Y47.31
G1 F900 X148.468 Y50.604 E47.99946
G0 F6000 X149.118 Y51.82
G1 F900 X144.805 Y47.507 E48.20842
G0 F6000 X144.437 Y47.704
G1 F900 X149.768 Y53.035 E48.46669
G0 F6000 X150.417 Y54.251
G1 F900 X144.068 Y47.901 E48.77431
G0 F6000 X143.699 Y48.098
G1 F900 X151.067 Y55.466 E49.13128
G0 F6000 X151.717 Y56.682
G1 F900 X143.331 Y48.296 E49.53756
G0 F6000 X142.962 Y48.492
G1 F900 X152.367 Y57.897 E49.99322
G0 F6000 X153.017 Y59.113
G1 F900 X142.593 Y48.689 E50.49824
G0 F6000 X142.225 Y48.887
G1 F900 X153.667 Y60.328 E51.05256
G0 F6000 X154.316 Y61.544
G1 F900 X141.856 Y49.083 E51.65624
G0 F6000 X141.487 Y49.281
G1 F900 X154.966 Y62.759 E52.30925
G0 F6000 X155.616 Y63.975
G1 F900 X141.119 Y49.478 E53.0116
G0 F6000 X140.751 Y49.675
G1 F900 X156.266 Y65.191 E53.7633
G0 F6000 X156.916 Y66.406
G1 F900 X140.381 Y49.872 E54.56436
G0 F6000 X140.013 Y50.069
G1 F900 X157.566 Y67.622 E55.41477
G0 F6000 X158.215 Y68.837
G1 F900 X139.645 Y50.266 E56.31447
G0 F6000 X139.275 Y50.463
G1 F900 X158.865 Y70.053 E57.26357
G0 F6000 X159.515 Y71.268
G1 F900 X138.907 Y50.66 E58.26199
G0 F6000 X138.539 Y50.857
G1 F900 X160.165 Y72.484 E59.30975
G0 F6000 X160.815 Y73.699
G1 F900 X138.17 Y51.055 E60.40683
G0 F6000 X137.801 Y51.251
G1 F900 X161.465 Y74.915 E61.55331
G0 F6000 X162.114 Y76.13
G1 F900 X137.433 Y51.449 E62.74905
G0 F6000 X137.064 Y51.646
G1 F900 X162.764 Y77.346 E63.99417
G0 F6000 X163.414 Y78.561
G1 F900 X136.695 Y51.842 E65.28865
G0 F6000 X136.327 Y52.04
G1 F900 X164.064 Y79.777 E66.63245
G0 F6000 X164.714 Y80.992
G1 F900 X135.958 Y52.237 E68.0256
G0 F6000 X135.589 Y52.434
G1 F900 X165.363 Y82.208 E69.46809
G0 F6000 X166.013 Y83.423
G1 F900 X135.221 Y52.631 E70.95991
G0 F6000 X134.853 Y52.828
G1 F900 X166.663 Y84.639 E72.50106
G0 F6000 X167.313 Y85.854
G1 F900 X134.484 Y53.025 E74.09156
G0 F6000 X134.115 Y53.222
G1 F900 X167.963 Y87.07 E75.73143
G0 F6000 X168.613 Y88.285
G1 F900 X133.747 Y53.419 E77.42062
G0 F6000 X133.378 Y53.617
G1 F900 X169.262 Y89.501 E79.15913
G0 F6000 X169.912 Y90.716
G1 F900 X133.009 Y53.813 E80.94701
G0 F6000 X132.641 Y54.01
G1 F900 X170.562 Y91.932 E82.78423
G0 F6000 X171.212 Y93.147
G1 F900 X132.272 Y54.208 E84.67077
G0 F6000 X131.904 Y54.405
G1 F900 X171.862 Y94.363 E86.60666
G0 F6000 X172.512 Y95.578
G1 F900 X131.535 Y54.602 E88.59189
G0 F6000 X131.166 Y54.799
G1 F900 X173.161 Y96.794 E90.62647
G0 F6000 X173.811 Y98.009
G1 F900 X130.798 Y54.996 E92.71036
G0 F6000 X130.429 Y55.193
G1 F900 X174.461 Y99.225 E94.84363
G0 F6000 X175.111 Y100.44
G1 F900 X130.06 Y55.39 E97.02624
G0 F6000 X129.692 Y55.587
G1 F900 X175.761 Y101.656 E99.25819
G0 F6000 X176.411 Y102.872
G1 F900 X129.323 Y55.784 E101.53951
G0 F6000 X128.955 Y55.981
G1 F900 X177.06 Y104.087 E103.87013
G0 F6000 X177.71 Y105.303
G1 F900 X128.586 Y56.178 E106.25011
G0 F6000 X128.218 Y56.376
G1 F900 X178.36 Y106.518 E108.6794
G0 F6000 X179.01 Y107.734
G1 F900 X127.849 Y56.572 E111.15807
G0 F6000 X127.48 Y56.77
G1 F900 X179.66 Y108.949 E113.68607
G0 F6000 X180.309 Y110.164
G1 F900 X127.112 Y56.967 E116.26336
G0 F6000 X126.743 Y57.163
G1 F900 X180.959 Y111.379 E118.89001
G0 F6000 X181.609 Y112.595
G1 F900 X126.374 Y57.361 E121.56602
G0 F6000 X126.006 Y57.558
G1 F900 X182.258 Y113.81 E124.29132
G0 F6000 X182.908 Y115.026
G1 F900 X125.638 Y57.755 E127.06596
G0 F6000 X125.268 Y57.952
G1 F900 X183.558 Y116.241 E129.88997
G0 F6000 X184.208 Y117.457
G1 F900 X124.9 Y58.149 E132.76333
G0 F6000 X124.532 Y58.346
G1 F900 X184.858 Y118.673 E135.68603
G0 F6000 X185.508 Y119.888
G1 F900 X124.163 Y58.543 E138.65808
G0 F6000 X123.794 Y58.74
G1 F900 X186.157 Y121.104 E141.67946
G0 F6000 X186.807 Y122.319
G1 F900 X123.426 Y58.938 E144.75015
G0 F6000 X123.057 Y59.134
G1 F900 X187.457 Y123.535 E147.87023
G0 F6000 X188.107 Y124.75
G1 F900 X122.688 Y59.331 E151.03965
G0 F6000 X122.32 Y59.529
G1 F900 X188.757 Y125.966 E154.25839
G0 F6000 X189.407 Y127.181
G1 F900 X121.951 Y59.726 E157.52648
G0 F6000 X121.582 Y59.923
G1 F900 X190.056 Y128.397 E160.84391
G0 F6000 X190.706 Y129.612
G1 F900 X121.214 Y60.12 E164.21066
G0 F6000 X120.845 Y60.317
G1 F900 X191.356 Y130.828 E167.62678
G0 F6000 X192.006 Y132.043
G1 F900 X120.476 Y60.514 E171.09225
G0 F6000 X120.108 Y60.711
G1 F900 X192.299 Y132.902 E174.58976
G0 F6000 X191.93 Y133.099
G1 F900 X119.74 Y60.908 E178.08725
G0 F6000 X119.371 Y61.106
G1 F900 X191.561 Y133.295 E181.58469
G0 F6000 X191.193 Y133.493
G1 F900 X119.002 Y61.302 E185.0822
G0 F6000 X118.634 Y61.499
G1 F900 X190.824 Y133.69 E188.57969
G0 F6000 X190.456 Y133.887
G1 F900 X118.265 Y61.697 E192.07718
G0 F6000 X117.896 Y61.893
G1 F900 X190.087 Y134.084 E195.57469
G0 F6000 X189.718 Y134.281
G1 F900 X117.528 Y62.091 E199.07215
G0 F6000 X117.159 Y62.288
G1 F900 X189.35 Y134.478 E202.56964
G0 F6000 X188.981 Y134.675
G1 F900 X116.79 Y62.484 E206.06716
G0 F6000 X116.422 Y62.682
G1 F900 X188.612 Y134.872 E209.56462
G0 F6000 X188.244 Y135.07
G1 F900 X116.053 Y62.879 E213.06213
G0 F6000 X115.685 Y63.076
G1 F900 X187.875 Y135.266 E216.5596
G0 F6000 X187.507 Y135.463
G1 F900 X115.316 Y63.273 E220.05708
G0 F6000 X114.947 Y63.47
G1 F900 X187.138 Y135.661 E223.5546
G0 F6000 X186.77 Y135.858
G1 F900 X114.579 Y63.667 E227.05211
G0 F6000 X114.21 Y63.864
G1 F900 X186.401 Y136.055 E230.54962
G0 F6000 X186.032 Y136.252
G1 F900 X113.842 Y64.061 E234.04711
G0 F6000 X113.473 Y64.259
G1 F900 X185.664 Y136.449 E237.5446
G0 F6000 X185.295 Y136.646
G1 F900 X113.105 Y64.456 E241.04206
G0 F6000 X112.736 Y64.652
G1 F900 X184.926 Y136.843 E244.53955
G0 F6000 X184.558 Y137.04
G1 F900 X112.367 Y64.85 E248.03704
G0 F6000 X111.999 Y65.047
G1 F900 X184.189 Y137.237 E251.5345
G0 F6000 X183.82 Y137.434
G1 F900 X111.63 Y65.244 E255.03197
G0 F6000 X111.261 Y65.441
G1 F900 X183.452 Y137.631 E258.52946
G0 F6000 X183.084 Y137.829
G1 F900 X110.893 Y65.638 E262.02697
G0 F6000 X110.524 Y65.835
